(1)
(T1  D=3.175 CR=0. - ZMIN=-7.852 - FLAT END MILL)
G0 G90 G94 G17
G21
G53 Z0.

(ADAPTIVE1)
M5
M9
T1
S12000 M3
G55
M8
G0 X-0.218 Y-2.916
Z15.
Z5.
Z-1.365
G1 Z-1.683 F513.
X-0.216 Y-2.908 Z-1.753
X-0.21 Y-2.885 Z-1.82
X-0.201 Y-2.848 Z-1.88
X-0.188 Y-2.8 Z-1.931
X-0.173 Y-2.741 Z-1.969
X-0.157 Y-2.676 Z-1.992
X-0.139 Y-2.608 Z-2.
G3 X0.003 Y-1.621 I-4.485 J1.149
G1 Y-1.471 F900.
X-0.145 Y-0.748
X-0.224 Y-0.014
X-0.267 Y0.722
X-0.289 Y1.46
X-0.301 Y2.198
X-0.307 Y2.935
X-0.31 Y3.673
X-0.312 Y5.149
Y11.051
X-0.303 Y48.68
X-0.298 Y70.999
X-0.267 Y71.181
X-0.119 Y71.519
X0.124 Y71.796
X0.713 Y72.24
X1.406 Y72.494
X2.13 Y72.635
X2.864 Y72.71
X3.601 Y72.751
X4.338 Y72.772
X5.076 Y72.783
X5.814 Y72.789
X6.552 Y72.793
X8.027 Y72.795
X13.93 Y72.796
X27.21 Y72.797
X71.11 Y72.798
X71.459 Y72.678
X71.748 Y72.448
X72.212 Y71.874
X72.479 Y71.187
X72.626 Y70.464
X72.706 Y69.73
X72.748 Y68.994
X72.771 Y68.256
X72.783 Y67.518
X72.789 Y66.781
X72.792 Y66.043
X72.795 Y64.567
X72.796 Y58.665
X72.797 Y16.609
X72.798 Y1.484
X72.761 Y1.303
X72.608 Y0.968
X72.361 Y0.693
X71.769 Y0.254
X71.075 Y0.002
X70.35 Y-0.136
X69.616 Y-0.211
X68.879 Y-0.25
X68.142 Y-0.271
X67.404 Y-0.282
X66.666 Y-0.288
X65.929 Y-0.291
X64.453 Y-0.293
X57.813
X37.892 Y-0.288
X2.845 Y-0.281
X2.663 Y-0.255
X2.319 Y-0.12
X2.032 Y0.112
X1.567 Y0.684
X1.294 Y1.37
X1.14 Y2.091
X1.056 Y2.824
X1.01 Y3.56
X0.985 Y4.298
X0.972 Y5.036
X0.965 Y5.773
X0.961 Y6.511
X0.958 Y7.987
Y12.414
X0.959 Y14.627
X0.97 Y64.799
X0.971 Y69.225
X0.994 Y69.594
X1.118 Y69.941
X1.327 Y70.245
X1.859 Y70.757
X2.522 Y71.079
X3.235 Y71.271
X3.964 Y71.382
X4.699 Y71.446
X5.436 Y71.481
X6.174 Y71.501
X6.911 Y71.512
X7.649 Y71.519
X8.387 Y71.522
X9.863 Y71.525
X14.29 Y71.526
X46.016 Y71.527
X69.257 Y71.528
X69.625 Y71.504
X69.97 Y71.373
X70.271 Y71.16
X70.775 Y70.621
X71.09 Y69.954
X71.278 Y69.24
X71.387 Y68.511
X71.448 Y67.775
X71.483 Y67.038
X71.502 Y66.301
X71.513 Y65.563
X71.519 Y64.825
X71.522 Y64.087
X71.525 Y62.612
X71.526 Y57.447
X71.527 Y45.642
X71.528 Y3.218
X71.491 Y2.851
X71.352 Y2.509
X71.133 Y2.212
X70.587 Y1.716
X69.918 Y1.405
X69.204 Y1.22
X68.474 Y1.113
X67.738 Y1.052
X67.001 Y1.018
X66.264 Y0.999
X65.526 Y0.989
X64.788 Y0.983
X64.05 Y0.98
X62.575 Y0.977
X57.41
X14.617 Y0.987
X4.287 Y0.989
X3.931 Y1.086
X3.613 Y1.273
X3.071 Y1.772
X2.723 Y2.423
X2.512 Y3.13
X2.389 Y3.858
X2.318 Y4.592
X2.278 Y5.329
X2.255 Y6.066
X2.243 Y6.804
X2.236 Y7.542
X2.232 Y8.28
X2.229 Y9.755
X2.228 Y13.444
X2.235 Y40.006
X2.236 Y45.861
X2.217 Y46.027
X2.161 Y46.185
X2.072 Y46.326
X1.962 Y46.462
X1.896 Y46.561
X1.795 Y46.737
X1.726 Y46.896
X1.668 Y47.064
X1.627 Y47.206
X1.622 Y47.231
X1.595 Y47.399
X1.581 Y47.567
X1.578 Y47.734
X1.59 Y47.902
X1.619 Y48.07
X1.627 Y48.114
X1.658 Y48.237
X1.712 Y48.405
X1.735 Y48.456
X1.816 Y48.67
X1.931 Y49.067
X2.051 Y49.65
X2.14 Y50.382
X2.187 Y51.119
X2.211 Y51.856
X2.224 Y52.594
X2.23 Y53.331
X2.234 Y54.069
X2.237 Y55.545
X2.239 Y60.71
X2.241 Y68.088
X2.333 Y68.445
X2.509 Y68.769
X2.989 Y69.33
X3.627 Y69.7
X4.329 Y69.929
X5.053 Y70.066
X5.787 Y70.147
X6.523 Y70.194
X7.261 Y70.221
X7.998 Y70.236
X8.736 Y70.245
X9.474 Y70.25
X10.212 Y70.253
X11.687 Y70.255
X16.852 Y70.256
X32.346 Y70.257
X67.761 Y70.258
X68.13 Y70.242
X68.485 Y70.142
X68.805 Y69.958
X69.356 Y69.468
X69.717 Y68.824
X69.94 Y68.121
X70.073 Y67.395
X70.151 Y66.661
X70.196 Y65.925
X70.222 Y65.188
X70.237 Y64.45
X70.245 Y63.712
X70.25 Y62.974
X70.253 Y62.237
X70.255 Y60.761
X70.256 Y56.334
X70.257 Y49.361
X70.274 Y49.202
X70.325 Y49.051
X70.407 Y48.914
X70.411 Y48.908
X70.538 Y48.697
X70.597 Y48.573
X70.666 Y48.405
X70.715 Y48.237
X70.75 Y48.07
X70.772 Y47.902
X70.78 Y47.734
X70.772 Y47.567
X70.753 Y47.399
X70.721 Y47.231
X70.705 Y47.176
X70.67 Y47.064
X70.6 Y46.844
X70.482 Y46.336
X70.373 Y45.606
X70.318 Y44.87
X70.289 Y44.133
X70.273 Y43.395
X70.265 Y42.657
X70.261 Y41.92
X70.259 Y41.182
X70.257 Y38.968
X70.258 Y4.291
X70.134 Y3.943
X69.933 Y3.634
X69.419 Y3.105
X68.767 Y2.76
X68.061 Y2.547
X67.334 Y2.42
X66.6 Y2.346
X65.863 Y2.303
X65.126 Y2.278
X64.388 Y2.264
X63.65 Y2.257
X62.912 Y2.252
X62.175 Y2.25
X60.699 Y2.248
X54.796
X13.479 Y2.257
X5.732 Y2.259
X5.371 Y2.334
X5.04 Y2.497
X4.752 Y2.728
X4.263 Y3.281
X3.952 Y3.95
X3.763 Y4.663
X3.651 Y5.392
X3.585 Y6.127
X3.547 Y6.864
X3.526 Y7.601
X3.514 Y8.339
X3.507 Y9.077
X3.503 Y9.815
X3.5 Y11.29
X3.499 Y14.241
X3.505 Y43.754
X3.506 Y44.492
X3.502 Y44.971
X3.472 Y45.175
X3.387 Y45.363
X3.253 Y45.52
X3.082 Y45.634
X2.897 Y45.722
X2.801 Y45.77
X2.633 Y45.855
X2.465 Y45.964
X2.345 Y46.058
X2.159 Y46.225
X2.13 Y46.254
X2.072 Y46.326
G3 X1.772 Y46.43 I-0.24 J-0.208 F513.
G2 X1.443 Y46.573 I-0.06 J0.312
G1 X1.292 Y46.813
X1.009 Y47.265 F900.
G2 X1.093 Y47.692 I0.269 J0.169
G3 X1.102 Y47.698 I-1.17 J1.634
X1.735 Y48.456 I-1.179 J1.628 F513.
G1 X1.795 Y48.592 F900.
X1.878 Y48.74
X1.962 Y48.873
X1.988 Y48.908
X2.131 Y49.076
X2.31 Y49.243
X2.357 Y49.282
X2.468 Y49.383
X2.566 Y49.496
X2.67 Y49.638
X2.783 Y49.82
X2.895 Y50.041
X3.016 Y50.332
X3.138 Y50.713
X3.265 Y51.251
X3.376 Y51.98
X3.436 Y52.716
X3.469 Y53.453
X3.486 Y54.19
X3.496 Y54.928
X3.502 Y55.666
X3.505 Y56.404
X3.508 Y57.879
X3.51 Y63.782
X3.511 Y66.733
X3.593 Y67.093
X3.759 Y67.422
X4.221 Y67.998
X4.849 Y68.384
X5.546 Y68.627
X6.269 Y68.775
X7.001 Y68.863
X7.737 Y68.915
X8.475 Y68.945
X9.212 Y68.962
X9.95 Y68.972
X10.688 Y68.978
X11.426 Y68.982
X12.901 Y68.985
X16.59 Y68.986
X35.036 Y68.987
X66.762 Y68.988
X67.119 Y68.897
X67.446 Y68.725
X68.014 Y68.255
X68.395 Y67.623
X68.634 Y66.925
X68.779 Y66.201
X68.865 Y65.469
X68.916 Y64.732
X68.946 Y63.995
X68.963 Y63.258
X68.973 Y62.52
X68.978 Y61.782
X68.982 Y61.044
X68.985 Y59.569
X68.986 Y55.88
Y51.453
Y50.715
X68.99 Y50.343
X69.023 Y50.128
X69.118 Y49.932
X69.266 Y49.772
X69.453 Y49.662
X69.532 Y49.631
X69.644 Y49.578
X69.699 Y49.549
X69.867 Y49.445
G3 X70.184 Y49.447 I0.157 J0.276 F513.
G2 X70.607 Y49.353 I0.16 J-0.274
G1 X70.713 Y49.197
X71.335 Y48.287 F900.
G2 X71.271 Y47.86 I-0.262 J-0.179
G3 X71.263 Y47.853 I1.253 J-1.572
X70.67 Y47.064 I1.261 J-1.565 F513.
G1 X70.606 Y46.896 F900.
X70.538 Y46.757
X70.37 Y46.485
X70.294 Y46.393
X70.202 Y46.29
X70.137 Y46.225
X70.081 Y46.175
X69.974 Y46.069
X69.878 Y45.952
X69.777 Y45.807
X69.668 Y45.62
X69.554 Y45.382
X69.436 Y45.076
X69.314 Y44.661
X69.188 Y44.064
X69.095 Y43.332
X69.046 Y42.596
X69.019 Y41.858
X69.004 Y41.121
X68.996 Y40.383
X68.992 Y39.645
X68.99 Y38.907
X68.987 Y36.694
X68.988 Y5.705
X68.889 Y5.35
X68.71 Y5.027
X68.23 Y4.467
X67.594 Y4.094
X66.894 Y3.86
X66.17 Y3.718
X65.437 Y3.634
X64.701 Y3.585
X63.963 Y3.556
X63.226 Y3.539
X62.488 Y3.529
X61.75 Y3.524
X61.012 Y3.521
X60.275 Y3.519
X58.061 Y3.518
X10.103 Y3.528
X7.152
X6.788 Y3.587
X6.446 Y3.725
X6.143 Y3.936
X5.624 Y4.461
X5.285 Y5.116
X5.075 Y5.823
X4.948 Y6.55
X4.872 Y7.284
X4.828 Y8.02
X4.803 Y8.758
X4.788 Y9.495
X4.779 Y10.233
X4.775 Y10.971
X4.772 Y11.709
X4.77 Y13.184
Y18.349
X4.775 Y43.435
X4.774 Y44.146
X4.746 Y44.486
X4.697 Y44.656
X4.609 Y44.809
X4.487 Y44.937
X4.339 Y45.032
X3.952 Y45.219
X3.471 Y45.447
X3.082 Y45.634
G3 X2.81 Y45.06 I-0.127 J-0.291 F513.
X2.827 Y45.052 I0.144 J0.283
G1 X2.892 Y45.024 Z-1.992
X2.954 Y44.997 Z-1.969
X3.009 Y44.973 Z-1.931
X3.055 Y44.953 Z-1.88
X3.089 Y44.937 Z-1.82
X3.111 Y44.928 Z-1.753
X3.118 Y44.925 Z-1.683
G0 Z5.
X1.126 Y48.842
Z-1.365
G1 Z-1.683 F513.
X1.134 Y48.843 Z-1.753
X1.157 Y48.847 Z-1.82
X1.194 Y48.852 Z-1.88
X1.244 Y48.86 Z-1.931
X1.303 Y48.869 Z-1.969
X1.37 Y48.88 Z-1.992
X1.44 Y48.89 Z-2.
G3 X2.357 Y49.282 I-0.306 J1.986
G1 X2.465 Y49.371 F900.
X2.527 Y49.411
X2.633 Y49.475
X2.801 Y49.56
X2.841 Y49.578
X2.968 Y49.627
X2.996 Y49.636
X3.136 Y49.69
X3.266 Y49.766
X3.386 Y49.855
X3.506 Y49.962
X3.624 Y50.086
X3.746 Y50.238
X3.882 Y50.438
X4.019 Y50.678
X4.154 Y50.966
X4.296 Y51.345
X4.435 Y51.836
X4.575 Y52.536
X4.661 Y53.269
X4.71 Y54.005
X4.739 Y54.742
X4.756 Y55.48
X4.766 Y56.217
X4.771 Y56.955
X4.775 Y57.693
X4.778 Y59.169
X4.78 Y63.596
Y65.071
X4.792 Y65.44
X4.874 Y65.8
X5.038 Y66.13
X5.496 Y66.708
X6.122 Y67.098
X6.818 Y67.345
X7.54 Y67.497
X8.272 Y67.587
X9.008 Y67.641
X9.745 Y67.672
X10.483 Y67.691
X11.22 Y67.701
X11.958 Y67.708
X12.696 Y67.711
X14.172 Y67.715
X17.861 Y67.716
X37.782 Y67.717
X65.081 Y67.718
X65.449 Y67.705
X65.809 Y67.621
X66.138 Y67.454
X66.714 Y66.993
X67.102 Y66.365
X67.348 Y65.67
X67.498 Y64.947
X67.588 Y64.215
X67.641 Y63.479
X67.672 Y62.742
X67.691 Y62.004
X67.701 Y61.267
X67.708 Y60.529
X67.711 Y59.791
X67.715 Y58.315
X67.716 Y54.626
Y51.675
X67.723 Y51.111
X67.754 Y50.788
X67.8 Y50.52
X67.828 Y50.413
X67.921 Y50.2
X68.076 Y50.026
X68.278 Y49.908
X68.505 Y49.859
X68.526 Y49.858
X68.693 Y49.844
X68.861 Y49.825
X69.029 Y49.79
X69.203 Y49.746
X69.364 Y49.698
X69.453 Y49.662
G3 X69.766 Y49.717 I0.108 J0.298 F513.
G2 X70.268 Y49.585 I0.204 J-0.243
G1 X70.288 Y49.531
X71.215 Y47.029 F900.
G2 X70.979 Y46.607 I-0.298 J-0.11
G3 X70.969 Y46.605 I0.394 J-1.971
X70.081 Y46.175 I0.405 J-1.969 F513.
G1 X70.035 Y46.133 F900.
X69.937 Y46.058
X69.867 Y46.005
X69.668 Y45.89
X69.532 Y45.816
X69.364 Y45.734
X69.232 Y45.662
X69.109 Y45.577
X68.995 Y45.479
X68.872 Y45.354
X68.756 Y45.215
X68.631 Y45.04
X68.494 Y44.809
X68.363 Y44.542
X68.225 Y44.194
X68.089 Y43.745
X67.95 Y43.112
X67.851 Y42.381
X67.793 Y41.645
X67.761 Y40.908
X67.742 Y40.171
X67.731 Y39.433
X67.725 Y38.695
X67.721 Y37.957
X67.718 Y36.482
X67.717 Y32.793
X67.718 Y6.969
X67.613 Y6.615
X67.429 Y6.295
X66.943 Y5.741
X66.305 Y5.369
X65.605 Y5.136
X64.881 Y4.993
X64.148 Y4.908
X63.412 Y4.857
X62.675 Y4.828
X61.938 Y4.811
X61.2 Y4.801
X60.462 Y4.795
X59.724 Y4.792
X58.249 Y4.789
X57.511 Y4.788
X49.395 Y4.789
X8.815 Y4.798
X8.446 Y4.799
X8.082 Y4.859
X7.74 Y4.996
X7.436 Y5.205
X6.915 Y5.728
X6.571 Y6.381
X6.356 Y7.086
X6.226 Y7.813
X6.148 Y8.546
X6.102 Y9.283
X6.075 Y10.02
X6.06 Y10.758
X6.051 Y11.495
X6.045 Y12.233
X6.043 Y12.971
X6.04 Y14.447
Y18.874
X6.045 Y42.484
Y43.222
X6.027 Y43.688
X6.014 Y43.803
X5.972 Y43.975
X5.891 Y44.132
X5.774 Y44.266
X5.63 Y44.368
X5.148 Y44.627
X4.641 Y44.884
X4.339 Y45.032
G3 X4.064 Y44.46 I-0.129 J-0.29 F513.
X4.081 Y44.452 I0.146 J0.282
G1 X4.146 Y44.423 Z-1.992
X4.207 Y44.396 Z-1.969
X4.262 Y44.372 Z-1.931
X4.308 Y44.351 Z-1.88
X4.343 Y44.336 Z-1.82
X4.364 Y44.326 Z-1.753
X4.371 Y44.323 Z-1.683
G0 Z5.
X1.689 Y49.673
Z-1.365
G1 Z-1.683 F513.
X1.697 Y49.671 Z-1.753
X1.72 Y49.666 Z-1.82
X1.757 Y49.658 Z-1.88
X1.806 Y49.647 Z-1.931
X1.865 Y49.634 Z-1.969
X1.93 Y49.619 Z-1.992
X1.999 Y49.604 Z-2.
G3 X2.996 Y49.636 I0.435 J1.962
G1 X3.136 Y49.682 F900.
X3.304 Y49.716
X3.471 Y49.74
X3.639 Y49.755
X3.788 Y49.776
X3.933 Y49.812
X4.072 Y49.868
X4.205 Y49.937
X4.331 Y50.019
X4.465 Y50.122
X4.6 Y50.245
X4.752 Y50.408
X4.896 Y50.589
X5.053 Y50.823
X5.219 Y51.117
X5.372 Y51.45
X5.533 Y51.89
X5.69 Y52.459
X5.83 Y53.184
X5.916 Y53.917
X5.968 Y54.653
X6. Y55.39
X6.02 Y56.127
X6.031 Y56.865
X6.039 Y57.603
X6.043 Y58.341
X6.046 Y59.078
X6.048 Y60.554
X6.05 Y64.243
X6.154 Y64.597
X6.336 Y64.918
X6.819 Y65.476
X7.454 Y65.851
X8.153 Y66.088
X8.876 Y66.233
X9.609 Y66.321
X10.345 Y66.372
X11.082 Y66.403
X11.82 Y66.421
X12.557 Y66.432
X13.295 Y66.438
X14.033 Y66.441
X15.509 Y66.445
X19.198 Y66.446
X39.856 Y66.447
X64.204 Y66.448
X64.561 Y66.352
X64.886 Y66.178
X65.453 Y65.706
X65.836 Y65.075
X66.079 Y64.378
X66.227 Y63.656
X66.317 Y62.923
X66.37 Y62.187
X66.402 Y61.45
X66.42 Y60.713
X66.431 Y59.975
X66.437 Y59.237
X66.441 Y58.499
X66.445 Y57.024
X66.446 Y54.072
Y52.597
X66.45 Y51.859
X66.483 Y51.326
X66.537 Y50.953
X66.593 Y50.703
X66.668 Y50.463
X66.706 Y50.37
X66.814 Y50.184
X66.971 Y50.038
X67.163 Y49.942
X67.375 Y49.906
X67.52 Y49.902
X68.023 Y49.885
X68.505 Y49.859
G3 X68.536 Y50.493 I0.006 J0.317 F513.
X68.517 Y50.494 I-0.025 J-0.317
G1 X68.447 Y50.496 Z-1.992
X68.38 Y50.497 Z-1.969
X68.319 Y50.498 Z-1.931
X68.269 Y50.499 Z-1.88
X68.231 Y50.5 Z-1.82
X68.208 Z-1.753
X68.2 Z-1.683
G0 Z5.
X70.664 Y45.872
Z-1.365
G1 Z-1.683 F513.
X70.656 Y45.873 Z-1.753
X70.633 Y45.875 Z-1.82
X70.595 Y45.878 Z-1.88
X70.545 Y45.883 Z-1.931
X70.485 Y45.888 Z-1.969
X70.418 Y45.893 Z-1.992
X70.348 Y45.899 Z-2.
G3 X69.364 Y45.734 I-0.17 J-2.003
G1 X68.526 Y45.327 F900.
X68.301 Y45.219
X68.154 Y45.14
X68.028 Y45.058
X67.904 Y44.96
X67.785 Y44.85
X67.653 Y44.705
X67.505 Y44.515
X67.37 Y44.309
X67.222 Y44.038
X67.072 Y43.703
X66.923 Y43.279
X66.776 Y42.723
X66.644 Y41.997
X66.565 Y41.263
X66.517 Y40.527
X66.489 Y39.79
X66.472 Y39.052
X66.461 Y38.314
X66.455 Y37.577
X66.452 Y36.839
X66.449 Y35.363
X66.447 Y31.674
X66.448 Y8.433
X66.385 Y8.069
X66.239 Y7.731
X66.025 Y7.43
X65.496 Y6.916
X64.84 Y6.578
X64.133 Y6.368
X63.406 Y6.241
X62.672 Y6.165
X61.936 Y6.12
X61.198 Y6.094
X60.461 Y6.078
X59.723 Y6.07
X58.985 Y6.064
X58.247 Y6.062
X56.772 Y6.059
X54.558 Y6.058
X9.551 Y6.068
X9.197 Y6.169
X8.873 Y6.346
X8.306 Y6.818
X7.923 Y7.448
X7.679 Y8.145
X7.529 Y8.867
X7.439 Y9.6
X7.385 Y10.335
X7.353 Y11.073
X7.335 Y11.81
X7.324 Y12.548
X7.317 Y13.286
X7.314 Y14.024
X7.311 Y15.499
X7.31 Y18.45
X7.315 Y42.06
X7.308 Y42.798
X7.296 Y42.965
X7.251 Y43.168
X7.152 Y43.351
X7.006 Y43.499
X6.948 Y43.543
X6.825 Y43.633
X6.657 Y43.745
X6.322 Y43.965
X6.154 Y44.066
X5.819 Y44.261
X5.651 Y44.357
X5.63 Y44.368
G3 X5.331 Y43.808 I-0.141 J-0.285 F513.
X5.348 Y43.799 I0.157 J0.276
G1 X5.411 Y43.768 Z-1.992
X5.471 Y43.738 Z-1.969
X5.525 Y43.711 Z-1.931
X5.57 Y43.689 Z-1.88
X5.604 Y43.672 Z-1.82
X5.625 Y43.662 Z-1.753
X5.633 Y43.658 Z-1.683
G0 Z5.
X2.374 Y50.087
Z-1.365
G1 Z-1.683 F513.
X2.382 Y50.083 Z-1.753
X2.403 Y50.073 Z-1.82
X2.437 Y50.057 Z-1.88
X2.482 Y50.035 Z-1.931
X2.536 Y50.009 Z-1.969
X2.597 Y49.98 Z-1.992
X2.661 Y49.949 Z-2.
G3 X3.639 Y49.755 I0.869 J1.812
G1 X3.974 Y49.785 F900.
X4.645 Y49.84
X4.794 Y49.86
X4.939 Y49.898
X5.079 Y49.953
X5.213 Y50.019
X5.355 Y50.105
X5.5 Y50.21
X5.654 Y50.342
X5.82 Y50.508
X5.983 Y50.7
X6.166 Y50.954
X6.332 Y51.23
X6.523 Y51.612
X6.689 Y52.026
X6.863 Y52.584
X7.026 Y53.304
X7.132 Y54.034
X7.2 Y54.769
X7.244 Y55.505
X7.272 Y56.243
X7.29 Y56.98
X7.301 Y57.718
X7.308 Y58.456
X7.313 Y59.194
X7.315 Y59.931
X7.318 Y61.407
X7.319 Y62.883
X7.405 Y63.242
X7.57 Y63.571
X8.027 Y64.151
X8.651 Y64.544
X9.345 Y64.794
X10.067 Y64.948
X10.799 Y65.041
X11.535 Y65.096
X12.272 Y65.129
X13.009 Y65.149
X13.747 Y65.16
X14.485 Y65.167
X15.223 Y65.171
X16.698 Y65.174
X19.649 Y65.176
X42.522 Y65.177
X62.443 Y65.178
X62.812 Y65.176
X63.174 Y65.108
X63.511 Y64.957
X63.809 Y64.74
X64.321 Y64.208
X64.655 Y63.551
X64.864 Y62.843
X64.991 Y62.116
X65.067 Y61.382
X65.112 Y60.646
X65.138 Y59.908
X65.154 Y59.171
X65.163 Y58.433
X65.169 Y57.695
X65.172 Y56.957
X65.175 Y55.482
X65.176 Y53.268
X65.181 Y52.531
X65.213 Y51.793
X65.276 Y51.272
X65.348 Y50.917
X65.427 Y50.642
X65.511 Y50.419
X65.542 Y50.354
X65.655 Y50.181
X65.811 Y50.047
X65.998 Y49.961
X66.201 Y49.929
X66.849 Y49.918
X67.375 Y49.906
G3 X67.371 Y50.541 I-0.003 J0.317 F513.
G1 X67.368
X67.298 Y50.54 Z-1.992
X67.231 Y50.539 Z-1.969
X67.17 Z-1.931
X67.12 Y50.538 Z-1.88
X67.082 Z-1.82
X67.059 Z-1.753
X67.051 Z-1.683
G0 Z5.
X69.602 Y45.35
Z-1.365
G1 Z-1.683 F513.
X69.594 Y45.351 Z-1.753
X69.57 Y45.353 Z-1.82
X69.533 Y45.357 Z-1.88
X69.482 Y45.361 Z-1.931
X69.423 Y45.367 Z-1.969
X69.356 Y45.373 Z-1.992
X69.285 Y45.379 Z-2.
G3 X68.301 Y45.219 I-0.181 J-2.002
G1 X67.352 Y44.765 F900.
X67.017 Y44.598
X66.886 Y44.525
X66.764 Y44.435
X66.64 Y44.328
X66.499 Y44.185
X66.357 Y44.014
X66.213 Y43.811
X66.052 Y43.539
X65.903 Y43.234
X65.742 Y42.825
X65.59 Y42.325
X65.435 Y41.612
X65.336 Y40.881
X65.275 Y40.145
X65.237 Y39.409
X65.214 Y38.671
X65.199 Y37.934
X65.19 Y37.196
X65.185 Y36.458
X65.182 Y35.72
X65.179 Y34.245
X65.177 Y30.555
X65.178 Y9.897
X65.144 Y9.529
X65.037 Y9.176
X64.855 Y8.856
X64.372 Y8.297
X63.737 Y7.923
X63.038 Y7.686
X62.314 Y7.541
X61.582 Y7.454
X60.846 Y7.402
X60.109 Y7.371
X59.371 Y7.353
X58.633 Y7.342
X57.896 Y7.336
X57.158 Y7.333
X55.682 Y7.33
X52.731 Y7.329
X51.255
X11.044 Y7.337
X10.679 Y7.385
X10.333 Y7.514
X10.023 Y7.715
X9.49 Y8.225
X9.136 Y8.872
X8.913 Y9.575
X8.777 Y10.301
X8.696 Y11.034
X8.648 Y11.77
X8.619 Y12.507
X8.602 Y13.245
X8.593 Y13.983
X8.587 Y14.721
X8.584 Y15.458
X8.582 Y16.196
X8.58 Y18.41
X8.585 Y41.282
X8.582 Y41.828
X8.554 Y42.029
X8.472 Y42.214
X8.342 Y42.371
X7.978 Y42.705
X7.791 Y42.872
X7.663 Y42.983
X7.495 Y43.123
X7.389 Y43.208
X7.006 Y43.499
G3 X6.563 Y43.423 I-0.183 J-0.259 F513.
X6.639 Y42.981 I0.259 J-0.183
G1 X6.697 Y42.94 Z-1.992
X6.751 Y42.901 Z-1.969
X6.801 Y42.867 Z-1.931
X6.842 Y42.838 Z-1.88
X6.873 Y42.816 Z-1.82
X6.892 Y42.802 Z-1.753
X6.898 Y42.798 Z-1.683
G0 Z5.
X3.383 Y50.18
Z-1.365
G1 Z-1.683 F513.
X3.39 Y50.177 Z-1.753
X3.411 Y50.166 Z-1.82
X3.445 Y50.15 Z-1.88
X3.49 Y50.128 Z-1.931
X3.544 Y50.101 Z-1.969
X3.604 Y50.072 Z-1.992
X3.668 Y50.041 Z-2.
G3 X4.645 Y49.84 I0.88 J1.807
G1 X5.316 Y49.896 F900.
X5.547 Y49.914
X5.651 Y49.92
X5.8 Y49.935
X5.947 Y49.965
X6.09 Y50.011
X6.228 Y50.07
X6.365 Y50.143
X6.525 Y50.244
X6.68 Y50.362
X6.854 Y50.517
X7.025 Y50.696
X7.211 Y50.925
X7.396 Y51.195
X7.589 Y51.531
X7.781 Y51.937
X7.974 Y52.451
X8.153 Y53.072
X8.299 Y53.795
X8.398 Y54.526
X8.464 Y55.261
X8.508 Y55.998
X8.537 Y56.735
X8.556 Y57.472
X8.568 Y58.21
X8.576 Y58.948
X8.581 Y59.686
X8.584 Y60.424
X8.586 Y61.161
X8.589 Y61.53
X8.656 Y61.893
X8.805 Y62.231
X9.021 Y62.53
X9.551 Y63.043
X10.207 Y63.38
X10.914 Y63.59
X11.641 Y63.718
X12.375 Y63.795
X13.111 Y63.841
X13.849 Y63.868
X14.586 Y63.884
X15.324 Y63.893
X16.062 Y63.899
X16.8 Y63.902
X18.275 Y63.905
X21.964 Y63.906
X44.837 Y63.907
X61.437
X61.802 Y63.853
X62.148 Y63.724
X62.457 Y63.523
X62.99 Y63.013
X63.345 Y62.366
X63.568 Y61.662
X63.705 Y60.937
X63.787 Y60.204
X63.836 Y59.468
X63.865 Y58.731
X63.882 Y57.993
X63.892 Y57.255
X63.898 Y56.518
X63.901 Y55.78
X63.907 Y53.566
X63.919 Y52.829
X63.956 Y52.092
X64.023 Y51.494
X64.107 Y51.058
X64.199 Y50.731
X64.285 Y50.497
X64.342 Y50.374
X64.455 Y50.199
X64.612 Y50.063
X64.801 Y49.975
X65.007 Y49.944
X65.843 Y49.934
X66.201 Y49.929
G3 X66.188 Y50.564 I-0.006 J0.317 F513.
G1 X66.118 Y50.562 Z-1.992
X66.051 Y50.561 Z-1.969
X65.99 Y50.56 Z-1.931
X65.94 Y50.559 Z-1.88
X65.902 Y50.558 Z-1.82
X65.879 Z-1.753
X65.871 Y50.557 Z-1.683
G0 Z5.
X68.315 Y44.751
Z-1.365
G1 Z-1.683 F513.
X68.307 Z-1.753
X68.284 Y44.753 Z-1.82
X68.246 Y44.756 Z-1.88
X68.196 Y44.759 Z-1.931
X68.136 Y44.764 Z-1.969
X68.069 Y44.769 Z-1.992
X67.998 Y44.774 Z-2.
G3 X67.017 Y44.598 I-0.148 J-2.004
G1 X66.849 Y44.515 F900.
X66.681 Y44.426
X66.289 Y44.214
X66.178 Y44.152
X65.703 Y43.878
X65.577 Y43.797
X65.451 Y43.697
X65.318 Y43.573
X65.186 Y43.429
X65.037 Y43.237
X64.881 Y42.999
X64.733 Y42.729
X64.571 Y42.364
X64.417 Y41.93
X64.259 Y41.333
X64.128 Y40.607
X64.046 Y39.874
X63.994 Y39.138
X63.961 Y38.401
X63.94 Y37.663
X63.928 Y36.926
X63.92 Y36.188
X63.915 Y35.45
X63.912 Y34.712
X63.909 Y33.237
X63.907 Y29.548
X63.908 Y11.102
X63.862 Y10.736
X63.742 Y10.387
X63.548 Y10.074
X63.046 Y9.532
X62.403 Y9.171
X61.701 Y8.943
X60.977 Y8.803
X60.244 Y8.719
X59.508 Y8.669
X58.77 Y8.64
X58.033 Y8.622
X57.295 Y8.612
X56.557 Y8.606
X55.82 Y8.603
X54.344 Y8.6
X50.655 Y8.599
X47.704 Y8.6
X12.288 Y8.607
X11.924 Y8.665
X11.581 Y8.8
X11.274 Y9.006
X10.748 Y9.523
X10.399 Y10.173
X10.18 Y10.878
X10.046 Y11.603
X9.965 Y12.337
X9.917 Y13.073
X9.889 Y13.81
X9.873 Y14.548
X9.863 Y15.286
X9.857 Y16.023
X9.854 Y16.761
X9.851 Y18.237
X9.85 Y21.926
X9.851 Y22.664
X9.854 Y40.452
X9.837 Y40.609
X9.786 Y40.76
X9.704 Y40.896
X9.675 Y40.935
X9.332 Y41.363
X9.193 Y41.531
X9.172 Y41.555
X9.004 Y41.729
X8.706 Y42.034
X8.669 Y42.071
X8.342 Y42.371
G3 X7.93 Y41.888 I-0.206 J-0.241 F513.
G1 X7.983 Y41.842 Z-1.992
X8.034 Y41.798 Z-1.969
X8.08 Y41.759 Z-1.931
X8.118 Y41.727 Z-1.88
X8.147 Y41.702 Z-1.82
X8.165 Y41.687 Z-1.753
X8.171 Y41.682 Z-1.683
G0 Z5.
X4.4 Y50.299
Z-1.365
G1 Z-1.683 F513.
X4.407 Y50.296 Z-1.753
X4.428 Y50.285 Z-1.82
X4.461 Y50.267 Z-1.88
X4.506 Y50.244 Z-1.931
X4.559 Y50.215 Z-1.969
X4.618 Y50.184 Z-1.992
X4.681 Y50.151 Z-2.
G3 X5.651 Y49.92 I0.937 J1.778
G1 X6.154 Y49.946 F900.
X6.749 Y49.962
X6.899 Y49.974
X7.046 Y50.004
X7.188 Y50.05
X7.327 Y50.108
X7.483 Y50.189
X7.639 Y50.287
X7.812 Y50.416
X7.99 Y50.573
X8.178 Y50.766
X8.375 Y51.005
X8.574 Y51.291
X8.779 Y51.641
X8.985 Y52.07
X9.18 Y52.577
X9.377 Y53.241
X9.528 Y53.963
X9.634 Y54.693
X9.708 Y55.427
X9.758 Y56.163
X9.792 Y56.9
X9.815 Y57.637
X9.831 Y58.375
X9.841 Y59.113
X9.851 Y60.22
X9.917 Y60.583
X10.057 Y60.924
X10.267 Y61.227
X10.791 Y61.747
X11.443 Y62.091
X12.148 Y62.308
X12.874 Y62.44
X13.608 Y62.52
X14.344 Y62.568
X15.081 Y62.596
X15.819 Y62.613
X16.557 Y62.622
X17.294 Y62.628
X18.032 Y62.632
X19.508 Y62.635
X23.197 Y62.636
X47.545 Y62.637
X60.088 Y62.638
X60.454 Y62.596
X60.805 Y62.483
X61.123 Y62.294
X61.674 Y61.804
X62.043 Y61.165
X62.278 Y60.466
X62.422 Y59.742
X62.509 Y59.009
X62.561 Y58.273
X62.592 Y57.536
X62.61 Y56.799
X62.621 Y56.061
X62.627 Y55.323
X62.632 Y54.585
X62.638 Y53.848
X62.655 Y53.11
X62.694 Y52.373
X62.767 Y51.68
X62.864 Y51.166
X62.96 Y50.811
X63.054 Y50.553
X63.128 Y50.388
X63.242 Y50.211
X63.4 Y50.073
X63.59 Y49.985
X63.798 Y49.954
X65.007 Y49.944
G3 X64.991 Y50.579 I-0.008 J0.317 F513.
G1 X64.921 Y50.577 Z-1.992
X64.853 Y50.575 Z-1.969
X64.793 Y50.574 Z-1.931
X64.743 Y50.573 Z-1.88
X64.705 Y50.572 Z-1.82
X64.682 Y50.571 Z-1.753
X64.674 Z-1.683
G0 Z5.
X66.991 Y44.108
Z-1.365
G1 Z-1.683 F513.
X66.983 Z-1.753
X66.959 Z-1.82
X66.921 Y44.109 Z-1.88
X66.871 Z-1.931
X66.811 Y44.11 Z-1.969
X66.744 Y44.111 Z-1.992
X66.673 Y44.112 Z-2.
G3 X65.703 Y43.878 I-0.028 J-2.01
G1 X65.675 Y43.862 F900.
X65.508 Y43.758
X65.172 Y43.524
X65.005 Y43.402
X64.669 Y43.14
X64.502 Y43.008
X64.166 Y42.723
X63.976 Y42.545
X63.854 Y42.411
X63.718 Y42.234
X63.571 Y42.007
X63.432 Y41.751
X63.278 Y41.402
X63.131 Y40.98
X62.978 Y40.39
X62.849 Y39.664
X62.77 Y38.93
X62.72 Y38.194
X62.689 Y37.457
X62.669 Y36.719
X62.657 Y35.982
X62.649 Y35.244
X62.645 Y34.506
X62.642 Y33.768
X62.639 Y32.293
X62.637 Y28.603
X62.638 Y12.372
X62.59 Y12.006
X62.469 Y11.657
X62.273 Y11.344
X61.771 Y10.804
X61.128 Y10.442
X60.426 Y10.214
X59.702 Y10.074
X58.969 Y9.99
X58.233 Y9.94
X57.496 Y9.91
X56.758 Y9.893
X56.02 Y9.883
X55.282 Y9.877
X54.545 Y9.873
X53.069 Y9.87
X49.38 Y9.869
X44.215 Y9.87
X13.596 Y9.877
X13.231 Y9.931
X12.885 Y10.059
X12.575 Y10.259
X12.041 Y10.768
X11.685 Y11.414
X11.46 Y12.117
X11.322 Y12.842
X11.24 Y13.575
X11.19 Y14.311
X11.161 Y15.048
X11.144 Y15.786
X11.134 Y16.524
X11.128 Y17.261
X11.125 Y17.999
X11.122 Y19.475
X11.121 Y23.164
X11.122 Y28.329
X11.123 Y32.594
X11.104 Y32.76
X11.049 Y32.917
X10.96 Y33.058
X10.888 Y33.148
X10.849 Y33.205
X10.784 Y33.316
X10.699 Y33.484
X10.681 Y33.524
X10.634 Y33.651
X10.579 Y33.819
X10.547 Y33.987
X10.525 Y34.154
X10.514 Y34.322
X10.515 Y34.49
X10.531 Y34.657
X10.581 Y34.993
X10.615 Y35.16
X10.741 Y35.663
X10.865 Y36.166
X10.9 Y36.334
X10.945 Y36.669
X10.965 Y36.837
X11.006 Y37.34
X11.023 Y37.843
X11.021 Y38.01
X11.012 Y38.178
X10.987 Y38.346
X10.949 Y38.513
X10.899 Y38.681
X10.849 Y38.812
X10.692 Y39.184
X10.447 Y39.687
X10.346 Y39.889
X10.273 Y40.022
X10.169 Y40.19
X10.065 Y40.358
X9.731 Y40.86
X9.704 Y40.896
G3 X9.2 Y40.51 I-0.246 J-0.2 F513.
X9.212 Y40.495 I0.258 J0.185
G1 X9.256 Y40.441 Z-1.992
X9.298 Y40.388 Z-1.969
X9.336 Y40.342 Z-1.931
X9.368 Y40.303 Z-1.88
X9.392 Y40.273 Z-1.82
X9.407 Y40.255 Z-1.753
X9.412 Y40.249 Z-1.683
G0 Z5.
X5.509 Y50.375
Z-1.365
G1 Z-1.683 F513.
X5.516 Y50.372 Z-1.753
X5.536 Y50.36 Z-1.82
X5.569 Y50.342 Z-1.88
X5.613 Y50.317 Z-1.931
X5.665 Y50.287 Z-1.969
X5.724 Y50.255 Z-1.992
X5.786 Y50.22 Z-2.
G3 X6.749 Y49.962 I0.985 J1.752
G1 X7.16 Y49.972 F900.
X7.495 Y49.978
X7.831 Y49.982
X7.98 Y49.991
X8.128 Y50.018
X8.272 Y50.06
X8.416 Y50.116
X8.567 Y50.189
X8.738 Y50.289
X8.905 Y50.406
X9.099 Y50.567
X9.284 Y50.747
X9.496 Y50.989
X9.692 Y51.254
X9.919 Y51.618
X10.121 Y52.007
X10.338 Y52.524
X10.548 Y53.165
X10.721 Y53.882
X10.844 Y54.61
X10.932 Y55.342
X10.994 Y56.077
X11.038 Y56.814
X11.068 Y57.551
X11.088 Y58.289
X11.102 Y59.026
X11.187 Y59.385
X11.347 Y59.718
X11.793 Y60.306
X12.412 Y60.708
X13.103 Y60.965
X13.823 Y61.125
X14.555 Y61.222
X15.29 Y61.281
X16.027 Y61.316
X16.765 Y61.336
X17.502 Y61.349
X18.24 Y61.356
X18.978 Y61.36
X19.716 Y61.363
X21.191 Y61.365
X26.356 Y61.367
X49.966
X58.82 Y61.368
X59.186 Y61.326
X59.537 Y61.212
X59.854 Y61.023
X60.404 Y60.531
X60.774 Y59.893
X61.008 Y59.193
X61.152 Y58.469
X61.239 Y57.737
X61.291 Y57.001
X61.322 Y56.264
X61.34 Y55.526
X61.353 Y54.788
X61.367 Y54.051
X61.39 Y53.313
X61.433 Y52.577
X61.511 Y51.843
X61.613 Y51.275
X61.715 Y50.886
X61.816 Y50.601
X61.918 Y50.371
X61.932 Y50.345
X62.049 Y50.186
X62.203 Y50.064
X62.384 Y49.986
X62.58 Y49.959
X63.77 Y49.954
X63.798
G3 X63.78 Y50.589 I-0.009 J0.317 F513.
G1 X63.709 Y50.587 Z-1.992
X63.642 Y50.585 Z-1.969
X63.582 Y50.583 Z-1.931
X63.532 Y50.582 Z-1.88
X63.494 Y50.581 Z-1.82
X63.471 Y50.58 Z-1.753
X63.463 Z-1.683
G0 Z5.
X65.391 Y43.181
Z-1.365
G1 Z-1.683 F513.
X65.383 Y43.179 Z-1.753
X65.36 Y43.176 Z-1.82
X65.323 Y43.169 Z-1.88
X65.273 Y43.161 Z-1.931
X65.214 Y43.151 Z-1.969
X65.148 Y43.14 Z-1.992
X65.078 Y43.128 Z-2.
G3 X64.166 Y42.723 I0.334 J-1.982
G1 X64.144 Y42.705 F900.
X63.999 Y42.572
X63.464 Y42.034
X63.328 Y41.895
X62.991 Y41.531
X62.849 Y41.363
X62.49 Y40.924
X62.443 Y40.86
X62.326 Y40.693
X62.21 Y40.508
X62.077 Y40.252
X61.943 Y39.934
X61.802 Y39.509
X61.659 Y38.92
X61.543 Y38.191
X61.474 Y37.457
X61.432 Y36.72
X61.407 Y35.983
X61.403 Y35.797
X61.404 Y35.742
X61.409 Y35.688
X61.417 Y35.634
G3 X62.039 Y35.652 I0.309 J0.074 F513.
G1 X62.062 Y35.781
X62.866 Y40.3 F900.
X62.892 Y40.446 F513.
G3 X62.326 Y40.693 I-0.313 J0.056
G1 X62.209 Y40.525 F900.
X62.094 Y40.358
X61.987 Y40.184
X61.786 Y39.855
X61.689 Y39.687
X61.651 Y39.618
X61.602 Y39.519
X61.445 Y39.184
X61.388 Y39.016
X61.256 Y38.597
X61.244 Y38.555
X61.237 Y38.513
X61.173 Y38.01
X61.165 Y37.843
X61.167 Y37.507
X61.168 Y37.34
X61.202 Y36.837
X61.225 Y36.669
X61.316 Y36.154
X61.412 Y35.663
X61.514 Y35.16
X61.541 Y34.993
X61.579 Y34.657
X61.591 Y34.49
Y34.322
X61.576 Y34.154
X61.551 Y33.987
X61.472 Y33.45
X61.422 Y32.714
X61.396 Y31.977
X61.383 Y31.239
X61.375 Y30.501
X61.372 Y29.764
X61.368 Y28.288
X61.367 Y23.861
X61.368 Y13.532
X61.3 Y13.169
X61.152 Y12.831
X60.938 Y12.53
X60.41 Y12.015
X59.756 Y11.674
X59.05 Y11.46
X58.323 Y11.33
X57.59 Y11.251
X56.853 Y11.205
X56.116 Y11.177
X55.378 Y11.161
X54.641 Y11.152
X53.903 Y11.146
X53.165 Y11.143
X51.689 Y11.14
X48.
X32.506 Y11.143
X14.799 Y11.147
X14.436 Y11.213
X14.096 Y11.357
X13.794 Y11.568
X13.276 Y12.093
X12.932 Y12.746
X12.716 Y13.452
X12.584 Y14.178
X12.505 Y14.911
X12.457 Y15.647
X12.43 Y16.385
X12.413 Y17.122
X12.403 Y17.86
X12.398 Y18.598
X12.395 Y19.336
X12.392 Y20.811
X12.391 Y24.5
X12.393 Y31.141
X12.391 Y31.68
X12.355 Y31.907
X12.252 Y32.112
X12.09 Y32.275
X11.886 Y32.381
X11.855 Y32.392
X11.687 Y32.465
X11.659 Y32.478
X11.519 Y32.557
X11.382 Y32.645
X11.352 Y32.668
X11.184 Y32.814
X11.022 Y32.981
X10.96 Y33.058
G3 X10.467 Y32.658 I-0.241 J-0.207 F513.
X10.479 Y32.644 I0.253 J0.192
G1 X10.525 Y32.59 Z-1.992
X10.569 Y32.539 Z-1.969
X10.608 Y32.493 Z-1.931
X10.641 Y32.455 Z-1.88
X10.665 Y32.427 Z-1.82
X10.681 Y32.409 Z-1.753
X10.686 Y32.403 Z-1.683
G0 Z5.
X6.596 Y50.412
Z-1.365
G1 Z-1.683 F513.
X6.603 Y50.408 Z-1.753
X6.623 Y50.396 Z-1.82
X6.656 Y50.377 Z-1.88
X6.699 Y50.352 Z-1.931
X6.751 Y50.322 Z-1.969
X6.809 Y50.288 Z-1.992
X6.871 Y50.253 Z-2.
G3 X7.831 Y49.982 I1.008 J1.739
G1 X8.501 Y49.989 F900.
X8.929 Y49.992
X9.079 Y50.001
X9.227 Y50.022
X9.372 Y50.06
X9.514 Y50.11
X9.666 Y50.177
X9.839 Y50.272
X10.009 Y50.383
X10.204 Y50.535
X10.391 Y50.706
X10.609 Y50.94
X10.811 Y51.196
X11.046 Y51.547
X11.257 Y51.925
X11.485 Y52.426
X11.708 Y53.04
X11.903 Y53.752
X12.045 Y54.476
X12.149 Y55.206
X12.224 Y55.94
X12.277 Y56.676
X12.315 Y57.413
X12.343 Y57.781
X12.432 Y58.139
X12.597 Y58.468
X13.053 Y59.049
X13.675 Y59.446
X14.367 Y59.7
X15.088 Y59.858
X15.82 Y59.954
X16.555 Y60.012
X17.292 Y60.046
X18.03 Y60.067
X18.768 Y60.079
X19.505 Y60.086
X20.243 Y60.09
X20.981 Y60.093
X22.457 Y60.095
X27.621 Y60.097
X52.707
X57.872 Y60.098
X58.224 Y59.988
X58.545 Y59.805
X59.104 Y59.325
X59.483 Y58.691
X59.724 Y57.994
X59.873 Y57.271
X59.963 Y56.539
X60.018 Y55.803
X60.054 Y55.066
X60.082 Y54.329
X60.114 Y53.592
X60.161 Y52.856
X60.234 Y52.121
X60.338 Y51.469
X60.452 Y51.001
X60.559 Y50.677
X60.658 Y50.443
X60.7 Y50.362
X60.817 Y50.198
X60.972 Y50.071
X61.157 Y49.991
X61.356 Y49.963
X62.58 Y49.959
G3 X62.887 Y50.286 I-0.01 J0.317 F513.
X62.56 Y50.594 I-0.317 J-0.01
G1 X62.489 Y50.592 Z-1.992
X62.422 Y50.59 Z-1.969
X62.362 Y50.588 Z-1.931
X62.312 Y50.586 Z-1.88
X62.274 Y50.585 Z-1.82
X62.25 Y50.584 Z-1.753
X62.242 Z-1.683
G0 Z5.
X62.234 Y35.102
Z-1.365
G1 Z-1.683 F513.
X62.228 Y35.096 Z-1.753
X62.213 Y35.079 Z-1.82
X62.187 Y35.051 Z-1.88
X62.153 Y35.013 Z-1.931
X62.113 Y34.969 Z-1.969
X62.067 Y34.919 Z-1.992
X62.02 Y34.867 Z-2.
G3 X61.551 Y33.987 I1.485 J-1.355
G1 X61.517 Y33.819 F900.
X61.462 Y33.651
X61.394 Y33.484
X61.316 Y33.321
X61.205 Y33.148
X61.148 Y33.064
X61.076 Y32.981
X61.047 Y32.951
X60.949 Y32.837
X60.853 Y32.698
X60.749 Y32.519
X60.641 Y32.291
X60.527 Y31.991
X60.409 Y31.585
X60.288 Y30.991
X60.198 Y30.259
X60.151 Y29.523
X60.126 Y28.785
X60.112 Y28.047
X60.105 Y27.31
X60.102 Y26.572
X60.098 Y25.096
X60.097 Y20.669
X60.098 Y14.767
X60.021 Y14.406
X59.866 Y14.071
X59.646 Y13.775
X59.11 Y13.268
X58.452 Y12.934
X57.744 Y12.725
X57.018 Y12.597
X56.284 Y12.52
X55.548 Y12.474
X54.81 Y12.447
X54.073 Y12.431
X53.335 Y12.422
X52.597 Y12.416
X51.859 Y12.413
X50.384 Y12.411
X46.695 Y12.41
X28.987 Y12.414
X16.444 Y12.416
X16.075 Y12.419
X15.712 Y12.485
X15.372 Y12.627
X15.069 Y12.838
X14.55 Y13.362
X14.205 Y14.014
X13.988 Y14.719
X13.856 Y15.445
X13.776 Y16.179
X13.728 Y16.915
X13.7 Y17.652
X13.684 Y18.39
X13.674 Y19.128
X13.668 Y19.865
X13.665 Y20.603
X13.662 Y22.079
X13.661 Y25.768
X13.662 Y30.195
X13.661 Y30.865
X13.635 Y31.185
X13.587 Y31.479
X13.534 Y31.692
X13.519 Y31.737
X13.417 Y31.936
X13.26 Y32.096
X13.063 Y32.201
X12.843 Y32.243
X12.693 Y32.248
X12.358 Y32.27
X12.19 Y32.296
X12.121 Y32.31
X12.022 Y32.336
X11.886 Y32.381
G3 X11.705 Y31.773 I-0.09 J-0.304 F513.
G1 X11.773 Y31.753 Z-1.992
X11.838 Y31.733 Z-1.969
X11.895 Y31.716 Z-1.931
X11.943 Y31.702 Z-1.88
X11.98 Y31.691 Z-1.82
X12.002 Y31.684 Z-1.753
X12.01 Y31.682 Z-1.683
G0 Z5.
X7.697 Y50.429
Z-1.365
G1 Z-1.683 F513.
X7.703 Y50.425 Z-1.753
X7.724 Y50.413 Z-1.82
X7.756 Y50.394 Z-1.88
X7.8 Y50.369 Z-1.931
X7.852 Y50.338 Z-1.969
X7.909 Y50.304 Z-1.992
X7.97 Y50.268 Z-2.
G3 X8.929 Y49.992 I1.018 J1.733
G1 X10.103 Y49.996 F900.
X10.252 Y50.004
X10.4 Y50.028
X10.545 Y50.066
X10.687 Y50.117
X10.852 Y50.192
X11.019 Y50.284
X11.205 Y50.408
X11.395 Y50.556
X11.6 Y50.747
X11.813 Y50.978
X12.038 Y51.264
X12.264 Y51.608
X12.507 Y52.048
X12.728 Y52.539
X12.957 Y53.18
X13.148 Y53.893
X13.291 Y54.617
X13.396 Y55.347
X13.474 Y56.081
X13.509 Y56.448
X13.595 Y56.806
X13.754 Y57.14
X14.193 Y57.732
X14.807 Y58.142
X15.495 Y58.407
X16.214 Y58.573
X16.945 Y58.674
X17.68 Y58.736
X18.417 Y58.772
X19.155 Y58.794
X19.892 Y58.807
X20.63 Y58.815
X21.368 Y58.82
X22.106 Y58.823
X23.581 Y58.825
X28.008 Y58.827
X55.307
X56.414
X56.778 Y58.766
X57.118 Y58.622
X57.42 Y58.411
X57.94 Y57.887
X58.284 Y57.235
X58.5 Y56.529
X58.634 Y55.804
X58.719 Y55.071
X58.779 Y54.335
X58.833 Y53.6
X58.896 Y52.864
X58.981 Y52.132
X59.096 Y51.461
X59.215 Y50.997
X59.33 Y50.662
X59.432 Y50.429
X59.471 Y50.356
X59.588 Y50.194
X59.744 Y50.07
X59.927 Y49.991
X60.125 Y49.965
X61.148 Y49.963
X61.356
G3 X61.335 Y50.598 I-0.01 J0.317 F513.
G1 X61.265 Y50.595 Z-1.992
X61.198 Y50.593 Z-1.969
X61.137 Y50.591 Z-1.931
X61.087 Y50.59 Z-1.88
X61.049 Y50.588 Z-1.82
X61.026 Z-1.753
X61.018 Y50.587 Z-1.683
G0 Z5.
X62.217 Y33.534
Z-1.365
G1 Z-1.683 F513.
X62.21 Y33.531 Z-1.753
X62.187 Y33.525 Z-1.82
X62.151 Y33.515 Z-1.88
X62.102 Y33.501 Z-1.931
X62.044 Y33.485 Z-1.969
X61.979 Y33.467 Z-1.992
X61.911 Y33.448 Z-2.
G3 X61.047 Y32.951 I0.539 J-1.936
G1 X60.916 Y32.813 F900.
X60.813 Y32.725
X60.645 Y32.595
X60.437 Y32.478
X60.399 Y32.46
X60.266 Y32.39
X60.144 Y32.302
X60.032 Y32.202
X59.925 Y32.09
X59.811 Y31.949
X59.686 Y31.766
X59.558 Y31.542
X59.43 Y31.272
X59.296 Y30.914
X59.163 Y30.45
X59.028 Y29.782
X58.941 Y29.049
X58.891 Y28.313
X58.863 Y27.575
X58.847 Y26.838
X58.839 Y26.1
X58.834 Y25.362
X58.831 Y24.624
X58.828 Y23.149
X58.827 Y17.984
Y16.14
X58.769 Y15.775
X58.635 Y15.431
X58.431 Y15.124
X57.918 Y14.594
X57.271 Y14.241
X56.567 Y14.018
X55.842 Y13.881
X55.109 Y13.799
X54.373 Y13.75
X53.636 Y13.721
X52.898 Y13.703
X52.16 Y13.693
X51.422 Y13.687
X50.685 Y13.684
X49.209 Y13.681
X45.52 Y13.68
X26.337 Y13.684
X17.483 Y13.686
X17.116 Y13.728
X16.766 Y13.843
X16.449 Y14.031
X15.897 Y14.521
X15.526 Y15.159
X15.291 Y15.858
X15.146 Y16.582
X15.058 Y17.314
X15.006 Y18.05
X14.975 Y18.787
X14.957 Y19.525
X14.946 Y20.263
X14.939 Y21.001
X14.936 Y21.738
X14.933 Y23.214
X14.932 Y26.165
Y29.854
X14.912 Y30.552
X14.868 Y30.96
X14.804 Y31.292
X14.741 Y31.523
X14.657 Y31.751
X14.597 Y31.883
X14.471 Y32.073
X14.294 Y32.215
X14.081 Y32.298
X13.854 Y32.311
X13.364 Y32.265
X12.861 Y32.242
X12.843 Y32.243
G3 X12.842 Y31.608 I-0.001 J-0.318 F513.
G1 X12.913 Z-1.992
X12.98 Z-1.969
X13.04 Y31.607 Z-1.931
X13.091 Z-1.88
X13.128 Z-1.82
X13.152 Z-1.753
X13.16 Z-1.683
G0 Z5.
X8.871 Y50.436
Z-1.365
G1 Z-1.683 F513.
X8.878 Y50.432 Z-1.753
X8.898 Y50.42 Z-1.82
X8.931 Y50.4 Z-1.88
X8.974 Y50.375 Z-1.931
X9.026 Y50.344 Z-1.969
X9.084 Y50.31 Z-1.992
X9.145 Y50.274 Z-2.
G3 X10.103 Y49.996 I1.022 J1.731
G1 X10.681 Y49.998 F900.
X11.276 Y49.997
X11.426 Y50.004
X11.574 Y50.028
X11.719 Y50.066
X11.865 Y50.118
X12.028 Y50.192
X12.203 Y50.288
X12.386 Y50.409
X12.593 Y50.571
X12.795 Y50.757
X13.021 Y51.001
X13.24 Y51.281
X13.482 Y51.645
X13.718 Y52.072
X13.953 Y52.592
X14.19 Y53.254
X14.383 Y53.966
X14.529 Y54.689
X14.64 Y55.419
X14.785 Y55.758
X15.198 Y56.369
X15.794 Y56.804
X16.474 Y57.091
X17.189 Y57.272
X17.919 Y57.384
X18.653 Y57.453
X19.39 Y57.494
X20.127 Y57.519
X20.865 Y57.534
X21.603 Y57.543
X22.34 Y57.549
X23.078 Y57.552
X24.554 Y57.555
X28.243 Y57.557
X54.804
X55.173 Y57.552
X55.535 Y57.482
X55.873 Y57.333
X56.172 Y57.118
X56.685 Y56.587
X57.026 Y55.932
X57.245 Y55.228
X57.389 Y54.504
X57.495 Y53.774
X57.588 Y53.042
X57.689 Y52.311
X57.817 Y51.585
X57.95 Y51.054
X58.068 Y50.705
X58.175 Y50.457
X58.228 Y50.357
X58.345 Y50.194
X58.501 Y50.069
X58.686 Y49.99
X58.885 Y49.963
X60.125 Y49.965
G3 X60.102 Y50.599 I-0.011 J0.317 F513.
G1 X60.031 Y50.597 Z-1.992
X59.964 Y50.594 Z-1.969
X59.904 Y50.592 Z-1.931
X59.854 Y50.59 Z-1.88
X59.816 Y50.589 Z-1.82
X59.793 Y50.588 Z-1.753
X59.785 Z-1.683
G0 Z5.
X10.048 Y50.445
Z-1.365
G1 Z-1.683 F513.
X10.055 Y50.441 Z-1.753
X10.075 Y50.429 Z-1.82
X10.107 Y50.409 Z-1.88
X10.15 Y50.383 Z-1.931
X10.202 Y50.352 Z-1.969
X10.26 Y50.318 Z-1.992
X10.32 Y50.281 Z-2.
G3 X11.276 Y49.997 I1.033 J1.724
G1 X12.45 Y49.993 F900.
X12.6 Y49.999
X12.748 Y50.022
X12.893 Y50.06
X13.043 Y50.112
X13.204 Y50.183
X13.386 Y50.282
X13.568 Y50.4
X13.778 Y50.562
X13.979 Y50.744
X14.213 Y50.994
X14.432 Y51.268
X14.685 Y51.645
X14.919 Y52.06
X15.164 Y52.592
X15.41 Y53.264
X15.608 Y53.975
X15.738 Y54.32
X16.109 Y54.957
X16.674 Y55.432
X17.34 Y55.75
X18.049 Y55.956
X18.775 Y56.084
X19.509 Y56.164
X20.245 Y56.212
X20.982 Y56.242
X21.72 Y56.26
X22.457 Y56.27
X23.195 Y56.277
X23.933 Y56.281
X25.409 Y56.285
X28.36 Y56.286
X53.446 Y56.287
X53.814
X54.179 Y56.23
X54.524 Y56.099
X54.834 Y55.899
X55.372 Y55.394
X55.741 Y54.755
X55.991 Y54.061
X56.171 Y53.346
X56.32 Y52.623
X56.467 Y51.9
X56.638 Y51.195
X56.772 Y50.788
X56.892 Y50.503
X56.967 Y50.358
X57.084 Y50.193
X57.241 Y50.066
X57.427 Y49.985
X57.627 Y49.959
X58.885 Y49.963
G3 X58.861 Y50.598 I-0.012 J0.317 F513.
G1 X58.79 Y50.595 Z-1.992
X58.723 Y50.593 Z-1.969
X58.663 Y50.59 Z-1.931
X58.612 Y50.588 Z-1.88
X58.575 Y50.587 Z-1.82
X58.551 Y50.586 Z-1.753
X58.543 Z-1.683
G0 Z5.
X11.222 Y50.441
Z-1.365
G1 Z-1.683 F513.
X11.229 Y50.437 Z-1.753
X11.249 Y50.425 Z-1.82
X11.281 Y50.405 Z-1.88
X11.324 Y50.379 Z-1.931
X11.376 Y50.348 Z-1.969
X11.433 Y50.314 Z-1.992
X11.494 Y50.278 Z-2.
G3 X12.45 Y49.993 I1.034 J1.723
G1 X13.196 Y49.988 F900.
X13.623 Y49.985
X13.773 Y49.991
X13.922 Y50.012
X14.068 Y50.048
X14.218 Y50.098
X14.378 Y50.166
X14.563 Y50.264
X14.744 Y50.378
X14.955 Y50.537
X15.157 Y50.716
X15.394 Y50.963
X15.615 Y51.234
X15.875 Y51.611
X16.11 Y52.017
X16.743 Y53.349
X17.236 Y53.898
X17.859 Y54.293
X18.547 Y54.559
X19.265 Y54.732
X19.994 Y54.841
X20.729 Y54.909
X21.466 Y54.951
X22.203 Y54.977
X22.941 Y54.992
X23.679 Y55.002
X24.416 Y55.008
X25.154 Y55.011
X26.63 Y55.015
X29.581 Y55.016
X52.453 Y55.017
X52.82 Y54.978
X53.173 Y54.871
X53.496 Y54.693
X54.069 Y54.228
X54.48 Y53.615
X54.776 Y52.939
X55.008 Y52.239
X55.217 Y51.531
X55.418 Y50.919
X55.57 Y50.557
X55.697 Y50.312
X55.703 Y50.302
X55.822 Y50.156
X55.974 Y50.046
X56.148 Y49.976
X56.335 Y49.953
X57.627 Y49.959
G3 X57.932 Y50.288 I-0.012 J0.317 F513.
X57.603 Y50.593 I-0.317 J-0.012
G1 X57.532 Y50.59 Z-1.992
X57.465 Y50.588 Z-1.969
X57.405 Y50.585 Z-1.931
X57.355 Y50.583 Z-1.88
X57.317 Y50.582 Z-1.82
X57.293 Y50.581 Z-1.753
X57.286 Z-1.683
G0 Z5.
X12.398 Y50.439
Z-1.365
G1 Z-1.683 F513.
X12.404 Y50.435 Z-1.753
X12.425 Y50.423 Z-1.82
X12.457 Y50.404 Z-1.88
X12.5 Y50.377 Z-1.931
X12.551 Y50.346 Z-1.969
X12.609 Y50.311 Z-1.992
X12.669 Y50.275 Z-2.
G3 X13.623 Y49.985 I1.043 J1.718
G1 X14.797 Y49.974 F900.
X14.947 Y49.98
X15.096 Y49.998
X15.242 Y50.031
X15.391 Y50.078
X15.55 Y50.144
X15.735 Y50.237
X15.916 Y50.348
X16.127 Y50.502
X16.329 Y50.676
X16.568 Y50.917
X16.864 Y51.268
X17.292 Y51.869
X17.771 Y52.431
X18.368 Y52.864
X19.039 Y53.171
X19.747 Y53.379
X20.472 Y53.515
X21.205 Y53.602
X21.94 Y53.657
X22.677 Y53.691
X23.415 Y53.713
X24.153 Y53.726
X24.89 Y53.734
X25.628 Y53.739
X26.366 Y53.742
X27.842 Y53.745
X31.531 Y53.747
X51.452
X51.812 Y53.67
X52.152 Y53.525
X52.768 Y53.12
X53.235 Y52.549
X53.592 Y51.903
X54.162 Y50.626
X54.323 Y50.33
X54.357 Y50.278
X54.477 Y50.138
X54.627 Y50.031
X54.799 Y49.965
X54.982 Y49.944
X56.118 Y49.952
X56.335 Y49.953
G3 X56.31 Y50.588 I-0.013 J0.317 F513.
G1 X56.239 Y50.585 Z-1.992
X56.172 Y50.582 Z-1.969
X56.112 Y50.58 Z-1.931
X56.062 Y50.578 Z-1.88
X56.024 Y50.577 Z-1.82
X56. Y50.576 Z-1.753
X55.992 Y50.575 Z-1.683
G0 Z5.
X13.572 Y50.429
Z-1.365
G1 Z-1.683 F513.
X13.579 Y50.425 Z-1.753
X13.599 Y50.413 Z-1.82
X13.631 Y50.393 Z-1.88
X13.674 Y50.367 Z-1.931
X13.725 Y50.336 Z-1.969
X13.783 Y50.301 Z-1.992
X13.843 Y50.264 Z-2.
G3 X14.797 Y49.974 I1.044 J1.717
G1 X15.376 Y49.967 F900.
X16.046 Y49.958
X16.196 Y49.963
X16.344 Y49.987
X16.496 Y50.026
X16.654 Y50.081
X16.829 Y50.158
X17.036 Y50.27
X17.359 Y50.479
X17.945 Y50.928
X18.541 Y51.362
X19.192 Y51.711
X19.884 Y51.966
X20.6 Y52.142
X21.329 Y52.261
X22.062 Y52.339
X22.798 Y52.39
X23.536 Y52.422
X24.273 Y52.442
X25.011 Y52.455
X25.749 Y52.463
X26.486 Y52.468
X27.224 Y52.472
X28.7 Y52.475
X32.389 Y52.477
X50.096
X50.463 Y52.435
X50.818 Y52.335
X51.481 Y52.01
X52.014 Y51.501
X52.45 Y50.906
X52.836 Y50.301
X52.895 Y50.223
X53.06 Y50.064
X53.267 Y49.963
X53.494 Y49.93
X54.274 Y49.938
X54.982 Y49.944
G3 X54.955 Y50.578 I-0.014 J0.317 F513.
G1 X54.885 Y50.575 Z-1.992
X54.818 Y50.572 Z-1.969
X54.758 Y50.57 Z-1.931
X54.707 Y50.568 Z-1.88
X54.67 Y50.566 Z-1.82
X54.646 Y50.565 Z-1.753
X54.638 Z-1.683
G0 Z5.
X14.822 Y50.418
Z-1.365
G1 Z-1.683 F513.
X14.829 Y50.414 Z-1.753
X14.849 Y50.401 Z-1.82
X14.881 Y50.382 Z-1.88
X14.924 Y50.355 Z-1.931
X14.976 Y50.324 Z-1.969
X15.033 Y50.289 Z-1.992
X15.093 Y50.252 Z-2.
G3 X16.046 Y49.958 I1.05 J1.714
G1 X17.388 Y49.939 F900.
X17.537 Y49.944
X17.743 Y49.97
X18.106 Y50.044
X18.814 Y50.251
X19.512 Y50.49
X20.221 Y50.694
X20.942 Y50.851
X21.671 Y50.966
X22.404 Y51.047
X23.14 Y51.102
X23.877 Y51.139
X24.614 Y51.163
X25.352 Y51.179
X26.09 Y51.189
X26.827 Y51.195
X27.565 Y51.2
X29.041 Y51.204
X31.254 Y51.206
X48.962 Y51.207
X49.696 Y51.133
X50.37 Y50.834
X50.948 Y50.374
X51.199 Y50.124
X51.356 Y50.004
X51.539 Y49.93
X51.735 Y49.907
X52.597 Y49.919
X53.494 Y49.93
G3 X53.464 Y50.564 I-0.015 J0.317 F513.
G1 X53.394 Y50.561 Z-1.992
X53.327 Y50.558 Z-1.969
X53.267 Y50.555 Z-1.931
X53.216 Y50.553 Z-1.88
X53.179 Y50.551 Z-1.82
X53.155 Y50.55 Z-1.753
X53.147 Y50.549 Z-1.683
G0 Z5.
X16.164 Y50.4
Z-1.365
G1 Z-1.683 F513.
X16.171 Y50.396 Z-1.753
X16.191 Y50.384 Z-1.82
X16.223 Y50.364 Z-1.88
X16.266 Y50.338 Z-1.931
X16.317 Y50.306 Z-1.969
X16.375 Y50.271 Z-1.992
X16.435 Y50.234 Z-2.
G3 X17.388 Y49.939 I1.053 J1.712
G1 X22.082 Y49.869 F900.
X22.82 Y49.895
X23.557 Y49.89
X24.295 Y49.896
X25.771 Y49.914
X26.508 Y49.921
X27.246 Y49.926
X27.984 Y49.929
X29.46 Y49.934
X31.673 Y49.936
X44.216 Y49.937
X47.905
X48.641 Y49.886
X48.657 Y49.88
X48.746 Y49.855
X48.838 Y49.842
X48.931 Y49.839
X49.076 Y49.845
X49.747 Y49.866
X50.418 Y49.882
X50.921 Y49.893
X51.735 Y49.907
G3 X51.702 Y50.541 I-0.017 J0.317 F513.
G1 X51.631 Y50.537 Z-1.992
X51.564 Y50.534 Z-1.969
X51.504 Y50.531 Z-1.931
X51.454 Y50.528 Z-1.88
X51.416 Y50.526 Z-1.82
X51.393 Y50.525 Z-1.753
X51.385 Z-1.683
G0 Z5.
X20.859 Y50.331
Z-1.365
G1 Z-1.683 F513.
X20.866 Y50.327 Z-1.753
X20.886 Y50.314 Z-1.82
X20.918 Y50.294 Z-1.88
X20.961 Y50.268 Z-1.931
X21.012 Y50.237 Z-1.969
X21.069 Y50.201 Z-1.992
X21.129 Y50.164 Z-2.
G3 X22.082 Y49.869 I1.053 J1.712
G1 X24.933 Y49.827 F900.
X25.1 Y49.822
X25.268 Y49.807
X25.436 Y49.778
X25.579 Y49.746
X25.771 Y49.681
X25.939 Y49.604
X25.991 Y49.578
X26.106 Y49.512
X26.26 Y49.411
X26.387 Y49.331
X26.585 Y49.23
X26.844 Y49.123
X27.191 Y49.011
X27.684 Y48.894
X28.413 Y48.783
X29.149 Y48.726
X29.886 Y48.697
X30.623 Y48.682
X31.361 Y48.675
X32.099 Y48.671
X33.575 Y48.668
X38.739 Y48.667
X44.904
X45.114 Y48.695
X45.309 Y48.777
X45.476 Y48.908
X45.639 Y49.076
X45.723 Y49.152
X45.891 Y49.28
X45.975 Y49.334
X46.058 Y49.384
X46.226 Y49.466
X46.394 Y49.531
X46.567 Y49.578
X46.729 Y49.613
X46.897 Y49.64
X47.4 Y49.716
X47.635 Y49.746
X47.903 Y49.779
X48.07 Y49.795
X48.573 Y49.825
X48.931 Y49.839
G3 X48.902 Y50.474 I-0.024 J0.317 F513.
X48.883 Y50.473 I0.005 J-0.317
G1 X48.813 Y50.467 Z-1.992
X48.746 Y50.462 Z-1.969
X48.686 Y50.458 Z-1.931
X48.636 Y50.454 Z-1.88
X48.598 Y50.451 Z-1.82
X48.575 Y50.45 Z-1.753
X48.567 Y50.449 Z-1.683
G0 Z5.
X25.503 Y50.477
Z-1.365
G1 Z-1.683 F513.
X25.506 Y50.469 Z-1.753
X25.516 Y50.448 Z-1.82
X25.531 Y50.414 Z-1.88
X25.552 Y50.368 Z-1.931
X25.577 Y50.313 Z-1.969
X25.605 Y50.252 Z-1.992
X25.634 Y50.188 Z-2.
G3 X26.26 Y49.411 I1.829 J0.833
G1 X26.274 Y49.401 F900.
X26.45 Y49.243
X26.609 Y49.074
X26.741 Y48.908
X26.777 Y48.847
X26.859 Y48.722
X26.952 Y48.604
X27.057 Y48.497
X27.189 Y48.382
X27.335 Y48.274
X27.524 Y48.157
X27.77 Y48.031
X28.064 Y47.908
X28.465 Y47.778
X29.01 Y47.648
X29.739 Y47.536
X30.474 Y47.473
X31.211 Y47.439
X31.948 Y47.42
X32.14 Y47.417
X32.316 Y47.436
X32.483 Y47.496
X32.631 Y47.593
X32.751 Y47.723
X32.759 Y47.734
X32.813 Y47.802
X32.906 Y47.902
X32.98 Y47.974
X33.09 Y48.07
X33.148 Y48.11
X33.337 Y48.237
X33.483 Y48.316
X33.651 Y48.388
X33.819 Y48.447
X33.986 Y48.486
X34.154 Y48.513
X34.322 Y48.529
X34.489 Y48.526
X34.657 Y48.512
X34.825 Y48.486
X34.992 Y48.444
X35.113 Y48.405
X35.16 Y48.387
X35.328 Y48.314
X35.476 Y48.237
X35.495 Y48.226
X35.588 Y48.16
X35.714 Y48.079
X35.733 Y48.069
X35.921 Y48.002
X36.12 Y47.987
X36.315 Y48.025
X36.494 Y48.115
G3 X36.33 Y48.687 I-0.188 J0.256 F513.
G1 X36.104 Y48.705
X35.988 Y48.714 F900.
X35.806 Y48.728 F513.
G3 X35.588 Y48.16 I-0.025 J-0.317
G1 X35.713 Y48.07 F900.
X35.883 Y47.932
X35.935 Y47.902
X35.967 Y47.888
X35.998 Y47.879
X36.04 Y47.871
X36.082 Y47.869
X36.124 Y47.873
X36.166 Y47.882
X36.216 Y47.902
X36.246 Y47.918
X36.275 Y47.94
X36.334 Y47.991
X36.428 Y48.07
X36.501 Y48.12
X36.68 Y48.237
X36.837 Y48.319
X37.004 Y48.388
X37.172 Y48.445
X37.34 Y48.48
X37.507 Y48.504
X37.675 Y48.517
X37.843 Y48.513
X38.01 Y48.497
X38.178 Y48.47
X38.346 Y48.427
X38.416 Y48.405
X38.513 Y48.368
X38.681 Y48.292
X38.786 Y48.237
X38.849 Y48.2
X38.877 Y48.18
X39.002 Y48.097
X39.189 Y47.996
X39.433 Y47.889
X39.756 Y47.777
X40.207 Y47.66
X40.896 Y47.54
X41.631 Y47.471
X42.368 Y47.436
X43.105 Y47.418
X43.843 Y47.408
X44.246 Y47.419
X44.384 Y47.434
X44.59 Y47.488
X44.772 Y47.597
X44.915 Y47.753
X45.009 Y47.944
X45.157 Y48.405
X45.243 Y48.573
X45.35 Y48.74
X45.388 Y48.795
X45.476 Y48.908
G3 X45.184 Y49.41 I-0.257 J0.186 F513.
G1 X44.921 Y49.381
X39.283 Y48.771 F900.
X39.039 Y48.745 F513.
G3 X38.877 Y48.18 I0.034 J-0.316
G1 X39.027 Y48.07 F900.
X39.184 Y47.93
X39.352 Y47.759
X39.519 Y47.524
X39.54 Y47.486
X39.617 Y47.357
X39.719 Y47.248
X39.832 Y47.146
X39.974 Y47.037
X40.16 Y46.917
X40.386 Y46.795
X40.669 Y46.671
X41.043 Y46.542
X41.55 Y46.411
X42.276 Y46.284
X43.011 Y46.214
X43.483 Y46.202
X43.801 Y46.219
X44.066 Y46.255
X44.137 Y46.271
X44.324 Y46.339
X44.485 Y46.454
X44.611 Y46.608
X44.691 Y46.789
X44.817 Y47.231
X44.863 Y47.399
X44.995 Y47.902
X45.009 Y47.944
G3 X44.677 Y48.347 I-0.305 J0.087 F513.
G1 X44.294 Y48.315
X40.178 Y47.973 F900.
X39.799 Y47.942 F513.
G3 X39.54 Y47.486 I0.026 J-0.316
G1 X39.586 Y47.399 F900.
X39.666 Y47.231
X39.73 Y47.064
X39.773 Y46.896
X39.779 Y46.868
X39.816 Y46.723
X39.877 Y46.586
X39.953 Y46.457
X40.042 Y46.335
X40.15 Y46.212
X40.286 Y46.08
X40.441 Y45.952
X40.646 Y45.81
X40.901 Y45.661
X41.19 Y45.522
X41.575 Y45.373
X42.006 Y45.246
X42.454 Y45.151
X42.88 Y45.097
X42.911 Y45.096
X42.995
X43.078 Y45.107
X43.159 Y45.126
G3 X43.2 Y45.71 I-0.102 J0.301 F513.
G1 X42.975 Y45.824
X40.499 Y47.072 F900.
X40.234 Y47.205 F513.
G3 X39.779 Y46.868 I-0.143 J-0.284
G1 X39.808 Y46.728 F900.
X39.86 Y46.393
X39.926 Y45.966
X39.956 Y45.819
X40.006 Y45.677
X40.072 Y45.542
X40.149 Y45.414
X40.251 Y45.274
X40.368 Y45.136
X40.519 Y44.986
X40.697 Y44.836
X40.727 Y44.814
X40.903 Y44.721
X41.097 Y44.678
X41.295 Y44.688
G3 X41.453 Y45.22 I-0.069 J0.31 F513.
G1 X41.227 Y45.45
X40.614 Y46.075 F900.
X40.468 Y46.225 F513.
G3 X39.926 Y45.966 I-0.227 J-0.222
G1 X39.963 Y45.722 F900.
X40.051 Y45.219
X40.082 Y45.052
X40.115 Y44.884
X40.148 Y44.753
G3 X40.316 Y44.816 I0.08 J0.043 F513.
G1 X40.293 Y44.919
G3 X40.115 Y44.884 I-0.088 J-0.02
G1 X40.132 Y44.8 F900.
X40.146 Y44.758
X40.166 Y44.717
X40.19 Y44.682
X40.209 Y44.66
X40.232 Y44.638
X40.274 Y44.607
X40.316 Y44.583
X40.358 Y44.565
X40.406 Y44.553
X40.454 Y44.549
X40.464
X40.525 Y44.555
X40.693 Y44.58
X40.861 Y44.608
X41.196 Y44.669
X41.364 Y44.701
X42.37 Y44.911
X42.537 Y44.952
X43.04 Y45.091
X43.543 Y45.242
X43.711 Y45.301
X44.046 Y45.427
X44.13 Y45.46
X44.172 Y45.484
X44.214 Y45.519
X44.248 Y45.555
X44.279 Y45.597
X44.301 Y45.639
X44.335 Y45.722
X44.382 Y45.842
X44.462 Y46.058
X44.523 Y46.225
X44.683 Y46.762
X44.691 Y46.789
G3 X44.08 Y46.962 I-0.308 J0.077 F513.
X44.075 Y46.944 I0.303 J-0.095
G1 X44.058 Y46.875 Z-1.992
X44.041 Y46.81 Z-1.969
X44.027 Y46.752 Z-1.931
X44.015 Y46.703 Z-1.88
X44.005 Y46.666 Z-1.82
X44. Y46.644 Z-1.753
X43.998 Y46.636 Z-1.683
G0 Z5.
X26.534 Y50.132
Z-1.365
G1 Z-1.683 F513.
Y50.124 Z-1.753
Y50.101 Z-1.82
Y50.063 Z-1.88
Y50.012 Z-1.931
X26.533 Y49.952 Z-1.969
Y49.885 Z-1.992
Y49.814 Z-2.
G3 X26.777 Y48.847 I2.01 J-0.007
G1 X26.84 Y48.74 F900.
X26.922 Y48.573
X26.945 Y48.52
X26.991 Y48.405
X27.041 Y48.237
X27.065 Y48.145
X27.111 Y48.002
X27.171 Y47.865
X27.247 Y47.735
X27.335 Y47.614
X27.436 Y47.497
X27.57 Y47.365
X27.732 Y47.23
X27.921 Y47.096
X28.172 Y46.947
X28.465 Y46.803
X28.838 Y46.657
X29.313 Y46.512
X29.979 Y46.367
X30.71 Y46.268
X31.223 Y46.229
X31.55 Y46.23
X31.651 Y46.239
X31.872 Y46.292
X32.066 Y46.408
X32.217 Y46.577
X32.31 Y46.783
X32.341 Y46.896
X32.392 Y47.064
X32.477 Y47.281
X32.54 Y47.399
X32.637 Y47.567
X32.751 Y47.723
G3 X32.507 Y48.217 I-0.263 J0.177 F513.
G1 X32.177 Y48.238
X27.801 Y48.508 F900.
X27.394 Y48.533 F513.
G3 X27.065 Y48.145 I-0.02 J-0.317
G1 X27.308 Y47.231 F900.
X27.353 Y47.064
X27.399 Y46.921
X27.462 Y46.785
X27.539 Y46.656
X27.633 Y46.525
X27.746 Y46.392
X27.896 Y46.24
X28.064 Y46.097
X28.28 Y45.94
X28.553 Y45.773
X28.859 Y45.619
X29.268 Y45.452
X29.75 Y45.3
X30.222 Y45.191
X30.589 Y45.137
X30.911 Y45.116
X31.145 Y45.12
X31.38 Y45.142
X31.582 Y45.178
X31.632 Y45.191
X31.839 Y45.281
X32.01 Y45.429
X32.128 Y45.622
X32.182 Y45.841
X32.217 Y46.225
X32.243 Y46.393
X32.31 Y46.783
G3 X32.018 Y47.143 I-0.315 J0.043 F513.
G1 X31.541 Y47.177
X28.088 Y47.423 F900.
X27.685 Y47.452 F513.
G3 X27.353 Y47.064 I-0.023 J-0.317
G1 X27.448 Y46.715 F900.
X27.585 Y46.225
X27.64 Y46.058
X27.697 Y45.89
X27.767 Y45.716
X27.783 Y45.687
G3 X28.329 Y45.969 I0.237 J0.212 F513.
G1 X28.311 Y46.051
G3 X27.921 Y46.287 I-0.31 J-0.07
X27.697 Y45.89 I0.08 J-0.307
G1 X27.74 Y45.764 F900.
X27.761 Y45.722
X27.783 Y45.687
X27.815 Y45.648
X27.86 Y45.609
X27.951 Y45.545
X28.034 Y45.49
X28.118 Y45.45
X28.286 Y45.375
X28.454 Y45.312
X28.957 Y45.133
X29.46 Y44.956
X29.795 Y44.878
X30.528 Y44.717
X30.633 Y44.695
X31.136 Y44.608
X31.304 Y44.589
X31.472 Y44.574
X31.621 Y44.569
X31.79 Y44.61
X31.936 Y44.705
X32.043 Y44.841
X32.1 Y45.005
G3 X31.627 Y45.323 I-0.315 J0.044 F513.
G1 X31.53 Y45.267
X31.352 Y45.164
G3 X31.472 Y44.574 I0.159 J-0.275
G1 X31.723 Y44.552 F900.
X31.765 Y44.553
X31.807 Y44.56
X31.849 Y44.573
X31.891 Y44.593
X31.933 Y44.618
X31.974 Y44.652
X32.004 Y44.684
X32.026 Y44.717
X32.047 Y44.758
X32.062 Y44.8
X32.079 Y44.884
X32.109 Y45.052
X32.13 Y45.219
X32.177 Y45.788
X32.182 Y45.841
G3 X31.55 Y45.895 I-0.317 J0.017 F513.
X31.548 Y45.876 I0.315 J-0.036
G1 X31.544 Y45.806 Z-1.992
X31.541 Y45.738 Z-1.969
X31.537 Y45.678 Z-1.931
X31.535 Y45.628 Z-1.88
X31.533 Y45.59 Z-1.82
X31.531 Y45.567 Z-1.753
Y45.559 Z-1.683
G0 Z5.
X61.701 Y32.577
Z-1.365
G1 Z-1.683 F513.
X61.693 Z-1.753
X61.669 Y32.58 Z-1.82
X61.632 Y32.584 Z-1.88
X61.582 Y32.589 Z-1.931
X61.522 Y32.595 Z-1.969
X61.455 Y32.601 Z-1.992
X61.385 Y32.609 Z-2.
G3 X60.399 Y32.46 I-0.203 J-2.
G1 X60.31 Y32.419 F900.
X60.142 Y32.352
X59.975 Y32.307
X59.807 Y32.272
X59.715 Y32.257
X59.568 Y32.226
X59.428 Y32.172
X59.295 Y32.102
X59.17 Y32.019
X59.048 Y31.922
X58.91 Y31.793
X58.779 Y31.649
X58.636 Y31.464
X58.478 Y31.222
X58.336 Y30.961
X58.179 Y30.606
X58.032 Y30.187
X57.881 Y29.611
X57.752 Y28.885
X57.674 Y28.151
X57.626 Y27.415
X57.598 Y26.678
X57.581 Y25.94
X57.571 Y25.202
X57.565 Y24.465
X57.562 Y23.727
X57.559 Y22.251
X57.557 Y18.562
Y17.455
X57.507 Y17.09
X57.383 Y16.742
X57.187 Y16.43
X56.685 Y15.89
X56.042 Y15.528
X55.34 Y15.299
X54.616 Y15.158
X53.883 Y15.073
X53.147 Y15.022
X52.41 Y14.992
X51.672 Y14.975
X50.935 Y14.964
X50.197 Y14.958
X49.459 Y14.954
X47.983 Y14.951
X45.032 Y14.95
X23.635 Y14.955
X18.471 Y14.956
X18.116 Y15.055
X17.79 Y15.23
X17.22 Y15.697
X16.832 Y16.325
X16.584 Y17.02
X16.431 Y17.742
X16.338 Y18.474
X16.282 Y19.209
X16.249 Y19.946
X16.229 Y20.684
X16.217 Y21.422
X16.211 Y22.159
X16.207 Y22.897
X16.203 Y24.373
X16.202 Y27.324
Y28.8
X16.195 Y29.538
X16.165 Y30.275
X16.1 Y30.821
X16.02 Y31.215
X15.926 Y31.54
X15.84 Y31.77
X15.739 Y31.983
X15.691 Y32.068
X15.559 Y32.235
X15.386 Y32.358
X15.185 Y32.427
X14.972 Y32.436
X14.537 Y32.389
X14.202 Y32.351
X13.854 Y32.311
G3 X13.936 Y31.682 I0.041 J-0.315 F513.
G1 X14.006 Y31.691 Z-1.992
X14.072 Y31.699 Z-1.969
X14.132 Y31.707 Z-1.931
X14.182 Y31.714 Z-1.88
X14.219 Y31.718 Z-1.82
X14.243 Y31.721 Z-1.753
X14.251 Y31.722 Z-1.683
G0 Z5.
X60.999 Y32.012
Z-1.365
G1 Z-1.683 F513.
X60.992 Y32.015 Z-1.753
X60.97 Y32.024 Z-1.82
X60.935 Y32.038 Z-1.88
X60.888 Y32.056 Z-1.931
X60.832 Y32.079 Z-1.969
X60.77 Y32.104 Z-1.992
X60.704 Y32.13 Z-2.
G3 X59.715 Y32.257 I-0.743 J-1.867
G1 X59.639 Y32.245 F900.
X59.136 Y32.225
X59.044 Y32.23
X58.894
X58.745 Y32.21
X58.601 Y32.17
X58.461 Y32.115
X58.327 Y32.048
X58.188 Y31.961
X58.043 Y31.855
X57.892 Y31.723
X57.73 Y31.558
X57.571 Y31.367
X57.392 Y31.114
X57.23 Y30.84
X57.046 Y30.462
X56.883 Y30.046
X56.713 Y29.483
X56.558 Y28.762
X56.458 Y28.031
X56.394 Y27.296
X56.353 Y26.559
X56.328 Y25.822
X56.312 Y25.084
X56.302 Y24.347
X56.296 Y23.609
X56.293 Y22.871
X56.289 Y21.395
X56.288 Y18.444
X56.177 Y18.092
X55.994 Y17.772
X55.513 Y17.212
X54.88 Y16.834
X54.183 Y16.592
X53.46 Y16.443
X52.728 Y16.353
X51.992 Y16.298
X51.255 Y16.266
X50.517 Y16.247
X49.78 Y16.236
X49.042 Y16.229
X48.304 Y16.225
X46.828 Y16.222
X43.877 Y16.221
X21.743 Y16.225
X19.898 Y16.226
X19.534 Y16.284
X19.193 Y16.425
X18.889 Y16.633
X18.365 Y17.153
X18.018 Y17.805
X17.801 Y18.51
X17.668 Y19.235
X17.588 Y19.969
X17.54 Y20.705
X17.512 Y21.442
X17.495 Y22.18
X17.485 Y22.918
X17.479 Y23.655
X17.476 Y24.393
X17.473 Y25.869
X17.472 Y28.082
X17.467 Y28.82
X17.45 Y29.558
X17.398 Y30.294
X17.309 Y30.883
X17.202 Y31.341
X17.099 Y31.665
X16.989 Y31.931
X16.886 Y32.135
X16.878 Y32.147
X16.757 Y32.296
X16.602 Y32.409
X16.424 Y32.479
X16.233 Y32.5
X15.879 Y32.49
X15.711 Y32.484
X15.543 Y32.477
X15.04 Y32.443
X14.972 Y32.436
G3 X14.701 Y32.078 I0.044 J-0.315 F513.
X15.059 Y31.807 I0.315 J0.044
G1 X15.129 Y31.816 Z-1.992
X15.196 Y31.826 Z-1.969
X15.255 Y31.834 Z-1.931
X15.305 Y31.841 Z-1.88
X15.343 Y31.846 Z-1.82
X15.366 Y31.849 Z-1.753
X15.374 Y31.85 Z-1.683
G0 Z5.
X60.25 Y31.725
Z-1.365
G1 Z-1.683 F513.
X60.244 Y31.73 Z-1.753
X60.224 Y31.743 Z-1.82
X60.193 Y31.764 Z-1.88
X60.151 Y31.791 Z-1.931
X60.101 Y31.825 Z-1.969
X60.045 Y31.862 Z-1.992
X59.986 Y31.901 Z-2.
G3 X59.044 Y32.23 I-1.112 J-1.674
G1 X58.633 Y32.252 F900.
X58.466 Y32.269
X58.206 Y32.3
X58.056 Y32.31
X57.906 Y32.302
X57.759 Y32.276
X57.615 Y32.234
X57.475 Y32.179
X57.324 Y32.105
X57.175 Y32.016
X57.003 Y31.893
X56.837 Y31.753
X56.65 Y31.569
X56.474 Y31.364
X56.274 Y31.091
X56.091 Y30.792
X55.884 Y30.385
X55.703 Y29.944
X55.516 Y29.358
X55.349 Y28.639
X55.235 Y27.91
X55.159 Y27.176
X55.109 Y26.44
X55.076 Y25.703
X55.054 Y24.966
X55.041 Y24.228
X55.032 Y23.49
X55.026 Y22.752
X55.023 Y22.015
X55.019 Y20.539
Y19.801
X54.932 Y19.443
X54.767 Y19.113
X54.312 Y18.532
X53.69 Y18.136
X52.997 Y17.882
X52.276 Y17.725
X51.544 Y17.63
X50.809 Y17.573
X50.072 Y17.539
X49.334 Y17.519
X48.596 Y17.507
X47.859 Y17.5
X47.121 Y17.496
X46.383 Y17.493
X44.907 Y17.491
X39.743
X21.297 Y17.495
X20.93 Y17.535
X20.579 Y17.648
X20.261 Y17.835
X19.708 Y18.324
X19.337 Y18.961
X19.102 Y19.661
X18.957 Y20.384
X18.869 Y21.117
X18.817 Y21.853
X18.786 Y22.59
X18.768 Y23.327
X18.757 Y24.065
X18.75 Y24.803
X18.747 Y25.541
X18.741 Y27.754
X18.734 Y28.492
X18.713 Y29.229
X18.664 Y29.966
X18.573 Y30.683
X18.461 Y31.223
X18.345 Y31.614
X18.231 Y31.913
X18.127 Y32.129
X18.122 Y32.138
X18.007 Y32.287
X17.859 Y32.403
X17.687 Y32.477
X17.502 Y32.506
X17.388 Y32.509
X17.22 Y32.512
X16.717 Y32.509
X16.233 Y32.5
G3 X15.933 Y32.166 I0.017 J-0.317 F513.
X16.267 Y31.866 I0.317 J0.017
G1 X16.338 Y31.87 Z-1.992
X16.405 Y31.873 Z-1.969
X16.465 Y31.876 Z-1.931
X16.515 Y31.879 Z-1.88
X16.553 Y31.881 Z-1.82
X16.576 Y31.882 Z-1.753
X16.584 Y31.883 Z-1.683
G0 Z5.
X59.375 Y31.715
Z-1.365
G1 Z-1.683 F513.
X59.369 Y31.72 Z-1.753
X59.35 Y31.734 Z-1.82
X59.32 Y31.757 Z-1.88
X59.28 Y31.788 Z-1.931
X59.233 Y31.825 Z-1.969
X59.179 Y31.865 Z-1.992
X59.123 Y31.908 Z-2.
G3 X58.206 Y32.3 I-1.223 J-1.595
G1 X57.46 Y32.387 F900.
X57.2 Y32.414
X57.05 Y32.422
X56.9 Y32.412
X56.753 Y32.385
X56.608 Y32.345
X56.458 Y32.288
X56.303 Y32.215
X56.132 Y32.117
X55.958 Y31.998
X55.763 Y31.84
X55.574 Y31.659
X55.368 Y31.428
X55.165 Y31.16
X54.951 Y30.825
X54.738 Y30.423
X54.532 Y29.944
X54.326 Y29.338
X54.146 Y28.622
X54.019 Y27.896
X53.931 Y27.163
X53.87 Y26.428
X53.828 Y25.691
X53.8 Y24.954
X53.782 Y24.216
X53.769 Y23.479
X53.761 Y22.741
X53.756 Y22.003
X53.753 Y21.265
X53.71 Y20.899
X53.588 Y20.551
X53.393 Y20.237
X52.891 Y19.696
X52.248 Y19.334
X51.547 Y19.106
X50.822 Y18.967
X50.089 Y18.883
X49.353 Y18.833
X48.616 Y18.803
X47.878 Y18.785
X47.141 Y18.775
X46.403 Y18.769
X45.665 Y18.765
X44.189 Y18.762
X41.238 Y18.761
X22.793 Y18.765
X22.424 Y18.77
X22.06 Y18.834
X21.721 Y18.978
X21.418 Y19.189
X20.899 Y19.713
X20.555 Y20.365
X20.338 Y21.071
X20.206 Y21.797
X20.127 Y22.53
X20.08 Y23.266
X20.052 Y24.004
X20.035 Y24.741
X20.025 Y25.479
X20.02 Y26.217
X20.016 Y26.955
X20.01 Y27.693
X19.997 Y28.43
X19.968 Y29.167
X19.912 Y29.903
X19.817 Y30.635
X19.695 Y31.225
X19.581 Y31.616
X19.466 Y31.915
X19.402 Y32.05
X19.29 Y32.22
X19.137 Y32.352
X18.953 Y32.439
X18.753 Y32.472
X17.502 Y32.506
G3 X17.507 Y31.871 I0.002 J-0.317 F513.
G1 X17.577 Y31.872 Z-1.992
X17.644 Z-1.969
X17.705 Y31.873 Z-1.931
X17.755 Z-1.88
X17.793 Z-1.82
X17.816 Y31.874 Z-1.753
X17.824 Z-1.683
G0 Z5.
X58.378 Y31.846
Z-1.365
G1 Z-1.683 F513.
X58.371 Y31.851 Z-1.753
X58.352 Y31.865 Z-1.82
X58.322 Y31.888 Z-1.88
X58.282 Y31.918 Z-1.931
X58.233 Y31.954 Z-1.969
X58.18 Y31.994 Z-1.992
X58.123 Y32.036 Z-2.
G3 X57.2 Y32.414 I-1.199 J-1.613
G1 X56.957 Y32.439 F900.
X56.789 Y32.45
X56.454 Y32.47
X56.286 Y32.478
X56.026 Y32.489
X55.876 Y32.487
X55.727 Y32.468
X55.581 Y32.435
X55.43 Y32.386
X55.278 Y32.323
X55.105 Y32.234
X54.929 Y32.125
X54.735 Y31.981
X54.538 Y31.81
X54.324 Y31.591
X54.115 Y31.339
X53.881 Y31.008
X53.668 Y30.646
X53.433 Y30.164
X53.214 Y29.604
X53.004 Y28.906
X52.849 Y28.185
X52.737 Y27.456
X52.657 Y26.722
X52.6 Y25.987
X52.56 Y25.25
X52.533 Y24.512
X52.514 Y23.775
X52.502 Y23.037
X52.493 Y22.299
X52.394 Y21.944
X52.22 Y21.619
X51.753 Y21.048
X51.125 Y20.66
X50.43 Y20.412
X49.709 Y20.26
X48.977 Y20.167
X48.241 Y20.111
X47.504 Y20.078
X46.766 Y20.058
X46.028 Y20.047
X45.291 Y20.04
X44.553 Y20.036
X43.077 Y20.033
X40.126 Y20.031
X23.894 Y20.035
X23.527 Y20.066
X23.172 Y20.168
X22.849 Y20.345
X22.282 Y20.818
X21.9 Y21.449
X21.656 Y22.146
X21.506 Y22.868
X21.415 Y23.6
X21.361 Y24.336
X21.328 Y25.073
X21.309 Y25.811
X21.296 Y26.548
X21.285 Y27.286
X21.27 Y28.024
X21.242 Y28.761
X21.193 Y29.497
X21.116 Y30.231
X20.999 Y30.942
X20.882 Y31.41
X20.766 Y31.754
X20.665 Y31.99
X20.638 Y32.041
X20.525 Y32.2
X20.375 Y32.324
X20.198 Y32.404
X20.005 Y32.436
X19.232 Y32.459
X18.753 Y32.472
G3 X18.758 Y31.837 I0.002 J-0.317 F513.
G1 X18.829 Z-1.992
X18.896 Y31.838 Z-1.969
X18.956 Z-1.931
X19.006 Y31.839 Z-1.88
X19.044 Z-1.82
X19.068 Z-1.753
X19.076 Z-1.683
G0 Z5.
X57.238 Y31.997
Z-1.365
G1 Z-1.683 F513.
X57.231 Y32.002 Z-1.753
X57.211 Y32.014 Z-1.82
X57.18 Y32.035 Z-1.88
X57.137 Y32.062 Z-1.931
X57.087 Y32.095 Z-1.969
X57.031 Y32.132 Z-1.992
X56.971 Y32.17 Z-2.
G3 X56.026 Y32.489 I-1.094 J-1.686
G1 X55.783 Y32.498 F900.
X55.28 Y32.509
X54.852 Y32.515
X54.703 Y32.509
X54.554 Y32.49
X54.408 Y32.456
X54.265 Y32.409
X54.099 Y32.339
X53.933 Y32.253
X53.745 Y32.136
X53.556 Y31.996
X53.347 Y31.812
X53.134 Y31.594
X52.904 Y31.316
X52.681 Y30.997
X52.431 Y30.571
X52.212 Y30.117
X51.982 Y29.524
X51.771 Y28.817
X51.614 Y28.096
X51.498 Y27.367
X51.413 Y26.634
X51.351 Y25.899
X51.307 Y25.162
X51.276 Y24.425
X51.254 Y23.688
X51.182 Y23.326
X51.031 Y22.989
X50.815 Y22.69
X50.286 Y22.176
X49.631 Y21.837
X48.924 Y21.624
X48.198 Y21.493
X47.464 Y21.415
X46.728 Y21.368
X45.991 Y21.34
X45.253 Y21.324
X44.515 Y21.314
X43.778 Y21.309
X43.04 Y21.305
X41.564 Y21.303
X37.875 Y21.302
X25.332 Y21.304
X24.963 Y21.31
X24.6 Y21.374
X24.261 Y21.518
X23.958 Y21.73
X23.439 Y22.253
X23.094 Y22.906
X22.879 Y23.612
X22.747 Y24.337
X22.667 Y25.071
X22.619 Y25.807
X22.588 Y26.544
X22.564 Y27.282
X22.538 Y28.019
X22.502 Y28.756
X22.447 Y29.492
X22.363 Y30.225
X22.248 Y30.911
X22.126 Y31.395
X22.012 Y31.728
X21.909 Y31.967
X21.801 Y32.119
X21.66 Y32.24
X21.492 Y32.321
X21.31 Y32.358
X20.741 Y32.401
X20.573 Y32.411
X20.035 Y32.435
X20.005 Y32.436
G3 X20.007 Y31.801 I0.001 J-0.317 F513.
G1 X20.008
X20.079 Z-1.992
X20.146 Z-1.969
X20.206 Y31.802 Z-1.931
X20.257 Z-1.88
X20.294 Z-1.82
X20.318 Z-1.753
X20.326 Z-1.683
G0 Z5.
X56.077 Y32.057
Z-1.365
G1 Z-1.683 F513.
X56.07 Y32.061 Z-1.753
X56.05 Y32.074 Z-1.82
X56.018 Y32.093 Z-1.88
X55.975 Y32.12 Z-1.931
X55.924 Y32.151 Z-1.969
X55.866 Y32.186 Z-1.992
X55.806 Y32.223 Z-2.
G3 X54.852 Y32.515 I-1.047 J-1.715
G1 X54.609 Y32.517 F900.
X53.603 Y32.521
X53.454 Y32.513
X53.306 Y32.486
X53.161 Y32.446
X53.011 Y32.391
X52.839 Y32.312
X52.668 Y32.216
X52.468 Y32.081
X52.272 Y31.925
X52.049 Y31.716
X51.838 Y31.484
X51.593 Y31.166
X51.37 Y30.823
X51.12 Y30.361
X50.879 Y29.817
X50.648 Y29.155
X50.462 Y28.441
X50.322 Y27.717
X50.216 Y26.987
X50.138 Y26.253
X50.08 Y25.518
X50.038 Y24.781
X49.917 Y24.432
X49.728 Y24.115
X49.242 Y23.56
X48.608 Y23.184
X47.91 Y22.944
X47.187 Y22.795
X46.455 Y22.705
X45.719 Y22.65
X44.982 Y22.618
X44.245 Y22.599
X43.507 Y22.587
X42.769 Y22.581
X42.031 Y22.577
X40.556 Y22.573
X37.604 Y22.572
X36.62
X36.572 Y22.57
X36.523 Y22.566
X36.475 Y22.558
X36.334 Y22.53
X36.166 Y22.511
X35.998 Y22.504
X35.831 Y22.514
X35.094 Y22.558
X34.357 Y22.565
X33.619 Y22.569
X32.143 Y22.572
X26.978 Y22.574
X26.241
X25.878 Y22.641
X25.537 Y22.782
X25.234 Y22.993
X24.714 Y23.516
X24.369 Y24.169
X24.152 Y24.874
X24.017 Y25.599
X23.933 Y26.332
X23.877 Y27.068
X23.831 Y27.804
X23.783 Y28.54
X23.723 Y29.276
X23.642 Y30.009
X23.526 Y30.738
X23.404 Y31.262
X23.297 Y31.6
X23.221 Y31.783
X23.123 Y31.954
X22.984 Y32.092
X22.813 Y32.189
X22.623 Y32.238
X22.418 Y32.262
X22.25 Y32.28
X21.747 Y32.326
X21.31 Y32.358
G3 X21.284 Y31.724 I-0.013 J-0.317 F513.
G1 X21.355 Y31.721 Z-1.992
X21.422 Y31.718 Z-1.969
X21.482 Y31.716 Z-1.931
X21.532 Y31.714 Z-1.88
X21.57 Y31.712 Z-1.82
X21.594 Y31.711 Z-1.753
X21.602 Z-1.683
G0 Z5.
X36.989 Y21.907
Z-1.365
G1 Z-1.683 F513.
X36.983 Y21.912 Z-1.753
X36.965 Y21.927 Z-1.82
X36.935 Y21.951 Z-1.88
X36.896 Y21.982 Z-1.931
X36.849 Y22.019 Z-1.969
X36.796 Y22.061 Z-1.992
X36.741 Y22.105 Z-2.
G3 X35.831 Y22.514 I-1.252 J-1.572
G1 X35.663 Y22.537 F900.
X35.432 Y22.586
X35.328 Y22.618
X35.16 Y22.687
X35.015 Y22.754
X34.992 Y22.767
X34.825 Y22.873
X34.752 Y22.922
X34.657 Y23.001
X34.538 Y23.093
X34.371 Y23.191
X34.156 Y23.296
X33.874 Y23.406
X33.491 Y23.522
X32.937 Y23.641
X32.205 Y23.738
X31.469 Y23.788
X30.732 Y23.814
X29.994 Y23.828
X29.256 Y23.835
X28.518 Y23.839
X27.781 Y23.842
X27.412 Y23.859
X27.053 Y23.945
X26.723 Y24.108
X26.139 Y24.559
X25.74 Y25.18
X25.482 Y25.871
X25.317 Y26.59
X25.206 Y27.32
X25.123 Y28.053
X25.048 Y28.787
X24.967 Y29.52
X24.867 Y30.251
X24.737 Y30.934
X24.624 Y31.341
X24.557 Y31.525
X24.472 Y31.691
X24.348 Y31.83
X24.193 Y31.934
X24.017 Y31.996
X23.591 Y32.088
X23.424 Y32.12
X22.921 Y32.202
X22.623 Y32.238
G3 X22.57 Y31.605 I-0.026 J-0.316 F513.
G1 X22.641 Y31.599 Z-1.992
X22.708 Y31.594 Z-1.969
X22.768 Y31.589 Z-1.931
X22.818 Y31.585 Z-1.88
X22.856 Y31.582 Z-1.82
X22.879 Y31.58 Z-1.753
X22.887 Y31.579 Z-1.683
G0 Z5.
X35.303 Y21.864
Z-1.365
G1 Z-1.683 F513.
X35.3 Y21.871 Z-1.753
X35.293 Y21.894 Z-1.82
X35.281 Y21.93 Z-1.88
X35.264 Y21.977 Z-1.931
X35.245 Y22.034 Z-1.969
X35.224 Y22.098 Z-1.992
X35.201 Y22.165 Z-2.
G3 X34.657 Y23.001 I-1.904 J-0.644
G1 X34.554 Y23.089 F900.
X34.489 Y23.157
X34.397 Y23.257
X34.322 Y23.354
X34.269 Y23.425
X34.167 Y23.592
X34.154 Y23.618
X34.081 Y23.749
X33.989 Y23.867
X33.885 Y23.976
X33.76 Y24.086
X33.597 Y24.209
X33.407 Y24.328
X33.171 Y24.452
X32.862 Y24.583
X32.475 Y24.712
X31.935 Y24.845
X31.206 Y24.963
X30.471 Y25.029
X29.735 Y25.066
X28.997 Y25.087
X28.629 Y25.118
X28.273 Y25.214
X27.947 Y25.386
X27.374 Y25.852
X26.979 Y26.475
X26.717 Y27.164
X26.538 Y27.88
X26.405 Y28.606
X26.29 Y29.335
X26.172 Y30.063
X26.037 Y30.758
X25.929 Y31.142
X25.909 Y31.196
X25.799 Y31.394
X25.635 Y31.549
X25.432 Y31.648
X25.268 Y31.698
X25.1 Y31.745
X24.597 Y31.87
X24.017 Y31.996
G3 X23.887 Y31.375 I-0.056 J-0.313 F513.
X23.905 Y31.371 I0.074 J0.309
G1 X23.975 Y31.358 Z-1.992
X24.041 Y31.347 Z-1.969
X24.1 Y31.336 Z-1.931
X24.149 Y31.327 Z-1.88
X24.187 Y31.32 Z-1.82
X24.21 Y31.316 Z-1.753
X24.217 Y31.315 Z-1.683
G0 Z5.
X34.304 Y22.319
Z-1.365
G1 Z-1.683 F513.
X34.305 Y22.327 Z-1.753
X34.307 Y22.351 Z-1.82
X34.31 Y22.388 Z-1.88
X34.313 Y22.438 Z-1.931
X34.318 Y22.498 Z-1.969
X34.323 Y22.565 Z-1.992
X34.328 Y22.636 Z-2.
G3 X34.154 Y23.618 I-2.004 J0.151
G1 X34.084 Y23.76 F900.
X34.017 Y23.927
X33.986 Y24.014
X33.963 Y24.095
X33.924 Y24.263
X33.919 Y24.291
X33.889 Y24.438
X33.832 Y24.576
X33.76 Y24.708
X33.674 Y24.831
X33.577 Y24.948
X33.452 Y25.077
X33.289 Y25.22
X33.111 Y25.354
X32.875 Y25.501
X32.582 Y25.654
X32.238 Y25.799
X31.784 Y25.949
X31.175 Y26.097
X30.446 Y26.213
X29.712 Y26.288
X29.373 Y26.432
X28.762 Y26.846
X28.317 Y27.435
X28.008 Y28.104
X27.786 Y28.808
X27.611 Y29.525
X27.451 Y30.245
X27.329 Y30.71
X27.231 Y30.899
X27.082 Y31.052
X26.897 Y31.157
X26.777 Y31.203
X26.442 Y31.328
X26.274 Y31.388
X25.432 Y31.648
G3 X25.249 Y31.04 I-0.083 J-0.307 F513.
X25.266 Y31.035 I0.101 J0.301
G1 X25.335 Y31.016 Z-1.992
X25.399 Y30.999 Z-1.969
X25.458 Y30.983 Z-1.931
X25.506 Y30.97 Z-1.88
X25.543 Y30.96 Z-1.82
X25.565 Y30.954 Z-1.753
X25.573 Y30.952 Z-1.683
G0 Z5.
X33.67 Y23.007
Z-1.365
G1 Z-1.683 F513.
X33.673 Y23.015 Z-1.753
X33.682 Y23.036 Z-1.82
X33.696 Y23.072 Z-1.88
X33.715 Y23.118 Z-1.931
X33.737 Y23.174 Z-1.969
X33.762 Y23.236 Z-1.992
X33.789 Y23.302 Z-2.
G3 X33.919 Y24.291 I-1.865 J0.75
G1 X33.898 Y24.43 F900.
X33.879 Y24.598
X33.873 Y24.682
X33.867 Y24.724
X33.856 Y24.766
X33.819 Y24.873
X33.731 Y25.101
X33.651 Y25.293
X33.52 Y25.604
X33.455 Y25.739
X33.377 Y25.867
X33.286 Y25.993
X33.163 Y26.136
X33.022 Y26.275
X32.845 Y26.425
X32.615 Y26.589
X32.363 Y26.74
X32.018 Y26.911
X31.621 Y27.07
X30.916 Y27.287
X30.259 Y27.623
X29.745 Y28.152
X29.364 Y28.785
X29.079 Y29.465
X28.9 Y29.997
X28.817 Y30.167
X28.694 Y30.311
X28.539 Y30.418
G3 X28.167 Y29.92 I-0.136 J-0.287 F513.
G1 X28.25 Y29.826
X33.083 Y24.444 F900.
G3 X33.633 Y24.613 I0.236 J0.212
X33.635 Y24.623 I-1.991 J0.274
X33.52 Y25.604 I-1.993 J0.264 F513.
G1 X33.449 Y25.772 F900.
X33.264 Y26.107
X33.148 Y26.316
X33.072 Y26.442
X32.813 Y26.857
X32.756 Y26.945
X32.502 Y27.281
X32.369 Y27.439
X31.851 Y27.965
X31.312 Y28.469
X31.185 Y28.635
X31.148 Y28.68
X31.107 Y28.721
X31.063 Y28.76
G3 X30.644 Y28.285 I-0.191 J-0.253 F513.
G1 X30.678 Y28.251
X31.98 Y26.912 F900.
X32.015 Y26.876 F513.
G3 X32.502 Y27.281 I0.228 J0.221
G1 X32.375 Y27.448 F900.
X32.31 Y27.532
X32.083 Y27.784
X31.974 Y27.901
X31.761 Y28.119
X31.472 Y28.411
X31.426 Y28.454
X31.23 Y28.622
X31.136 Y28.701
X30.801 Y28.972
X30.466 Y29.241
X30.298 Y29.362
X29.627 Y29.799
X29.292 Y30.01
X29.124 Y30.112
X28.621 Y30.376
X28.118 Y30.637
X27.951 Y30.718
X27.448 Y30.933
X26.918 Y31.148
X26.897 Y31.157
G3 X26.671 Y30.563 I-0.104 J-0.3 F513.
X26.689 Y30.557 I0.121 J0.293
G1 X26.755 Y30.533 Z-1.992
X26.819 Y30.511 Z-1.969
X26.876 Y30.492 Z-1.931
X26.923 Y30.475 Z-1.88
X26.959 Y30.463 Z-1.82
X26.981 Y30.455 Z-1.753
X26.989 Y30.453 Z-1.683
G0 Z5.
X54.832 Y32.073
Z-1.365
G1 Z-1.683 F513.
X54.825 Y32.077 Z-1.753
X54.805 Y32.09 Z-1.82
X54.772 Y32.109 Z-1.88
X54.729 Y32.135 Z-1.931
X54.678 Y32.166 Z-1.969
X54.62 Y32.2 Z-1.992
X54.559 Y32.236 Z-2.
G3 X53.603 Y32.521 I-1.033 J-1.724
G1 X53.1 Y32.518 F900.
X52.933 Y32.516
X52.43 Y32.503
X52.235 Y32.486
X52.088 Y32.46
X51.943 Y32.42
X51.789 Y32.364
X51.626 Y32.289
X51.444 Y32.187
X51.261 Y32.064
X51.048 Y31.894
X50.844 Y31.704
X50.607 Y31.442
X50.385 Y31.156
X50.131 Y30.765
X49.897 Y30.333
X49.653 Y29.782
X49.411 Y29.087
X49.224 Y28.374
X49.081 Y27.65
X48.973 Y26.92
X48.891 Y26.187
X48.793 Y25.831
X48.626 Y25.502
X48.175 Y24.918
X47.557 Y24.515
X46.867 Y24.254
X46.147 Y24.091
X45.416 Y23.991
X44.681 Y23.931
X43.944 Y23.894
X43.206 Y23.873
X42.469 Y23.86
X41.731 Y23.852
X40.993 Y23.848
X40.255 Y23.845
X38.432 Y23.843
X38.256 Y23.821
X38.09 Y23.758
X37.943 Y23.658
X37.825 Y23.525
X37.675 Y23.31
X37.471 Y23.089
X37.34 Y22.982
X37.264 Y22.922
X37.172 Y22.852
X37.003 Y22.754
X36.837 Y22.675
X36.669 Y22.608
X36.595 Y22.586
X36.501 Y22.563
X36.475 Y22.558
G3 X36.603 Y21.936 I0.073 J-0.309 F513.
X36.621 Y21.94 I-0.055 J0.313
G1 X36.69 Y21.956 Z-1.992
X36.755 Y21.971 Z-1.969
X36.814 Y21.985 Z-1.931
X36.863 Y21.997 Z-1.88
X36.899 Y22.005 Z-1.82
X36.922 Y22.011 Z-1.753
X36.93 Y22.013 Z-1.683
G0 Z5.
X53.671 Y32.091
Z-1.365
G1 Z-1.683 F513.
X53.664 Y32.095 Z-1.753
X53.643 Y32.107 Z-1.82
X53.61 Y32.125 Z-1.88
X53.566 Y32.15 Z-1.931
X53.514 Y32.179 Z-1.969
X53.455 Y32.212 Z-1.992
X53.394 Y32.247 Z-2.
G3 X52.43 Y32.503 I-0.983 J-1.753
G1 X51.927 Y32.483 F900.
X51.825 Y32.478
X51.256 Y32.438
X51.088 Y32.423
X50.908 Y32.398
X50.761 Y32.366
X50.616 Y32.32
X50.466 Y32.258
X50.29 Y32.169
X50.114 Y32.061
X49.917 Y31.917
X49.714 Y31.743
X49.496 Y31.522
X49.269 Y31.252
X49.029 Y30.917
X48.788 Y30.513
X48.534 Y29.998
X48.291 Y29.387
X48.074 Y28.682
X47.908 Y27.963
X47.781 Y27.236
X47.629 Y26.9
X47.207 Y26.295
X46.609 Y25.862
X45.929 Y25.577
X45.213 Y25.396
X44.484 Y25.284
X43.75 Y25.215
X43.013 Y25.174
X42.276 Y25.148
X41.538 Y25.133
X40.8 Y25.125
X40.062 Y25.119
X39.325 Y25.116
X38.957 Y25.091
X38.867 Y25.077
X38.67 Y25.019
X38.497 Y24.91
X38.361 Y24.757
X38.272 Y24.572
X38.171 Y24.263
X38.113 Y24.095
X38.01 Y23.861
X37.959 Y23.76
X37.868 Y23.592
X37.843 Y23.551
X37.825 Y23.525
G3 X38.348 Y23.165 I0.267 J-0.172 F513.
X38.358 Y23.181 I-0.256 J0.188
G1 X38.397 Y23.24 Z-1.992
X38.433 Y23.296 Z-1.969
X38.466 Y23.347 Z-1.931
X38.493 Y23.389 Z-1.88
X38.514 Y23.421 Z-1.82
X38.526 Y23.441 Z-1.753
X38.531 Y23.447 Z-1.683
G0 Z5.
X52.352 Y32.088
Z-1.365
G1 Z-1.683 F513.
X52.345 Y32.091 Z-1.753
X52.324 Y32.101 Z-1.82
X52.29 Y32.118 Z-1.88
X52.244 Y32.14 Z-1.931
X52.19 Y32.166 Z-1.969
X52.13 Y32.195 Z-1.992
X52.066 Y32.226 Z-2.
G3 X51.088 Y32.423 I-0.874 J-1.81
G1 X50.753 Y32.394 F900.
X50.585 Y32.373
X50.082 Y32.306
X49.655 Y32.245
X49.507 Y32.216
X49.363 Y32.175
X49.214 Y32.119
X49.062 Y32.047
X48.884 Y31.945
X48.708 Y31.823
X48.51 Y31.662
X48.299 Y31.46
X48.083 Y31.217
X47.848 Y30.906
X47.613 Y30.536
X47.372 Y30.079
X47.123 Y29.499
X46.887 Y28.8
X46.641 Y28.104
X46.181 Y27.528
X45.568 Y27.117
X44.883 Y26.843
X44.167 Y26.666
X43.437 Y26.556
X42.702 Y26.488
X41.966 Y26.446
X41.228 Y26.42
X40.491 Y26.405
X39.777 Y26.385
X39.422 Y26.347
X39.353 Y26.334
X39.149 Y26.263
X38.975 Y26.137
X38.844 Y25.965
X38.737 Y25.772
X38.507 Y25.269
X38.443 Y25.101
X38.272 Y24.572
G3 X38.877 Y24.381 I0.305 J-0.087 F513.
X38.882 Y24.398 I-0.3 J0.105
G1 X38.902 Y24.466 Z-1.992
X38.92 Y24.531 Z-1.969
X38.937 Y24.589 Z-1.931
X38.95 Y24.637 Z-1.88
X38.961 Y24.674 Z-1.82
X38.967 Y24.696 Z-1.753
X38.969 Y24.704 Z-1.683
G0 Z5.
X50.935 Y31.981
Z-1.365
G1 Z-1.683 F513.
X50.928 Y31.984 Z-1.753
X50.906 Y31.993 Z-1.82
X50.871 Y32.008 Z-1.88
X50.825 Y32.027 Z-1.931
X50.769 Y32.05 Z-1.969
X50.707 Y32.076 Z-1.992
X50.642 Y32.103 Z-2.
G3 X49.655 Y32.245 I-0.77 J-1.857
G1 X49.579 Y32.234 F900.
X49.032 Y32.143
X48.573 Y32.058
X48.406 Y32.025
X48.238 Y31.988
X48.04 Y31.933
X47.899 Y31.881
X47.743 Y31.809
X47.589 Y31.722
X47.41 Y31.601
X47.225 Y31.453
X47.029 Y31.268
X46.81 Y31.026
X46.599 Y30.75
X46.334 Y30.341
X45.985 Y29.692
X45.583 Y29.073
X45.02 Y28.595
X44.363 Y28.259
X43.66 Y28.035
X42.937 Y27.891
X42.205 Y27.799
X41.469 Y27.742
X40.732 Y27.703
X40.277 Y27.672
X40.07 Y27.627
X39.885 Y27.526
X39.735 Y27.377
X39.411 Y26.945
X39.352 Y26.859
X39.302 Y26.778
X39.11 Y26.442
X39.015 Y26.275
X38.844 Y25.965
G3 X39.409 Y25.677 I0.283 J-0.144 F513.
G1 X39.442 Y25.74 Z-1.992
X39.472 Y25.8 Z-1.969
X39.499 Y25.854 Z-1.931
X39.522 Y25.898 Z-1.88
X39.539 Y25.932 Z-1.82
X39.55 Y25.953 Z-1.753
X39.554 Y25.96 Z-1.683
G0 Z5.
X49.535 Y31.824
Z-1.365
G1 Z-1.683 F513.
X49.528 Y31.826 Z-1.753
X49.505 Y31.833 Z-1.82
X49.469 Y31.845 Z-1.88
X49.422 Y31.861 Z-1.931
X49.364 Y31.88 Z-1.969
X49.301 Y31.9 Z-1.992
X49.233 Y31.922 Z-2.
G3 X48.238 Y31.988 I-0.625 J-1.91
G1 X47.903 Y31.913 F900.
X46.729 Y31.605
X46.586 Y31.56
X46.447 Y31.501
X46.301 Y31.425
X46.131 Y31.318
X45.905 Y31.15
X45.35 Y30.663
X44.805 Y30.166
X44.184 Y29.768
X43.505 Y29.479
X42.794 Y29.282
X42.068 Y29.151
X41.762 Y29.114
X41.636 Y29.087
X41.516 Y29.039
X41.407 Y28.97
G3 X41.747 Y28.439 I0.199 J-0.247 F513.
G1 X41.81 Y28.47
X46.872 Y30.977 F900.
X46.94 Y31.011 F513.
G3 X46.729 Y31.605 I-0.141 J0.285
G1 X46.221 Y31.472 F900.
X46.058 Y31.419
X45.717 Y31.304
X45.555 Y31.248
X45.052 Y31.063
X44.822 Y30.969
X44.717 Y30.923
X44.046 Y30.615
X43.879 Y30.536
X43.711 Y30.451
X43.543 Y30.364
X43.376 Y30.274
X43.04 Y30.083
X42.832 Y29.963
X42.705 Y29.888
X42.537 Y29.785
X42.202 Y29.568
X41.028 Y28.686
X40.953 Y28.622
X40.525 Y28.25
X40.386 Y28.119
X40.358 Y28.091
X39.924 Y27.616
X39.855 Y27.534
X39.759 Y27.409
X39.735 Y27.377
G3 X39.983 Y26.878 I0.26 J-0.182 F513.
G1 X39.995
X40.049 Y26.892 Z-1.993
X40.1 Y26.905 Z-1.976
X40.147 Y26.917 Z-1.95
X40.188 Y26.952 Z-1.907
X40.221 Y26.979 Z-1.852
X40.245 Y26.999 Z-1.79
X40.253 Y27.01 Z-1.737
X40.256 Y27.014 Z-1.683
G0 Z5.
X32.184 Y27.055
Z-1.165
G1 Z-1.482 F513.
X32.182 Y27.063 Z-1.553
X32.177 Y27.086 Z-1.62
X32.168 Y27.122 Z-1.68
X32.156 Y27.171 Z-1.731
X32.142 Y27.23 Z-1.769
X32.126 Y27.295 Z-1.792
X32.109 Y27.364 Z-1.8
G3 X31.639 Y28.243 I-1.952 J-0.477
G1 X31.472 Y28.414 F900.
X31.43 Y28.454
X31.233 Y28.622
X31.136 Y28.702
X30.615 Y29.125
X30.466 Y29.245
X30.298 Y29.366
X29.627 Y29.802
X29.292 Y30.014
X29.124 Y30.116
X28.454 Y30.466
X28.118 Y30.64
X27.951 Y30.721
X27.448 Y30.936
X26.945 Y31.141
X26.777 Y31.206
X26.442 Y31.331
X26.274 Y31.391
X25.268 Y31.701
X25.1 Y31.748
X24.597 Y31.872
X23.591 Y32.091
X23.424 Y32.123
X22.921 Y32.205
X22.585 Y32.245
X22.418 Y32.264
X22.25 Y32.282
X21.747 Y32.327
X21.579 Y32.34
G3 X21.298 Y32.192 I-0.013 J-0.317 F513.
G2 X21.045 Y32.044 I-0.268 J0.17
G1 X20.685 Y32.027
X12.195 Y31.622 F900.
G2 X11.877 Y31.844 I-0.015 J0.317
G3 X11.873 Y31.854 I-1.918 J-0.601
X11.352 Y32.692 I-1.915 J-0.611 F513.
G1 X11.184 Y32.843 F900.
X11.053 Y32.981
X11.016 Y33.024
X10.921 Y33.148
X10.849 Y33.257
X10.816 Y33.316
X10.731 Y33.484
X10.681 Y33.604
X10.611 Y33.819
X10.578 Y33.987
X10.557 Y34.154
X10.545 Y34.322
X10.547 Y34.49
X10.563 Y34.657
X10.613 Y34.993
X10.647 Y35.16
X10.814 Y35.831
X10.897 Y36.166
X10.924 Y36.334
X10.976 Y36.669
X10.997 Y36.837
X11.037 Y37.34
X11.054 Y37.843
X11.052 Y38.01
X11.043 Y38.178
X11.016 Y38.351
X10.98 Y38.513
X10.929 Y38.681
X10.867 Y38.849
X10.724 Y39.184
X10.48 Y39.687
X10.394 Y39.855
X10.305 Y40.022
X10.178 Y40.229
X10.097 Y40.358
X9.762 Y40.86
X9.675 Y40.977
X9.34 Y41.397
X9.228 Y41.531
X9.172 Y41.594
X9.072 Y41.699
X8.741 Y42.034
X8.669 Y42.103
X7.998 Y42.718
X7.828 Y42.872
X7.663 Y43.016
X7.427 Y43.208
X6.985 Y43.543
X6.825 Y43.661
X6.322 Y43.99
X6.23 Y44.046
X5.819 Y44.283
X5.645 Y44.381
X5.148 Y44.649
X4.645 Y44.903
X4.142 Y45.148
X3.974 Y45.229
X3.29 Y45.555
X2.94 Y45.722
X2.801 Y45.792
X2.633 Y45.883
X2.465 Y45.993
X2.385 Y46.058
X2.205 Y46.225
X2.13 Y46.307
X2.062 Y46.393
X1.962 Y46.524
X1.938 Y46.561
X1.846 Y46.728
X1.795 Y46.837
X1.77 Y46.896
X1.713 Y47.064
X1.667 Y47.231
X1.64 Y47.399
X1.627 Y47.54
X1.626 Y47.567
X1.623 Y47.734
X1.635 Y47.902
X1.663 Y48.07
X1.703 Y48.237
X1.757 Y48.405
X1.795 Y48.495
X1.829 Y48.573
X1.92 Y48.74
X1.962 Y48.805
X2.033 Y48.908
X2.174 Y49.076
X2.298 Y49.194
X2.352 Y49.243
X2.465 Y49.338
X2.571 Y49.411
X2.633 Y49.448
X2.801 Y49.54
X2.882 Y49.578
X2.968 Y49.611
X3.136 Y49.67
X3.304 Y49.708
X3.471 Y49.734
X3.974 Y49.781
X5.483 Y49.906
X5.584 Y49.914
X6.154 Y49.944
G3 X6.118 Y50.578 I-0.027 J0.316 F513.
X6.1 Y50.577 I0.008 J-0.317
G1 X6.029 Y50.57 Z-1.792
X5.962 Y50.565 Z-1.769
X5.902 Y50.56 Z-1.731
X5.852 Y50.555 Z-1.68
X5.815 Y50.552 Z-1.62
X5.791 Y50.55 Z-1.553
X5.783 Y50.549 Z-1.482
G0 Z5.
X30.621 Y45.295
Z-1.165
G1 Z-1.482 F513.
X30.626 Y45.289 Z-1.553
X30.64 Y45.271 Z-1.62
X30.663 Y45.241 Z-1.68
X30.694 Y45.201 Z-1.731
X30.731 Y45.154 Z-1.769
X30.773 Y45.101 Z-1.792
X30.816 Y45.045 Z-1.8
G3 X31.685 Y44.555 I1.024 J0.801
G1 X31.723 Y44.552 F900.
X31.765 Y44.553
X31.807 Y44.56
X31.849 Y44.573
X31.891 Y44.592
X31.933 Y44.617
X31.974 Y44.651
X32.005 Y44.684
X32.027 Y44.717
X32.049 Y44.758
X32.063 Y44.8
X32.081 Y44.884
X32.109 Y45.052
X32.13 Y45.219
X32.142 Y45.361
G3 X31.508 Y45.391 I-0.317 J0.015 F513.
G1 X31.505 Y45.321 Z-1.792
X31.501 Y45.254 Z-1.769
X31.498 Y45.194 Z-1.731
X31.496 Y45.143 Z-1.68
X31.494 Y45.106 Z-1.62
X31.493 Y45.082 Z-1.553
Y45.074 Z-1.482
G0 Z5.
X40.05 Y48.012
Z-1.165
G1 Z-1.482 F513.
X40.047 Y48.005 Z-1.553
X40.038 Y47.983 Z-1.62
X40.024 Y47.948 Z-1.68
X40.005 Y47.901 Z-1.731
X39.983 Y47.845 Z-1.769
X39.958 Y47.783 Z-1.792
X39.932 Y47.717 Z-1.8
G3 X39.803 Y46.728 I1.866 J-0.746
G1 X39.881 Y46.225 F900.
X39.958 Y45.722
X40.046 Y45.219
X40.078 Y45.052
X40.127 Y44.8
X40.14 Y44.758
X40.161 Y44.717
X40.19 Y44.674
X40.209 Y44.653
X40.232 Y44.632
X40.274 Y44.603
X40.316 Y44.579
X40.358 Y44.562
X40.388 Y44.554
X40.419 Y44.549
X40.455 Y44.547
X40.492 Y44.549
X40.693 Y44.579
X40.861 Y44.607
X41.028 Y44.638
G3 X40.91 Y45.262 I-0.069 J0.31 F513.
X40.891 Y45.258 I0.05 J-0.314
G1 X40.822 Y45.243 Z-1.792
X40.757 Y45.229 Z-1.769
X40.698 Y45.216 Z-1.731
X40.649 Y45.205 Z-1.68
X40.612 Y45.197 Z-1.62
X40.589 Y45.191 Z-1.553
X40.581 Y45.19 Z-1.482
G0 Z5.
X67.752 Y50.509
Z-1.165
G1 Z-1.482 F513.
X67.758 Y50.504 Z-1.553
X67.775 Y50.488 Z-1.62
X67.802 Y50.462 Z-1.68
X67.839 Y50.428 Z-1.731
X67.883 Y50.387 Z-1.769
X67.933 Y50.341 Z-1.792
X67.984 Y50.293 Z-1.8
G3 X68.861 Y49.817 I1.367 J1.473
G1 X69.029 Y49.781 F900.
X69.161 Y49.746
X69.196 Y49.736
X69.364 Y49.681
X69.532 Y49.609
X69.596 Y49.578
X69.868 Y49.411
X70.035 Y49.277
X70.074 Y49.243
X70.202 Y49.11
X70.234 Y49.076
X70.363 Y48.908
X70.468 Y48.74
X70.552 Y48.573
X70.586 Y48.489
X70.617 Y48.405
X70.666 Y48.237
X70.7 Y48.07
X70.705 Y48.04
X70.723 Y47.902
X70.731 Y47.734
X70.723 Y47.567
X70.705 Y47.406
X70.672 Y47.231
X70.62 Y47.064
X70.559 Y46.896
X70.538 Y46.851
X70.475 Y46.728
X70.37 Y46.559
X70.246 Y46.393
X70.202 Y46.34
X70.09 Y46.225
X70.035 Y46.177
X69.867 Y46.043
X69.699 Y45.934
X69.625 Y45.89
X69.532 Y45.84
X68.358 Y45.27
X67.855 Y45.028
X67.352 Y44.787
X66.849 Y44.538
X66.681 Y44.45
X66.246 Y44.214
X65.659 Y43.878
X65.508 Y43.786
X65.34 Y43.672
X65.153 Y43.543
X65.005 Y43.434
X64.669 Y43.172
X64.502 Y43.04
X64.104 Y42.705
X63.999 Y42.613
X63.424 Y42.034
X63.328 Y41.935
X62.952 Y41.531
X62.81 Y41.363
X62.49 Y40.971
X62.405 Y40.86
X62.154 Y40.501
X62.056 Y40.358
X61.987 Y40.246
X61.749 Y39.855
X61.651 Y39.685
X61.57 Y39.519
X61.409 Y39.184
X61.353 Y39.016
X61.221 Y38.597
X61.209 Y38.555
X61.202 Y38.513
X61.137 Y38.01
X61.13 Y37.843
X61.131 Y37.507
X61.133 Y37.34
X61.167 Y36.837
X61.189 Y36.669
X61.278 Y36.166
X61.376 Y35.663
X61.484 Y35.135
X61.505 Y34.993
X61.543 Y34.657
X61.555 Y34.49
X61.556 Y34.322
X61.54 Y34.154
X61.516 Y33.987
X61.481 Y33.819
X61.426 Y33.651
X61.358 Y33.484
X61.316 Y33.393
X61.277 Y33.316
X61.148 Y33.116
X61.036 Y32.981
X60.881 Y32.813
X60.813 Y32.754
X60.645 Y32.623
X60.478 Y32.52
X60.404 Y32.478
X60.31 Y32.434
X60.142 Y32.364
X59.953 Y32.31
X59.807 Y32.278
X59.639 Y32.25
X59.304 Y32.233
G3 X59.043 Y32.052 I0.027 J-0.316 F513.
G2 X58.747 Y31.87 I-0.287 J0.135
G1 X58.45 Y31.878
X52.901 Y32.036 F900.
G2 X52.692 Y32.122 I0.009 J0.317
G3 X52.673 Y32.14 I-0.89 J-0.948
X51.759 Y32.474 I-0.871 J-0.965 F513.
G1 X51.256 Y32.44 F900.
X50.753 Y32.396
X50.585 Y32.375
X50.25 Y32.331
X50.082 Y32.309
X49.579 Y32.236
X49.007 Y32.143
X48.573 Y32.063
X48.406 Y32.03
X47.903 Y31.92
X46.226 Y31.481
X46.194 Y31.472
X45.697 Y31.304
X45.555 Y31.254
X45.052 Y31.069
X44.809 Y30.969
X44.717 Y30.928
X44.046 Y30.621
X43.879 Y30.542
X43.543 Y30.37
X43.376 Y30.28
X43.04 Y30.089
X42.821 Y29.963
X42.705 Y29.894
X42.537 Y29.792
X42.202 Y29.577
X41.028 Y28.695
X40.942 Y28.622
X40.525 Y28.255
X40.358 Y28.094
X39.917 Y27.616
X39.855 Y27.536
X39.41 Y26.945
X39.352 Y26.864
X39.298 Y26.778
X39.107 Y26.442
X39.012 Y26.275
X38.827 Y25.939
X38.735 Y25.772
X38.504 Y25.269
X38.44 Y25.101
X38.178 Y24.289
X38.137 Y24.171
G3 X38.526 Y23.771 I0.303 J-0.093 F513.
G1 X38.573 Y23.798 Z-1.795
X38.619 Y23.825 Z-1.781
X38.661 Y23.849 Z-1.758
X38.686 Y23.887 Z-1.726
X38.708 Y23.92 Z-1.686
X38.725 Y23.947 Z-1.64
X38.738 Y23.966 Z-1.59
X38.742 Y23.979 Z-1.537
X38.744 Y23.984 Z-1.483
G0 Z5.
X32.141 Y27.097
Z-0.965
G1 Z-1.283 F513.
X32.139 Y27.105 Z-1.353
X32.133 Y27.128 Z-1.42
X32.124 Y27.164 Z-1.48
X32.113 Y27.213 Z-1.531
X32.098 Y27.272 Z-1.569
X32.083 Y27.337 Z-1.592
X32.066 Y27.406 Z-1.6
G3 X31.598 Y28.286 I-1.953 J-0.473
G1 X31.472 Y28.416 F900.
X31.432 Y28.454
X31.235 Y28.622
X31.136 Y28.704
X30.466 Y29.248
X30.298 Y29.369
X29.627 Y29.805
X29.292 Y30.018
X29.124 Y30.121
X28.118 Y30.643
X27.951 Y30.724
X27.448 Y30.939
X26.945 Y31.144
X26.777 Y31.209
X26.442 Y31.334
X26.274 Y31.394
X25.268 Y31.704
X25.1 Y31.751
X24.597 Y31.875
X23.591 Y32.093
X23.424 Y32.126
X22.921 Y32.207
X22.585 Y32.247
X22.418 Y32.266
X22.25 Y32.284
X21.747 Y32.328
X20.741 Y32.404
X20.573 Y32.414
X20.406 Y32.421
G3 X20.13 Y32.263 I-0.002 J-0.317 F513.
G2 X19.868 Y32.106 I-0.274 J0.16
G1 X19.522 Y32.092
X12.261 Y31.8 F900.
G2 X11.982 Y31.945 I-0.013 J0.317
G1 X11.981 Y31.946
G3 X11.352 Y32.717 I-3.881 J-2.526 F513.
G1 X11.184 Y32.872 F900.
X11.085 Y32.981
X11.016 Y33.062
X10.954 Y33.148
X10.848 Y33.316
X10.767 Y33.484
X10.697 Y33.651
X10.643 Y33.819
X10.61 Y33.987
X10.588 Y34.154
X10.576 Y34.322
X10.578 Y34.49
X10.595 Y34.657
X10.644 Y34.993
X10.681 Y35.17
X10.889 Y35.999
X10.928 Y36.166
X10.956 Y36.334
X11.016 Y36.721
X11.029 Y36.837
X11.069 Y37.34
X11.085 Y37.843
X11.083 Y38.01
X11.074 Y38.178
X11.048 Y38.346
X11.011 Y38.513
X10.958 Y38.681
X10.896 Y38.849
X10.849 Y38.966
X10.755 Y39.184
X10.512 Y39.687
X10.425 Y39.855
X10.334 Y40.022
X10.235 Y40.19
X10.178 Y40.283
X10.131 Y40.358
X9.796 Y40.86
X9.671 Y41.028
X9.34 Y41.44
X9.263 Y41.531
X9.172 Y41.633
X9.111 Y41.699
X8.776 Y42.034
X8.669 Y42.135
X7.998 Y42.75
X7.495 Y43.182
X7.464 Y43.208
X6.992 Y43.563
X6.825 Y43.686
X6.322 Y44.015
X6.273 Y44.046
X5.819 Y44.306
X5.651 Y44.399
X5.148 Y44.671
X4.645 Y44.924
X3.974 Y45.25
X3.136 Y45.65
X2.968 Y45.73
X2.801 Y45.814
X2.665 Y45.89
X2.465 Y46.026
X2.425 Y46.058
X2.251 Y46.225
X2.13 Y46.362
X2.106 Y46.393
X1.985 Y46.561
X1.962 Y46.597
X1.896 Y46.728
X1.795 Y46.95
X1.758 Y47.064
X1.712 Y47.231
X1.685 Y47.399
X1.671 Y47.567
X1.668 Y47.734
X1.68 Y47.902
X1.708 Y48.07
X1.748 Y48.237
X1.802 Y48.405
X1.88 Y48.573
X1.962 Y48.731
X2.078 Y48.908
X2.218 Y49.076
X2.298 Y49.153
X2.393 Y49.243
X2.465 Y49.303
X2.615 Y49.411
X2.633 Y49.422
X2.801 Y49.518
X2.929 Y49.578
X3.136 Y49.656
X3.304 Y49.698
X3.471 Y49.727
X3.807 Y49.761
X3.974 Y49.777
X5.483 Y49.903
X5.651 Y49.915
X6.154 Y49.942
X6.657 Y49.958
X7.16 Y49.97
X7.328 Y49.973
X7.495 Y49.976
G3 X7.796 Y50.309 I-0.016 J0.317 F513.
X7.463 Y50.61 I-0.317 J-0.016
G1 X7.393 Y50.607 Z-1.592
X7.325 Y50.603 Z-1.569
X7.265 Y50.6 Z-1.531
X7.215 Y50.598 Z-1.48
X7.177 Y50.596 Z-1.42
X7.154 Y50.595 Z-1.353
X7.146 Y50.594 Z-1.283
G0 Z5.
X30.621 Y45.296
Z-0.965
G1 Z-1.283 F513.
X30.626 Y45.289 Z-1.353
X30.64 Y45.271 Z-1.42
X30.664 Y45.241 Z-1.48
X30.695 Y45.202 Z-1.531
X30.732 Y45.154 Z-1.569
X30.773 Y45.101 Z-1.592
X30.817 Y45.046 Z-1.6
G3 X31.685 Y44.555 I1.025 J0.801
G1 X31.723 Y44.552 F900.
X31.765 Y44.553
X31.807 Y44.56
X31.849 Y44.572
X31.891 Y44.591
X31.933 Y44.616
X31.974 Y44.65
X32.005 Y44.683
X32.029 Y44.717
X32.05 Y44.758
X32.064 Y44.8
X32.082 Y44.884
X32.11 Y45.052
X32.131 Y45.219
X32.142 Y45.354
G3 X31.508 Y45.384 I-0.317 J0.015 F513.
G1 X31.505 Y45.314 Z-1.592
X31.501 Y45.247 Z-1.569
X31.498 Y45.186 Z-1.531
X31.496 Y45.136 Z-1.48
X31.494 Y45.098 Z-1.42
X31.493 Y45.075 Z-1.353
Y45.067 Z-1.283
G0 Z5.
X40.046 Y48.012
Z-0.965
G1 Z-1.283 F513.
X40.043 Y48.005 Z-1.353
X40.034 Y47.983 Z-1.42
X40.02 Y47.948 Z-1.48
X40.002 Y47.901 Z-1.531
X39.979 Y47.845 Z-1.569
X39.954 Y47.783 Z-1.592
X39.928 Y47.717 Z-1.6
G3 X39.799 Y46.728 I1.866 J-0.747
G1 X39.877 Y46.225 F900.
X39.953 Y45.722
X40.042 Y45.219
X40.073 Y45.052
X40.122 Y44.8
X40.135 Y44.758
X40.155 Y44.717
X40.19 Y44.666
X40.209 Y44.644
X40.232 Y44.622
X40.274 Y44.591
X40.316 Y44.569
X40.358 Y44.554
X40.382 Y44.549
X40.413 Y44.545
X40.443 Y44.543
X40.504 Y44.549
X40.693 Y44.578
G3 X40.563 Y45.2 I-0.065 J0.311 F513.
G1 X40.494 Y45.185 Z-1.592
X40.428 Y45.171 Z-1.569
X40.369 Y45.159 Z-1.531
X40.32 Y45.149 Z-1.48
X40.283 Y45.141 Z-1.42
X40.26 Y45.136 Z-1.353
X40.252 Y45.135 Z-1.283
G0 Z5.
X69.112 Y50.507
Z-0.965
G1 Z-1.283 F513.
X69.115 Y50.5 Z-1.353
X69.124 Y50.478 Z-1.42
X69.138 Y50.443 Z-1.48
X69.157 Y50.396 Z-1.531
X69.18 Y50.34 Z-1.569
X69.205 Y50.278 Z-1.592
X69.232 Y50.213 Z-1.6
G3 X69.825 Y49.411 I1.862 J0.757
G1 X69.867 Y49.379 F900.
X70.035 Y49.235
X70.188 Y49.076
X70.202 Y49.06
X70.317 Y48.908
X70.419 Y48.74
X70.502 Y48.573
X70.538 Y48.494
X70.57 Y48.405
X70.619 Y48.237
X70.653 Y48.07
X70.676 Y47.902
X70.684 Y47.734
X70.675 Y47.567
X70.656 Y47.399
X70.624 Y47.231
X70.573 Y47.064
X70.538 Y46.962
X70.428 Y46.728
X70.321 Y46.561
X70.202 Y46.406
X70.042 Y46.225
X69.867 Y46.076
X69.842 Y46.058
X69.699 Y45.962
X69.581 Y45.89
X69.364 Y45.783
X68.861 Y45.538
X67.855 Y45.05
X67.352 Y44.809
X66.822 Y44.549
X66.681 Y44.474
X66.203 Y44.214
X65.675 Y43.914
X65.508 Y43.812
X65.34 Y43.702
X65.105 Y43.543
X65.005 Y43.467
X64.502 Y43.072
X63.999 Y42.649
X63.883 Y42.537
X63.385 Y42.034
X63.328 Y41.975
X62.914 Y41.531
X62.825 Y41.429
X62.49 Y41.018
X62.367 Y40.86
X62.25 Y40.693
X62.019 Y40.358
X61.987 Y40.307
X61.651 Y39.752
X61.618 Y39.687
X61.374 Y39.184
X61.316 Y39.013
X61.186 Y38.597
X61.173 Y38.555
X61.167 Y38.513
X61.102 Y38.01
X61.094 Y37.843
X61.096 Y37.507
X61.098 Y37.34
X61.132 Y36.837
X61.148 Y36.703
X61.243 Y36.166
X61.34 Y35.663
X61.443 Y35.16
X61.469 Y34.993
X61.507 Y34.657
X61.519 Y34.49
X61.52 Y34.322
X61.505 Y34.154
X61.484 Y34.005
X61.445 Y33.819
X61.39 Y33.651
X61.323 Y33.484
X61.241 Y33.316
X61.134 Y33.148
X60.998 Y32.981
X60.847 Y32.813
X60.641 Y32.645
X60.478 Y32.541
X60.37 Y32.478
X60.31 Y32.45
X60.142 Y32.377
X59.924 Y32.31
X59.807 Y32.285
X59.639 Y32.255
X59.253 Y32.232
G3 X58.994 Y32.049 I0.029 J-0.316 F513.
G2 X58.666 Y31.866 I-0.288 J0.133
G1 X58.405 Y31.899
X56.331 Y32.162 F900.
G2 X56.203 Y32.208 I0.04 J0.315
G3 X56.194 Y32.213 I-1.066 J-1.704
X55.252 Y32.51 I-1.057 J-1.71 F513.
G1 X54.777 Y32.521 F900.
X54.609 Y32.524
X53.939 Y32.527
X53.603 Y32.528
X53.436 Y32.526
X52.597 Y32.509
X52.43 Y32.505
X51.927 Y32.485
X51.759 Y32.476
X51.256 Y32.442
X50.753 Y32.398
X50.585 Y32.378
X50.25 Y32.334
X50.076 Y32.31
X49.579 Y32.236
X49.076 Y32.158
X48.982 Y32.143
X48.573 Y32.068
X48.406 Y32.035
X47.903 Y31.927
X47.4 Y31.8
X46.394 Y31.536
X46.226 Y31.49
X46.168 Y31.472
X45.673 Y31.304
X45.555 Y31.262
X45.052 Y31.077
X44.802 Y30.969
X44.549 Y30.856
X44.046 Y30.626
X43.879 Y30.547
X43.543 Y30.376
X43.376 Y30.285
X43.04 Y30.094
X42.811 Y29.963
X42.705 Y29.9
X42.532 Y29.795
X42.202 Y29.585
X41.699 Y29.212
X41.028 Y28.708
X40.927 Y28.622
X40.525 Y28.255
X40.358 Y28.094
X39.915 Y27.616
X39.855 Y27.537
X39.352 Y26.868
X39.295 Y26.778
X39.104 Y26.442
X39.01 Y26.275
X38.824 Y25.939
X38.732 Y25.772
X38.502 Y25.269
X38.438 Y25.101
X38.178 Y24.295
X38.109 Y24.095
X38.037 Y23.927
G3 X38.398 Y23.502 I0.296 J-0.114 F513.
G1 X38.446 Y23.526 Z-1.595
X38.494 Y23.549 Z-1.581
X38.538 Y23.571 Z-1.558
X38.566 Y23.607 Z-1.526
X38.589 Y23.638 Z-1.486
X38.609 Y23.663 Z-1.44
X38.623 Y23.682 Z-1.39
X38.628 Y23.695 Z-1.337
X38.63 Y23.699 Z-1.283
G0 Z5.
X31.309 Y27.995
Z-0.764
G1 Z-1.081 F513.
X31.306 Y28.002 Z-1.152
X31.298 Y28.024 Z-1.219
X31.285 Y28.06 Z-1.279
X31.268 Y28.107 Z-1.329
X31.247 Y28.163 Z-1.367
X31.224 Y28.226 Z-1.391
X31.199 Y28.293 Z-1.399
G3 X30.633 Y29.114 I-1.886 J-0.694
G1 X30.466 Y29.249 F900.
X30.298 Y29.372
X29.627 Y29.809
X29.292 Y30.022
X29.124 Y30.125
X28.118 Y30.647
X27.951 Y30.728
X27.448 Y30.942
X26.945 Y31.147
X26.777 Y31.212
X26.442 Y31.337
X26.274 Y31.397
X25.268 Y31.707
X25.1 Y31.754
X24.597 Y31.877
X23.591 Y32.095
X23.424 Y32.129
X22.921 Y32.21
X22.585 Y32.249
X22.418 Y32.269
X22.25 Y32.286
X21.747 Y32.33
X20.741 Y32.406
X20.573 Y32.416
X20.238 Y32.428
G3 X19.963 Y32.269 I0. J-0.317 F513.
G2 X19.705 Y32.111 I-0.275 J0.159
G1 X19.356 Y32.093
X13.623 Y31.787 F900.
G2 X13.409 Y31.855 I-0.017 J0.317
G3 X13.4 Y31.862 I-1.247 J-1.576
X12.497 Y32.261 I-1.239 J-1.583 F513.
G1 X12.358 Y32.279 F900.
X12.216 Y32.31
X12.19 Y32.317
X12.022 Y32.366
X11.855 Y32.431
X11.765 Y32.478
X11.687 Y32.521
X11.519 Y32.617
X11.352 Y32.744
X11.184 Y32.903
X11.116 Y32.981
X11.016 Y33.104
X10.88 Y33.316
X10.849 Y33.373
X10.797 Y33.484
X10.729 Y33.651
X10.675 Y33.819
X10.641 Y33.987
X10.619 Y34.154
X10.607 Y34.322
X10.61 Y34.49
X10.627 Y34.657
X10.681 Y35.022
X10.711 Y35.16
X10.837 Y35.663
X10.881 Y35.831
X10.921 Y35.999
X10.96 Y36.166
X10.988 Y36.334
X11.041 Y36.669
X11.062 Y36.837
X11.1 Y37.34
X11.117 Y37.843
X11.115 Y38.01
X11.105 Y38.178
X11.079 Y38.346
X11.042 Y38.513
X11.016 Y38.608
X10.925 Y38.849
X10.859 Y39.016
X10.787 Y39.184
X10.513 Y39.752
X10.346 Y40.055
X10.268 Y40.19
X10.178 Y40.336
X9.829 Y40.86
X9.707 Y41.028
X9.34 Y41.483
X9.149 Y41.699
X8.812 Y42.034
X8.632 Y42.202
X7.998 Y42.783
X7.663 Y43.07
X7.495 Y43.212
X7.16 Y43.464
X6.992 Y43.589
X6.825 Y43.711
X6.313 Y44.046
X6.154 Y44.139
X5.819 Y44.329
X5.725 Y44.381
X5.148 Y44.692
X4.767 Y44.884
X4.645 Y44.945
X3.974 Y45.271
X2.968 Y45.751
X2.801 Y45.838
X2.708 Y45.89
X2.633 Y45.94
X2.465 Y46.064
X2.296 Y46.225
X2.15 Y46.393
X2.13 Y46.419
X2.033 Y46.561
X1.962 Y46.679
X1.935 Y46.728
X1.862 Y46.896
X1.803 Y47.064
X1.757 Y47.231
X1.73 Y47.399
X1.716 Y47.567
X1.713 Y47.734
X1.725 Y47.902
X1.754 Y48.07
X1.795 Y48.241
X1.847 Y48.405
X1.921 Y48.573
X1.962 Y48.65
X2.123 Y48.908
X2.262 Y49.076
X2.437 Y49.243
X2.633 Y49.393
X2.801 Y49.489
X2.968 Y49.574
X3.136 Y49.641
X3.304 Y49.687
X3.471 Y49.719
X3.807 Y49.757
X3.974 Y49.774
X5.483 Y49.899
X5.691 Y49.914
X6.154 Y49.94
G3 X6.115 Y50.574 I-0.029 J0.316 F513.
X6.097 Y50.573 I0.01 J-0.317
G1 X6.026 Y50.566 Z-1.391
X5.959 Y50.56 Z-1.367
X5.899 Y50.555 Z-1.329
X5.849 Y50.55 Z-1.279
X5.812 Y50.547 Z-1.219
X5.788 Y50.545 Z-1.152
X5.78 Y50.544 Z-1.081
G0 Z5.
X30.624 Y45.299
Z-0.764
G1 Z-1.081 F513.
X30.629 Y45.293 Z-1.152
X30.643 Y45.275 Z-1.219
X30.666 Y45.245 Z-1.279
X30.697 Y45.205 Z-1.329
X30.734 Y45.157 Z-1.367
X30.775 Y45.104 Z-1.391
X30.818 Y45.049 Z-1.399
G3 X31.685 Y44.555 I1.027 J0.797
G1 X31.723 Y44.552 F900.
X31.765 Y44.551
X31.807 Y44.556
X31.849 Y44.567
X31.891 Y44.584
X31.933 Y44.609
X31.974 Y44.645
X32.005 Y44.681
X32.03 Y44.717
X32.051 Y44.758
X32.065 Y44.8
X32.083 Y44.884
X32.11 Y45.052
X32.132 Y45.219
X32.174 Y45.722
X32.203 Y46.058
G3 X31.571 Y46.11 I-0.317 J0.017 F513.
X31.569 Y46.091 I0.316 J-0.035
G1 X31.565 Y46.021 Z-1.391
X31.562 Y45.954 Z-1.367
X31.559 Y45.894 Z-1.329
X31.556 Y45.844 Z-1.279
X31.554 Y45.806 Z-1.219
X31.553 Y45.782 Z-1.152
X31.552 Y45.774 Z-1.081
G0 Z5.
X40.042 Y48.012
Z-0.764
G1 Z-1.081 F513.
X40.039 Y48.005 Z-1.152
X40.031 Y47.983 Z-1.219
X40.017 Y47.948 Z-1.279
X39.998 Y47.901 Z-1.329
X39.975 Y47.845 Z-1.367
X39.95 Y47.783 Z-1.391
X39.924 Y47.717 Z-1.399
G3 X39.794 Y46.728 I1.865 J-0.748
G1 X39.872 Y46.225 F900.
X39.949 Y45.722
X40.037 Y45.219
X40.068 Y45.052
X40.117 Y44.8
X40.13 Y44.758
X40.15 Y44.717
X40.19 Y44.66
X40.209 Y44.639
X40.232 Y44.618
X40.274 Y44.588
X40.316 Y44.567
X40.358 Y44.553
X40.375 Y44.549
X40.407 Y44.544
X40.439 Y44.543
X40.504 Y44.549
G3 X40.396 Y45.175 I-0.054 J0.313 F513.
G1 X40.326 Y45.163 Z-1.391
X40.26 Y45.151 Z-1.367
X40.201 Y45.141 Z-1.329
X40.151 Y45.132 Z-1.279
X40.114 Y45.126 Z-1.219
X40.091 Y45.122 Z-1.152
X40.083 Y45.12 Z-1.081
G0 Z5.
X63.78 Y50.399
Z-0.764
G1 Z-1.081 F513.
X63.786 Y50.395 Z-1.152
X63.806 Y50.383 Z-1.219
X63.839 Y50.363 Z-1.279
X63.882 Y50.337 Z-1.329
X63.933 Y50.306 Z-1.367
X63.99 Y50.271 Z-1.391
X64.051 Y50.234 Z-1.399
G3 X65.005 Y49.943 I1.046 J1.716
G1 X65.843 Y49.932 F900.
X66.346 Y49.925
X67.017 Y49.911
X67.52 Y49.897
X68.023 Y49.88
X68.526 Y49.848
X68.693 Y49.828
X68.861 Y49.801
X69.029 Y49.762
X69.092 Y49.746
X69.196 Y49.711
X69.364 Y49.648
X69.532 Y49.567
X69.699 Y49.464
X69.782 Y49.411
X69.867 Y49.339
X70.035 Y49.19
X70.135 Y49.076
X70.27 Y48.908
X70.371 Y48.74
X70.454 Y48.573
X70.525 Y48.405
X70.538 Y48.368
X70.572 Y48.237
X70.607 Y48.07
X70.628 Y47.902
X70.636 Y47.734
X70.628 Y47.567
X70.606 Y47.399
X70.538 Y47.092
X70.528 Y47.064
X70.459 Y46.896
X70.38 Y46.728
X70.273 Y46.561
X70.202 Y46.461
X70.145 Y46.393
X70.035 Y46.267
X69.99 Y46.225
X69.867 Y46.115
X69.792 Y46.058
X69.699 Y45.991
X69.527 Y45.89
X69.029 Y45.643
X67.464 Y44.884
X66.849 Y44.586
X66.774 Y44.549
X66.346 Y44.316
X66.16 Y44.214
X65.675 Y43.94
X65.508 Y43.838
X65.34 Y43.732
X65.172 Y43.62
X65.059 Y43.543
X64.334 Y42.972
X64.209 Y42.872
X63.999 Y42.687
X63.831 Y42.526
X63.16 Y41.848
X63.02 Y41.699
X62.825 Y41.477
X62.46 Y41.028
X62.329 Y40.86
X62.211 Y40.693
X61.982 Y40.358
X61.878 Y40.19
X61.651 Y39.818
X61.582 Y39.687
X61.338 Y39.184
X61.316 Y39.127
X61.148 Y38.592
X61.137 Y38.553
X61.131 Y38.513
X61.066 Y38.01
X61.059 Y37.843
X61.06 Y37.507
X61.062 Y37.34
X61.097 Y36.837
X61.119 Y36.669
X61.208 Y36.166
X61.316 Y35.604
X61.407 Y35.16
X61.433 Y34.993
X61.471 Y34.657
X61.483 Y34.49
Y34.322
X61.469 Y34.154
X61.444 Y33.987
X61.409 Y33.819
X61.354 Y33.651
X61.316 Y33.546
X61.287 Y33.484
X61.204 Y33.316
X61.101 Y33.148
X60.981 Y33.001
X60.813 Y32.816
X60.609 Y32.645
X60.478 Y32.561
X60.336 Y32.478
X60.142 Y32.391
X59.93 Y32.322
X59.894 Y32.31
X59.807 Y32.291
X59.639 Y32.258
X59.304 Y32.236
G3 X59.046 Y32.051 I0.031 J-0.316 F513.
G2 X58.752 Y31.865 I-0.289 J0.131
G1 X58.456 Y31.869
X50.148 Y32.006 F900.
G2 X50.036 Y32.028 I0.005 J0.317
G3 X50.026 Y32.032 I-0.739 J-1.869
X49.047 Y32.154 I-0.729 J-1.873 F513.
G1 X48.741 Y32.103 F900.
X48.573 Y32.073
X48.406 Y32.04
X47.903 Y31.928
X47.388 Y31.807
X47.232 Y31.768
X46.729 Y31.635
X46.394 Y31.543
X46.226 Y31.491
X45.658 Y31.304
X45.555 Y31.268
X45.052 Y31.083
X44.421 Y30.801
X44.046 Y30.631
X43.879 Y30.553
X43.543 Y30.381
X43.397 Y30.298
X42.705 Y29.902
X42.537 Y29.805
X42.202 Y29.592
X41.699 Y29.223
X41.344 Y28.957
X41.028 Y28.72
X40.912 Y28.622
X40.557 Y28.286
G3 X40.537 Y28.263 I0.226 J-0.223 F513.
G1 X39.929 Y27.512
X39.809 Y27.363 F900.
X39.207 Y26.617 F513.
G3 X39.184 Y26.585 I0.247 J-0.2
G1 X39.102 Y26.442 F900.
X39.007 Y26.275
X38.821 Y25.939
X38.729 Y25.772
X38.499 Y25.269
X38.435 Y25.101
X38.219 Y24.43
X38.178 Y24.301
X38.133 Y24.171
G3 X38.521 Y23.771 I0.303 J-0.094 F513.
G1 X38.569 Y23.798 Z-1.394
X38.614 Y23.824 Z-1.379
X38.657 Y23.849 Z-1.356
X38.682 Y23.887 Z-1.324
X38.703 Y23.92 Z-1.285
X38.721 Y23.946 Z-1.239
X38.734 Y23.966 Z-1.189
X38.738 Y23.979 Z-1.136
X38.74 Y23.983 Z-1.081
G0 Z5.
X31.309 Y27.997
Z-0.565
G1 Z-0.882 F513.
X31.306 Y28.004 Z-0.953
X31.298 Y28.026 Z-1.02
X31.285 Y28.062 Z-1.08
X31.268 Y28.109 Z-1.131
X31.247 Y28.165 Z-1.169
X31.224 Y28.228 Z-1.192
X31.199 Y28.294 Z-1.2
G3 X30.633 Y29.116 I-1.886 J-0.694
G1 X30.466 Y29.251 F900.
X30.298 Y29.375
X29.627 Y29.812
X29.292 Y30.025
X29.119 Y30.131
X28.118 Y30.65
X27.951 Y30.731
X27.448 Y30.945
X26.945 Y31.15
X26.777 Y31.215
X26.442 Y31.339
X26.274 Y31.4
X25.268 Y31.709
X25.1 Y31.756
X24.597 Y31.88
X23.591 Y32.098
X23.424 Y32.131
X22.921 Y32.212
X22.585 Y32.252
X22.418 Y32.271
X22.25 Y32.288
X21.747 Y32.332
X21.076 Y32.384
X20.741 Y32.409
X20.573 Y32.418
X20.406 Y32.423
X20.229 Y32.429 F513.
X19.232 Y32.46
X17.555 Y32.511 F900.
X17.388 Y32.515
X17.22 Y32.517
X16.885 Y32.512
G3 X16.618 Y32.339 I0.016 J-0.317 F513.
G2 X16.361 Y32.167 I-0.283 J0.144
G1 X16.02 Y32.139
X12.257 Y31.83 F900.
G2 X11.96 Y31.981 I-0.026 J0.316
G1 X11.959 Y31.982
G3 X11.352 Y32.771 I-3.951 J-2.414 F513.
G1 X11.184 Y32.936 F900.
X11.147 Y32.981
X11.021 Y33.148
X10.917 Y33.316
X10.849 Y33.436
X10.827 Y33.484
X10.761 Y33.651
X10.706 Y33.819
X10.673 Y33.987
X10.65 Y34.154
X10.638 Y34.322
X10.641 Y34.49
X10.659 Y34.657
X10.708 Y34.993
X10.742 Y35.16
X10.911 Y35.831
X10.991 Y36.166
X11.019 Y36.334
X11.072 Y36.669
X11.093 Y36.837
X11.131 Y37.34
X11.148 Y37.843
X11.146 Y38.01
X11.135 Y38.178
X11.11 Y38.346
X11.073 Y38.513
X11.016 Y38.687
X10.89 Y39.016
X10.849 Y39.116
X10.819 Y39.184
X10.576 Y39.687
X10.513 Y39.809
X10.306 Y40.19
X10.202 Y40.358
X9.843 Y40.891
X9.742 Y41.028
X9.675 Y41.114
X9.471 Y41.363
X9.33 Y41.531
X9.172 Y41.708
X9.004 Y41.881
X8.837 Y42.053
X8.485 Y42.369
X7.998 Y42.815
X7.663 Y43.102
X7.539 Y43.208
X7.316 Y43.375
X6.863 Y43.711
X6.322 Y44.065
X6.154 Y44.163
X5.764 Y44.381
X5.316 Y44.623
X5.141 Y44.717
X4.809 Y44.884
X4.645 Y44.965
X3.974 Y45.291
X2.968 Y45.773
X2.801 Y45.862
X2.75 Y45.89
X2.633 Y45.97
X2.519 Y46.058
X2.465 Y46.102
X2.34 Y46.225
X2.298 Y46.269
X2.194 Y46.393
X2.13 Y46.475
X2.08 Y46.561
X1.962 Y46.768
X1.905 Y46.896
X1.848 Y47.064
X1.802 Y47.231
X1.774 Y47.399
X1.761 Y47.567
X1.758 Y47.734
X1.77 Y47.902
X1.798 Y48.07
X1.838 Y48.237
X1.892 Y48.405
X1.965 Y48.573
X2.056 Y48.74
X2.167 Y48.908
X2.298 Y49.065
X2.465 Y49.226
X2.633 Y49.359
X2.708 Y49.411
X2.801 Y49.465
X2.968 Y49.554
X3.136 Y49.625
X3.304 Y49.676
X3.471 Y49.711
X3.807 Y49.752
X3.974 Y49.77
X5.483 Y49.896
X5.651 Y49.908
X6.154 Y49.939
X6.657 Y49.956
X7.328 Y49.972
X7.831 Y49.98
X8.501 Y49.988
G3 X8.472 Y50.622 I-0.015 J0.317 F513.
G1 X8.402 Y50.619 Z-1.192
X8.334 Y50.616 Z-1.169
X8.274 Y50.613 Z-1.131
X8.224 Y50.611 Z-1.08
X8.186 Y50.609 Z-1.02
X8.163 Y50.608 Z-0.953
X8.155 Z-0.882
G0 Z5.
X30.624 Y45.299
Z-0.565
G1 Z-0.882 F513.
X30.629 Y45.293 Z-0.953
X30.643 Y45.275 Z-1.02
X30.666 Y45.245 Z-1.08
X30.697 Y45.205 Z-1.131
X30.734 Y45.157 Z-1.169
X30.775 Y45.104 Z-1.192
X30.818 Y45.049 Z-1.2
G3 X31.685 Y44.555 I1.027 J0.797
G1 X31.723 Y44.552 F900.
X31.765 Y44.551
X31.807 Y44.556
X31.849 Y44.567
X31.891 Y44.584
X31.933 Y44.609
X31.974 Y44.644
X32.006 Y44.68
X32.031 Y44.717
X32.052 Y44.758
X32.066 Y44.8
X32.084 Y44.884
X32.111 Y45.052
X32.132 Y45.219
X32.174 Y45.722
X32.212 Y46.15
G3 X31.578 Y46.183 I-0.317 J0.017 F513.
G1 X31.574 Y46.113 Z-1.192
X31.57 Y46.046 Z-1.169
X31.567 Y45.986 Z-1.131
X31.565 Y45.936 Z-1.08
X31.563 Y45.898 Z-1.02
X31.561 Y45.874 Z-0.953
Y45.866 Z-0.882
G0 Z5.
X40.039 Y48.012
Z-0.565
G1 Z-0.882 F513.
X40.036 Y48.004 Z-0.953
X40.027 Y47.983 Z-1.02
X40.013 Y47.948 Z-1.08
X39.994 Y47.901 Z-1.131
X39.972 Y47.845 Z-1.169
X39.947 Y47.783 Z-1.192
X39.92 Y47.717 Z-1.2
G3 X39.79 Y46.728 I1.865 J-0.749
G1 X39.893 Y46.058 F900.
X39.944 Y45.722
X40.032 Y45.219
X40.063 Y45.052
X40.113 Y44.8
X40.126 Y44.758
X40.145 Y44.717
X40.165 Y44.686
X40.19 Y44.654
X40.211 Y44.632
X40.232 Y44.613
X40.274 Y44.585
X40.316 Y44.564
X40.358 Y44.551
X40.368 Y44.549
X40.402 Y44.544
X40.436 Y44.542
X40.504 Y44.549
G3 X40.394 Y45.174 I-0.055 J0.313 F513.
G1 X40.324 Y45.162 Z-1.192
X40.258 Y45.15 Z-1.169
X40.199 Y45.14 Z-1.131
X40.149 Y45.131 Z-1.08
X40.112 Y45.124 Z-1.02
X40.089 Y45.12 Z-0.953
X40.081 Y45.119 Z-0.882
G0 Z5.
X68.733 Y50.579
Z-0.565
G1 Z-0.882 F513.
X68.736 Y50.572 Z-0.953
X68.747 Y50.551 Z-1.02
X68.764 Y50.517 Z-1.08
X68.786 Y50.472 Z-1.131
X68.814 Y50.418 Z-1.169
X68.844 Y50.359 Z-1.192
X68.876 Y50.295 Z-1.2
G3 X69.532 Y49.544 I1.795 J0.905
G1 X69.699 Y49.437 F900.
X69.739 Y49.411
X69.867 Y49.308
X69.938 Y49.243
X70.035 Y49.146
X70.093 Y49.076
X70.202 Y48.938
X70.225 Y48.908
X70.325 Y48.74
X70.37 Y48.662
X70.408 Y48.573
X70.477 Y48.405
X70.527 Y48.237
X70.538 Y48.192
X70.558 Y48.07
X70.582 Y47.902
X70.589 Y47.734
X70.581 Y47.567
X70.562 Y47.399
X70.538 Y47.268
X70.528 Y47.231
X70.476 Y47.064
X70.411 Y46.896
X70.37 Y46.807
X70.332 Y46.728
X70.202 Y46.526
X70.1 Y46.393
X70.035 Y46.318
X69.867 Y46.154
X69.699 Y46.025
X69.615 Y45.968
X69.532 Y45.92
X69.029 Y45.667
X67.069 Y44.717
X66.849 Y44.61
X66.73 Y44.549
X66.178 Y44.248
X65.675 Y43.965
X65.508 Y43.864
X65.34 Y43.76
X65.172 Y43.651
X65.018 Y43.543
X64.502 Y43.136
X63.968 Y42.705
X63.831 Y42.575
X63.328 Y42.067
X63.142 Y41.866
X62.825 Y41.524
X62.693 Y41.363
X62.429 Y41.028
X62.322 Y40.89
X61.954 Y40.358
X61.651 Y39.893
X61.629 Y39.855
X61.542 Y39.687
X61.302 Y39.184
X61.246 Y39.016
X61.141 Y38.681
X61.095 Y38.513
X61.044 Y38.178
X61.029 Y38.01
X61.023 Y37.843
X61.027 Y37.34
X61.04 Y37.004
X61.059 Y36.837
X61.084 Y36.669
X61.173 Y36.166
X61.269 Y35.663
X61.371 Y35.16
X61.397 Y34.993
X61.435 Y34.657
X61.447 Y34.49
X61.448 Y34.322
X61.433 Y34.154
X61.409 Y33.987
X61.373 Y33.819
X61.316 Y33.644
X61.252 Y33.484
X61.168 Y33.316
X61.148 Y33.283
X61.066 Y33.148
X60.981 Y33.039
X60.931 Y32.981
X60.813 Y32.852
X60.645 Y32.704
X60.573 Y32.645
X60.478 Y32.582
X60.31 Y32.483
X60.142 Y32.406
X59.975 Y32.347
X59.858 Y32.31
X59.639 Y32.262
X59.304 Y32.238
G3 X59.047 Y32.051 I0.033 J-0.316 F513.
G2 X58.723 Y31.864 I-0.29 J0.129
G1 X58.46 Y31.892
X55.834 Y32.172 F900.
G2 X55.7 Y32.219 I0.034 J0.316
G3 X55.691 Y32.224 I-1.066 J-1.704
X54.749 Y32.521 I-1.057 J-1.71 F513.
G1 X54.106 Y32.536 F900.
X53.603 Y32.529
X53.595 F513.
X52.597 Y32.51
X52.43 Y32.506 F900.
X51.927 Y32.49
X51.759 Y32.481
X51.424 Y32.459
X51.256 Y32.448
X50.753 Y32.402
X50.585 Y32.381
X50.25 Y32.338
X50.058 Y32.31
X49.915 Y32.288
G3 X49.662 Y31.917 I0.059 J-0.312 F513.
X50.034 Y31.664 I0.312 J0.059
X50.185 Y31.739 I-0.059 J0.312 F900.
X50.237 Y31.952 I-0.128 J0.143
X49.971 Y32.153 I-0.296 J-0.115
G1 X49.969
G3 X48.974 Y32.143 I-0.448 J-4.608 F513.
G1 X48.741 Y32.106 F900.
