(2)
(T2  D=1.587 CR=0.794 - ZMIN=-8.354 - BALL END MILL)
G0 G90 G94 G17
G21
G53 Z0.

(CONTOUR1)
M5
M9
T2
S33084 M3
G55
M9
G0 X3.203 Y47.551
Z15.
Z0.071
G1 Z-1.2 F3057.
G2 X3.411 Y47.467 I0.062 J-0.146
G1 X3.417 Y47.454
X3.437 Y47.412
X3.463 Y47.369
X3.496 Y47.327
X3.535 Y47.285
X3.58 Y47.246
X3.616 Y47.221
X3.652 Y47.2
X3.665 Y47.194
X3.749 Y47.153
X4.679 Y46.707
X4.709 Y46.693
X5.059 Y46.524
X5.102 Y46.503
X5.44 Y46.338
X5.745 Y46.186
X5.778 Y46.169
X6.032 Y46.039
X6.076 Y46.016
X6.285 Y45.907
X6.37 Y45.862
X6.553 Y45.763
X6.623 Y45.725
X6.792 Y45.629
X6.856 Y45.594
X7.046 Y45.482
X7.13 Y45.431
X7.468 Y45.219
X7.543 Y45.171
X7.914 Y44.917
X7.976 Y44.872
X8.314 Y44.622
X8.37 Y44.579
X8.483 Y44.491
X8.567 Y44.425
X8.736 Y44.291
X8.798 Y44.241
X9.003 Y44.072
X9.074 Y44.013
X9.328 Y43.794
X9.396 Y43.733
X9.582 Y43.564
X9.666 Y43.486
X9.849 Y43.311
X9.92 Y43.242
X10.102 Y43.057
X10.173 Y42.983
X10.342 Y42.803
X10.419 Y42.719
X10.596 Y42.518
X10.641 Y42.465
X10.781 Y42.296
X10.85 Y42.212
X11.019 Y41.995
X11.047 Y41.958
X11.188 Y41.765
X11.232 Y41.704
X11.406 Y41.45
X11.441 Y41.395
X11.568 Y41.197
X11.61 Y41.128
X11.72 Y40.943
X11.77 Y40.858
X11.909 Y40.605
X11.948 Y40.529
X12.039 Y40.351
X12.081 Y40.267
X12.202 Y40.01
X12.239 Y39.928
X12.287 Y39.821
X12.314 Y39.759
X12.371 Y39.627
X12.387 Y39.59
X12.422 Y39.505
X12.456 Y39.423
X12.49 Y39.336
X12.522 Y39.252
X12.553 Y39.167
X12.581 Y39.083
X12.608 Y38.998
X12.654 Y38.829
X12.674 Y38.744
X12.709 Y38.558
X12.718 Y38.491
X12.736 Y38.322
X12.743 Y38.237
X12.748 Y38.153
X12.751 Y38.068
X12.754 Y37.983
X12.755 Y37.899
X12.756 Y37.814
Y37.73
Y37.645
X12.754 Y37.561
X12.75 Y37.392
X12.745 Y37.307
X12.735 Y37.138
X12.728 Y37.053
X12.675 Y36.546
X12.664 Y36.461
X12.64 Y36.292
X12.627 Y36.208
X12.597 Y36.039
X12.583 Y35.954
X12.54 Y35.752
X12.528 Y35.7
X12.485 Y35.531
X12.461 Y35.447
X12.437 Y35.362
X12.414 Y35.278
X12.391 Y35.193
X12.371 Y35.117
X12.348 Y35.024
X12.327 Y34.939
X12.308 Y34.855
X12.289 Y34.77
X12.272 Y34.686
X12.257 Y34.601
X12.244 Y34.517
X12.236 Y34.432
X12.234 Y34.347
X12.242 Y34.263
X12.251 Y34.221
X12.264 Y34.178
X12.287 Y34.121
X12.3 Y34.094
X12.324 Y34.051
X12.355 Y34.009
X12.371 Y33.99
X12.405 Y33.954
X12.44 Y33.925
X12.456 Y33.912
X12.498 Y33.884
X12.54 Y33.862
X12.59 Y33.84
X12.625 Y33.828
X12.709 Y33.81
X12.794 Y33.803
X12.878 Y33.801
X12.963 Y33.803
X13.047 Y33.807
X13.132 Y33.812
X13.216 Y33.819
X13.301 Y33.825
X13.385 Y33.833
X13.47 Y33.841
X13.554 Y33.849
X13.723 Y33.866
X13.808 Y33.875
X13.977 Y33.894
X14.062 Y33.904
X14.231 Y33.924
X14.235 Y33.925
X14.484 Y33.956
X14.569 Y33.966
X14.738 Y33.985
X14.822 Y33.993
X15.005 Y34.009
X15.076 Y34.015
X15.33 Y34.032
X15.414 Y34.036
X15.668 Y34.049
X15.752 Y34.053
X16.006 Y34.062
X16.09 Y34.065
X16.428 Y34.073
X16.513 Y34.074
X16.851 Y34.079
X16.936 Y34.08
X17.274 Y34.081
X17.358
X18.119 Y34.074
X18.203 Y34.073
X18.964 Y34.055
X19.049 Y34.053
X19.894 Y34.02
X19.978 Y34.016
X20.739 Y33.976
X20.824 Y33.971
X21.162 Y33.949
X21.246 Y33.943
X21.585 Y33.918
X21.669 Y33.912
X22.007 Y33.883
X22.092 Y33.875
X22.345 Y33.851
X22.43 Y33.843
X22.683 Y33.816
X22.768 Y33.807
X23.021 Y33.776
X23.106 Y33.765
X23.36 Y33.73
X23.444 Y33.717
X23.613 Y33.69
X23.698 Y33.676
X24.036 Y33.613
X24.12 Y33.597
X24.543 Y33.51
X24.58 Y33.502
X24.966 Y33.414
X25.05 Y33.393
X25.388 Y33.308
X25.473 Y33.285
X25.811 Y33.193
X25.895 Y33.168
X26.195 Y33.079
X26.234 Y33.068
X26.572 Y32.96
X26.656 Y32.932
X26.994 Y32.816
X27.079 Y32.786
X27.43 Y32.656
X27.501 Y32.628
X27.755 Y32.528
X27.84 Y32.494
X28.178 Y32.352
X28.255 Y32.318
X28.516 Y32.202
X28.6 Y32.163
X28.938 Y32.002
X28.983 Y31.98
X29.276 Y31.832
X29.318 Y31.811
X29.634 Y31.642
X29.699 Y31.606
X29.953 Y31.462
X30.037 Y31.413
X30.291 Y31.261
X30.36 Y31.219
X30.629 Y31.049
X30.713 Y30.993
X30.967 Y30.824
X31.007 Y30.796
X31.246 Y30.627
X31.305 Y30.585
X31.559 Y30.395
X31.588 Y30.373
X31.812 Y30.196
X31.897 Y30.128
X32.15 Y29.917
X32.208 Y29.866
X32.404 Y29.693
X32.489 Y29.615
X32.673 Y29.443
X32.742 Y29.375
X32.929 Y29.189
X32.996 Y29.12
X33.17 Y28.936
X33.247 Y28.851
X33.397 Y28.682
X33.418 Y28.658
X33.611 Y28.428
X33.672 Y28.352
X33.841 Y28.137
X33.875 Y28.09
X34.01 Y27.906
X34.059 Y27.836
X34.179 Y27.661
X34.232 Y27.583
X34.392 Y27.329
X34.433 Y27.262
X34.541 Y27.075
X34.589 Y26.991
X34.724 Y26.737
X34.766 Y26.653
X34.807 Y26.568
X34.888 Y26.399
X35.107 Y25.892
X35.109 Y25.887
X35.193 Y25.672
X35.206 Y25.638
X35.278 Y25.443
X35.298 Y25.384
X35.326 Y25.3
X35.354 Y25.215
X35.379 Y25.131
X35.403 Y25.046
X35.422 Y24.961
X35.426 Y24.94
Y24.919
X35.427 Y24.877
X35.429 Y24.792
X35.434 Y24.708
X35.443 Y24.623
X35.447 Y24.598
X35.459 Y24.539
X35.469 Y24.496
X35.483 Y24.454
X35.498 Y24.412
X35.518 Y24.37
X35.531 Y24.345
X35.572 Y24.285
X35.616 Y24.232
X35.649 Y24.2
X35.701 Y24.16
X35.738 Y24.136
X35.776 Y24.116
X35.785 Y24.112
X35.827 Y24.095
X35.87 Y24.082
X35.912 Y24.072
X35.954 Y24.066
X35.996 Y24.063
X36.039
X36.081 Y24.067
X36.123 Y24.075
X36.165 Y24.086
X36.208 Y24.099
X36.247 Y24.116
X36.292 Y24.14
X36.334 Y24.167
X36.376 Y24.2
X36.377 Y24.201
X36.421 Y24.243
X36.457 Y24.285
X36.461 Y24.291
X36.516 Y24.37
X36.546 Y24.423
X36.561 Y24.454
X36.6 Y24.539
X36.634 Y24.623
X36.665 Y24.708
X36.694 Y24.792
X36.715 Y24.857
X36.748 Y24.961
X36.774 Y25.046
X36.799 Y25.132
X36.824 Y25.215
X36.871 Y25.384
X36.884 Y25.427
X36.897 Y25.469
X36.925 Y25.553
X36.955 Y25.638
X36.968 Y25.675
X36.987 Y25.722
X37.02 Y25.807
X37.053 Y25.884
X37.138 Y26.079
X37.167 Y26.145
X37.286 Y26.399
X37.307 Y26.439
X37.414 Y26.653
X37.457 Y26.737
X37.593 Y26.991
X37.64 Y27.075
X37.784 Y27.329
X37.814 Y27.378
X37.939 Y27.583
X37.983 Y27.651
X38.162 Y27.921
X38.222 Y28.006
X38.344 Y28.175
X38.405 Y28.258
X38.605 Y28.513
X38.659 Y28.578
X38.828 Y28.777
X38.893 Y28.851
X39.126 Y29.105
X39.166 Y29.146
X39.377 Y29.358
X39.42 Y29.401
X39.673 Y29.639
X39.738 Y29.697
X39.932 Y29.866
X40.011 Y29.935
X40.265 Y30.141
X40.343 Y30.204
X40.603 Y30.401
X40.678 Y30.458
X41.026 Y30.705
X41.035 Y30.711
X41.364 Y30.93
X41.417 Y30.965
X41.786 Y31.197
X41.823 Y31.219
X42.209 Y31.446
X42.257 Y31.472
X42.632 Y31.681
X42.716 Y31.725
X43.054 Y31.903
X43.139 Y31.946
X43.393 Y32.071
X43.477 Y32.113
X43.815 Y32.269
X43.9 Y32.306
X44.238 Y32.452
X44.322 Y32.486
X44.576 Y32.587
X44.66 Y32.621
X44.999 Y32.746
X45.083 Y32.776
X45.421 Y32.892
X45.474 Y32.91
X45.844 Y33.027
X45.928 Y33.052
X46.312 Y33.164
X46.351 Y33.174
X46.774 Y33.286
X46.858 Y33.307
X47.196 Y33.389
X47.281 Y33.409
X47.703 Y33.502
X47.788 Y33.519
X48.211 Y33.604
X48.295 Y33.619
X48.718 Y33.696
X48.802 Y33.71
X49.225 Y33.778
X49.309 Y33.791
X49.732 Y33.853
X49.817 Y33.865
X50.324 Y33.932
X50.408 Y33.942
X50.493 Y33.952
X50.577 Y33.961
X50.662 Y33.97
X50.746 Y33.978
X51.084 Y34.006
X51.124 Y34.009
X51.507 Y34.034
X51.592 Y34.039
X51.93 Y34.056
X52.014 Y34.059
X52.437 Y34.075
X52.521 Y34.077
X52.944 Y34.088
X53.029 Y34.089
X53.958 Y34.099
X54.043
X54.55 Y34.096
X54.635 Y34.095
X55.142 Y34.087
X55.226 Y34.085
X55.733 Y34.071
X55.818 Y34.067
X56.241 Y34.05
X56.325 Y34.046
X56.748 Y34.022
X56.832 Y34.016
X57.001 Y34.005
X57.086 Y33.998
X57.17 Y33.991
X57.255 Y33.984
X57.424 Y33.969
X57.509 Y33.96
X57.593 Y33.951
X57.678 Y33.941
X57.815 Y33.925
X57.847 Y33.92
X57.931 Y33.908
X58.016 Y33.896
X58.269 Y33.86
X58.354 Y33.849
X58.607 Y33.82
X58.692 Y33.811
X58.776 Y33.803
X58.861 Y33.797
X58.946 Y33.792
X59.03 Y33.787
X59.115 Y33.785
X59.199 Y33.786
X59.284 Y33.791
X59.368 Y33.803
X59.453 Y33.824
X59.496 Y33.84
X59.537 Y33.86
X59.579 Y33.883
X59.622 Y33.912
X59.638 Y33.925
X59.672 Y33.955
X59.706 Y33.991
X59.721 Y34.009
X59.751 Y34.051
X59.775 Y34.094
X59.791 Y34.126
X59.812 Y34.178
X59.824 Y34.221
X59.833 Y34.263
X59.844 Y34.347
X59.845 Y34.432
X59.842 Y34.517
X59.834 Y34.601
X59.824 Y34.686
X59.813 Y34.77
X59.799 Y34.855
X59.785 Y34.939
X59.77 Y35.024
X59.753 Y35.108
X59.737 Y35.193
X59.7 Y35.362
X59.681 Y35.447
X59.641 Y35.616
X59.623 Y35.7
X59.537 Y36.101
X59.533 Y36.123
X59.468 Y36.546
X59.458 Y36.63
X59.417 Y37.053
X59.413 Y37.138
X59.401 Y37.476
X59.399 Y37.561
X59.41 Y37.983
X59.416 Y38.068
X59.446 Y38.406
X59.453 Y38.464
X59.511 Y38.829
X59.527 Y38.914
X59.546 Y38.998
X59.566 Y39.083
X59.588 Y39.167
X59.61 Y39.252
X59.706 Y39.543
X59.723 Y39.59
X59.827 Y39.844
X59.862 Y39.928
X60.025 Y40.267
X60.044 Y40.305
X60.213 Y40.615
X60.256 Y40.689
X60.467 Y41.037
X60.516 Y41.112
X60.721 Y41.42
X60.742 Y41.45
X60.986 Y41.789
X61.049 Y41.873
X61.312 Y42.212
X61.382 Y42.296
X61.594 Y42.55
X61.65 Y42.616
X61.968 Y42.972
X61.988 Y42.994
X62.291 Y43.311
X62.327 Y43.348
X62.665 Y43.679
X62.723 Y43.733
X63.003 Y43.988
X63.087 Y44.063
X63.425 Y44.348
X63.504 Y44.41
X63.764 Y44.611
X63.833 Y44.664
X64.191 Y44.917
X64.271 Y44.97
X64.355 Y45.025
X64.44 Y45.078
X64.524 Y45.131
X64.59 Y45.171
X64.731 Y45.255
X64.778 Y45.283
X64.947 Y45.381
X65.023 Y45.425
X65.201 Y45.525
X65.285 Y45.572
X65.479 Y45.678
X65.539 Y45.711
X65.708 Y45.802
X65.792 Y45.847
X66.046 Y45.981
X66.115 Y46.016
X66.637 Y46.284
X66.722 Y46.327
X67.314 Y46.619
X67.398 Y46.66
X67.905 Y46.902
X67.99 Y46.942
X68.582 Y47.214
X68.666 Y47.253
X68.722 Y47.285
X68.751 Y47.304
X68.788 Y47.334
X68.825 Y47.369
X68.835 Y47.381
X68.865 Y47.417
X68.89 Y47.454
X68.92 Y47.509
X68.932 Y47.539
X68.947 Y47.581
X68.958 Y47.623
X68.965 Y47.665
X68.969 Y47.708
Y47.75
X68.966 Y47.792
X68.96 Y47.834
X68.95 Y47.877
X68.937 Y47.918
X68.92 Y47.959
X68.919 Y47.961
X68.896 Y48.004
X68.869 Y48.046
X68.835 Y48.087
X68.792 Y48.13
X68.751 Y48.164
X68.708 Y48.192
X68.666 Y48.215
X68.624 Y48.234
X68.582 Y48.248
X68.497 Y48.269
X68.413 Y48.282
X68.328 Y48.291
X68.243 Y48.299
X68.232 Y48.3
X68.159 Y48.305
X68.074 Y48.31
X67.99 Y48.315
X67.905 Y48.319
X67.821 Y48.322
X67.736 Y48.326
X67.652 Y48.329
X67.567 Y48.332
X67.483 Y48.335
X67.398 Y48.338
X67.314 Y48.34
X67.145 Y48.345
X67.06 Y48.347
X66.891 Y48.351
X66.807 Y48.353
X66.637 Y48.357
X66.553 Y48.358
X66.384 Y48.362
X66.299 Y48.363
X66.13 Y48.366
X66.046 Y48.367
X65.792 Y48.371
X65.708 Y48.373
X65.539 Y48.375
X65.454 Y48.376
X65.201 Y48.379
X65.116 Y48.38
X64.862 Y48.383
X64.778 Y48.384
X64.524 Y48.386
X64.44 Y48.387
X64.186 Y48.389
X64.102 Y48.39
X63.425 Y48.395
X63.341
X62.665 Y48.399
X62.58
X61.819 Y48.402
X61.735
X60.974 Y48.404
X60.213
X60.129
X56.156 Y48.392
X56.072
X55.142 Y48.385
X55.057 Y48.384
X54.212 Y48.377
X54.127 Y48.376
X53.282 Y48.367
X53.198 Y48.366
X52.86 Y48.362
X52.775 Y48.361
X52.352 Y48.356
X51.93 Y48.349
X51.592 Y48.344
X51.507 Y48.343
X51.169 Y48.337
X51.084 Y48.335
X50.831 Y48.33
X50.746 Y48.329
X50.408 Y48.321
X50.324 Y48.319
X50.07 Y48.313
X49.986 Y48.311
X49.817 Y48.307
X49.732 Y48.305
X49.478 Y48.297
X49.394 Y48.295
X49.225 Y48.289
X49.14 Y48.286
X48.971 Y48.28
X48.887 Y48.277
X48.718 Y48.27
X48.633 Y48.266
X48.549 Y48.262
X48.464 Y48.258
X48.295 Y48.248
X48.211 Y48.242
X48.126 Y48.236
X48.042 Y48.228
X47.957 Y48.219
X47.923 Y48.215
X47.872 Y48.208
X47.027 Y48.082
X46.943 Y48.067
X46.908 Y48.058
X46.873 Y48.046
X46.858 Y48.04
X46.816 Y48.02
X46.774 Y47.995
X46.727 Y47.961
X46.689 Y47.927
X46.645 Y47.877
X46.623 Y47.847
X46.605 Y47.817
X46.591 Y47.792
X46.572 Y47.75
X46.557 Y47.708
X46.535 Y47.623
X46.291 Y46.693
X46.269 Y46.608
X46.224 Y46.439
X46.2 Y46.355
X46.176 Y46.27
X46.152 Y46.186
X46.097 Y46.004
X46.075 Y45.932
X46.049 Y45.847
X46.022 Y45.763
X45.966 Y45.594
X45.936 Y45.509
X45.906 Y45.425
X45.875 Y45.34
X45.844 Y45.255
X45.811 Y45.171
X45.777 Y45.086
X45.759 Y45.043
X45.705 Y44.917
X45.675 Y44.852
X45.666 Y44.833
X45.625 Y44.748
X45.582 Y44.664
X45.535 Y44.579
X45.506 Y44.529
X45.484 Y44.494
X45.426 Y44.41
X45.421 Y44.404
X45.389 Y44.365
X45.346 Y44.325
X45.337 Y44.318
X45.294 Y44.288
X45.252 Y44.26
X45.219 Y44.241
X45.168 Y44.211
X45.083 Y44.166
X45.063 Y44.156
X44.999 Y44.125
X44.914 Y44.086
X44.829 Y44.048
X44.745 Y44.013
X44.684 Y43.987
X44.66 Y43.978
X44.576 Y43.945
X44.491 Y43.913
X44.226 Y43.818
X44.153 Y43.792
X43.815 Y43.683
X43.731 Y43.658
X43.393 Y43.558
X43.308 Y43.535
X42.97 Y43.444
X42.885 Y43.423
X42.547 Y43.34
X42.463 Y43.32
X42.038 Y43.226
X41.956 Y43.209
X41.613 Y43.141
X41.533 Y43.127
X41.131 Y43.057
X41.11 Y43.054
X40.772 Y43.004
X40.688 Y42.992
X40.35 Y42.953
X40.265 Y42.945
X39.927 Y42.919
X39.842 Y42.915
X39.758 Y42.912
X39.673 Y42.91
X39.589 Y42.909
X39.504
X39.42 Y42.91
X39.335
X39.251 Y42.912
X39.166 Y42.916
X39.082 Y42.923
X39.045 Y42.927
X39.032 Y42.93
X39.03 Y42.932
X39.029 Y42.935
X39.009 Y42.972
X38.997 Y42.998
X38.971 Y43.057
X38.935 Y43.141
X38.901 Y43.226
X38.869 Y43.311
X38.84 Y43.395
X38.789 Y43.564
X38.766 Y43.649
X38.743 Y43.733
X38.72 Y43.818
X38.679 Y43.987
X38.659 Y44.071
X38.55 Y44.579
X38.533 Y44.664
X38.502 Y44.833
X38.49 Y44.897
X38.459 Y45.086
X38.445 Y45.171
X38.251 Y46.439
X38.238 Y46.524
X38.236 Y46.533
X38.227 Y46.571
X38.216 Y46.608
X38.198 Y46.651
X38.177 Y46.693
X38.152 Y46.732
X38.116 Y46.777
X38.093 Y46.802
X38.067 Y46.827
X38.022 Y46.862
X37.983 Y46.887
X37.941 Y46.909
X37.898 Y46.927
X37.863 Y46.938
X37.828 Y46.947
X37.814 Y46.949
X37.771 Y46.955
X37.729 Y46.958
X37.687 Y46.957
X37.645 Y46.953
X37.611 Y46.947
X37.56 Y46.933
X37.518 Y46.918
X37.476 Y46.898
X37.417 Y46.862
X37.391 Y46.843
X37.357 Y46.813
X37.323 Y46.777
X37.307 Y46.758
X37.283 Y46.726
X37.262 Y46.693
X37.241 Y46.651
X37.223 Y46.608
X37.222 Y46.604
X37.21 Y46.564
X37.201 Y46.524
X37.189 Y46.439
X37.001 Y45.074
X36.999 Y45.072
X35.155 Y45.141
X35.153 Y45.142
X35.142 Y45.255
X35.134 Y45.34
X35.126 Y45.425
X35.108 Y45.594
X35.097 Y45.678
X35.055 Y46.016
X35.042 Y46.101
X35.024 Y46.209
X35.013 Y46.27
X34.996 Y46.355
X34.977 Y46.439
X34.953 Y46.524
X34.94 Y46.562
X34.922 Y46.608
X34.878 Y46.693
X34.855 Y46.73
X34.819 Y46.777
X34.771 Y46.827
X34.729 Y46.862
X34.686 Y46.891
X34.644 Y46.914
X34.602 Y46.933
X34.561 Y46.947
X34.517 Y46.958
X34.475 Y46.966
X34.433 Y46.97
X34.39 Y46.971
X34.348 Y46.968
X34.306 Y46.962
X34.264 Y46.952
X34.246 Y46.947
X34.179 Y46.922
X34.137 Y46.901
X34.095 Y46.874
X34.078 Y46.862
X34.044 Y46.834
X34.01 Y46.802
X33.988 Y46.777
X33.955 Y46.735
X33.928 Y46.693
X33.925 Y46.688
X33.885 Y46.608
X33.855 Y46.524
X33.841 Y46.473
X33.832 Y46.439
X33.814 Y46.355
X33.799 Y46.27
X33.786 Y46.186
X33.775 Y46.101
X33.763 Y46.016
X33.756 Y45.945
X33.723 Y45.594
X33.717 Y45.509
X33.712 Y45.425
X33.707 Y45.34
X33.704 Y45.255
X33.699 Y45.171
X33.692 Y45.086
X33.682 Y45.002
X33.672 Y44.922
X33.659 Y44.833
X33.646 Y44.748
X33.632 Y44.664
X33.617 Y44.579
X33.533 Y44.156
X33.513 Y44.072
X33.432 Y43.733
X33.418 Y43.677
X33.233 Y42.979
X33.232 Y42.977
X32.658 Y42.945
X32.573 Y42.94
X32.489 Y42.937
X32.404 Y42.934
X32.319 Y42.933
X32.235 Y42.934
X31.981 Y42.941
X31.897 Y42.944
X31.559 Y42.968
X31.517 Y42.972
X31.221 Y43.005
X31.136 Y43.014
X30.798 Y43.063
X30.713 Y43.076
X30.339 Y43.141
X30.291 Y43.151
X29.924 Y43.226
X29.868 Y43.238
X29.53 Y43.318
X29.446 Y43.339
X29.107 Y43.428
X29.023 Y43.452
X28.685 Y43.552
X28.647 Y43.564
X28.347 Y43.664
X28.262 Y43.693
X28.009 Y43.787
X27.927 Y43.818
X27.67 Y43.925
X27.586 Y43.963
X27.357 Y44.072
X27.332 Y44.084
X27.248 Y44.129
X27.198 Y44.156
X27.163 Y44.176
X27.079 Y44.226
X27.056 Y44.241
X26.994 Y44.281
X26.931 Y44.325
X26.91 Y44.341
X26.826 Y44.41
X26.825 Y44.411
X26.741 Y44.492
X26.738 Y44.494
X26.656 Y44.579
X26.582 Y44.664
X26.512 Y44.748
X26.487 Y44.785
X26.456 Y44.833
X26.403 Y44.917
X26.359 Y45.002
X26.321 Y45.086
X26.287 Y45.171
X26.255 Y45.255
X26.224 Y45.34
X26.196 Y45.425
X26.169 Y45.509
X26.149 Y45.573
X26.117 Y45.678
X26.092 Y45.763
X26.043 Y45.932
X26.019 Y46.016
X25.972 Y46.186
X25.949 Y46.27
X25.903 Y46.439
X25.881 Y46.524
X25.858 Y46.608
X25.835 Y46.693
X25.791 Y46.862
X25.545 Y47.792
X25.522 Y47.877
X25.509 Y47.919
X25.491 Y47.961
X25.473 Y47.997
X25.441 Y48.046
X25.417 Y48.077
X25.388 Y48.109
X25.365 Y48.13
X25.335 Y48.156
X25.304 Y48.178
X25.271 Y48.198
X25.237 Y48.215
X25.219 Y48.223
X25.177 Y48.239
X25.135 Y48.251
X25.092 Y48.259
X25.05 Y48.263
X24.966 Y48.265
X16.428 Y48.392
X14.907 Y48.412
X14.822 Y48.413
X14.231 Y48.419
X14.146 Y48.42
X13.47 Y48.426
X13.385
X12.709 Y48.431
X12.625
X12.033 Y48.434
X11.948 Y48.435
X11.357 Y48.437
X11.272
X10.681
X10.596
X10.258
X10.173
X9.835 Y48.436
X9.751
X9.413 Y48.434
X9.328
X9.074 Y48.433
X8.99 Y48.432
X8.652 Y48.429
X8.567
X8.314 Y48.426
X8.229 Y48.425
X7.976 Y48.422
X7.891 Y48.421
X7.638 Y48.417
X7.553 Y48.415
X7.384 Y48.412
X7.299 Y48.411
X7.046 Y48.405
X6.961 Y48.403
X6.792 Y48.399
X6.708 Y48.396
X6.539 Y48.391
X6.356 Y48.384
X6.285 Y48.381
X6.201 Y48.377
X6.116 Y48.373
X6.032 Y48.368
X5.947 Y48.363
X5.862 Y48.357
X5.778 Y48.35
X3.918 Y48.196
X3.834 Y48.188
X3.792 Y48.181
X3.749 Y48.17
X3.707 Y48.156
X3.665 Y48.137
X3.652 Y48.13
X3.616 Y48.11
X3.58 Y48.085
X3.535 Y48.046
X3.496 Y48.004
X3.463 Y47.961
X3.437 Y47.919
X3.417 Y47.877
X3.411 Y47.864
X3.398 Y47.828
X3.388 Y47.792
X3.379 Y47.75
X3.374 Y47.708
X3.372 Y47.665
X3.374 Y47.623
X3.379 Y47.581
X3.388 Y47.539
X3.398 Y47.503
X3.411 Y47.467
X3.426 Y47.434
X3.442 Y47.403
X3.461 Y47.372
X3.482 Y47.343
X3.503 Y47.317
X3.526 Y47.292 Z-1.201
X3.551 Y47.269
X3.577 Y47.248
X3.605 Y47.227
X3.635 Y47.208
X3.698 Y47.175 Z-1.202
X3.856 Y47.097 Z-1.204
X4.015 Y47.017 Z-1.207
X4.173 Y46.937 Z-1.21
X4.332 Y46.856 Z-1.214
X4.49 Y46.775 Z-1.219
X4.648 Y46.694 Z-1.224
X4.727 Y46.653 Z-1.226
X4.806 Y46.612 Z-1.229
X4.963 Y46.529 Z-1.235
X5.042 Y46.488 Z-1.238
X5.121 Y46.446 Z-1.241
X5.278 Y46.362 Z-1.247
X5.357 Y46.321 Z-1.25
X5.436 Y46.278 Z-1.254
X5.592 Y46.194 Z-1.26
X5.671 Y46.152 Z-1.263
X5.749 Y46.109 Z-1.266
X5.905 Y46.024 Z-1.272
X5.983 Y45.981 Z-1.275
X6.061 Y45.938 Z-1.278
X6.139 Y45.894 Z-1.282
X6.217 Y45.85 Z-1.285
X6.295 Y45.806 Z-1.288
X6.372 Y45.762 Z-1.291
X6.526 Y45.672 Z-1.297
X6.603 Y45.627 Z-1.3
X6.68 Y45.581 Z-1.303
X6.756 Y45.535 Z-1.306
X6.833 Y45.489 Z-1.31
X6.984 Y45.395 Z-1.316
X7.059 Y45.346 Z-1.319
X7.134 Y45.297 Z-1.322
X7.282 Y45.199 Z-1.328
X7.357 Y45.15 Z-1.331
X7.431 Y45.1 Z-1.334
X7.504 Y45.049 Z-1.338
X7.577 Y44.997 Z-1.341
X7.721 Y44.893 Z-1.347
X7.793 Y44.841 Z-1.35
X7.865 Y44.788 Z-1.353
X7.935 Y44.733 Z-1.356
X8.006 Y44.678 Z-1.359
X8.146 Y44.57 Z-1.366
X8.217 Y44.515 Z-1.368
X8.286 Y44.46 Z-1.371
X8.425 Y44.348 Z-1.377
X8.562 Y44.235 Z-1.382
X8.699 Y44.122 Z-1.386
X8.835 Y44.007 Z-1.39
X8.971 Y43.893 Z-1.393
X9.104 Y43.775 Z-1.396
X9.238 Y43.658 Z-1.398
X9.369 Y43.538 Z-1.399
X9.501 Y43.419 Z-1.4
X9.538 Y43.384
X9.751 Y43.18
X9.79 Y43.141
X10.004 Y42.925
X10.04 Y42.888
X10.258 Y42.655
X10.277 Y42.634
X10.427 Y42.464
X10.5 Y42.38
X10.681 Y42.163
X10.71 Y42.127
X10.85 Y41.948
X10.907 Y41.873
X11.093 Y41.619
X11.103 Y41.605
X11.272 Y41.358
X11.321 Y41.281
X11.441 Y41.093
X11.481 Y41.028
X11.61 Y40.81
X11.631 Y40.774
X11.771 Y40.52
X11.779 Y40.503
X11.9 Y40.267
X11.941 Y40.182
X12.033 Y39.988
X12.061 Y39.928
X12.136 Y39.759
X12.173 Y39.675
X12.21 Y39.59
X12.246 Y39.505
X12.287 Y39.408
X12.315 Y39.336
X12.349 Y39.252
X12.371 Y39.192
X12.38 Y39.167
X12.41 Y39.083
X12.438 Y38.998
X12.456 Y38.939
X12.509 Y38.744
X12.525 Y38.66
X12.541 Y38.575
X12.555 Y38.491
X12.573 Y38.322
X12.581 Y38.237
X12.586 Y38.153
X12.589 Y38.068
X12.592 Y37.983
X12.593 Y37.899
X12.594 Y37.814
Y37.73
Y37.645
X12.592 Y37.561
X12.587 Y37.392
X12.583 Y37.307
X12.572 Y37.138
X12.564 Y37.053
X12.511 Y36.546
X12.5 Y36.461
X12.475 Y36.292
X12.462 Y36.208
X12.433 Y36.039
X12.417 Y35.954
X12.381 Y35.785
X12.371 Y35.741
X12.339 Y35.616
X12.316 Y35.531
X12.287 Y35.427
X12.268 Y35.362
X12.223 Y35.193
X12.202 Y35.11
X12.181 Y35.024
X12.161 Y34.939
X12.141 Y34.855
X12.124 Y34.77
X12.107 Y34.686
X12.093 Y34.601
X12.08 Y34.517
X12.074 Y34.432
X12.071 Y34.39
Y34.347
X12.078 Y34.263
X12.085 Y34.221
X12.094 Y34.178
X12.105 Y34.142
X12.117 Y34.105
X12.122 Y34.094
X12.14 Y34.051
X12.161 Y34.009
X12.18 Y33.976
X12.202 Y33.943
X12.215 Y33.925
X12.248 Y33.884
X12.287 Y33.843
X12.29 Y33.84
X12.33 Y33.804
X12.371 Y33.773
X12.397 Y33.756
X12.456 Y33.722
X12.498 Y33.703
X12.54 Y33.686
X12.585 Y33.671
X12.625 Y33.661
X12.709 Y33.646
X12.794 Y33.64
X12.878 Y33.638
X12.963 Y33.641
X13.047 Y33.645
X13.132 Y33.649
X13.216 Y33.656
X13.301 Y33.662
X13.385 Y33.67
X13.47 Y33.677
X13.554 Y33.685
X13.723 Y33.703
X13.808 Y33.712
X13.977 Y33.731
X14.062 Y33.74
X14.231 Y33.761
X14.315 Y33.771
X14.484 Y33.792
X14.569 Y33.803
X14.738 Y33.822
X14.822 Y33.83
X14.991 Y33.845
X15.076 Y33.852
X15.33 Y33.869
X15.414 Y33.874
X15.668 Y33.886
X15.752 Y33.89
X16.006 Y33.899
X16.09 Y33.902
X16.428 Y33.91
X16.513 Y33.912
X16.851 Y33.917
X16.936
X17.274 Y33.919
X17.358 Y33.918
X18.119 Y33.912
X18.203 Y33.91
X18.964 Y33.892
X19.049 Y33.89
X19.894 Y33.858
X19.978 Y33.854
X20.739 Y33.813
X20.824 Y33.808
X21.162 Y33.786
X21.246 Y33.781
X21.584 Y33.756
X21.669 Y33.749
X21.923 Y33.727
X22.007 Y33.72
X22.345 Y33.688
X22.43 Y33.68
X22.683 Y33.653
X22.768 Y33.643
X23.021 Y33.612
X23.106 Y33.601
X23.36 Y33.566
X23.444 Y33.552
X23.613 Y33.525
X23.698 Y33.51
X24.036 Y33.448
X24.12 Y33.431
X24.458 Y33.362
X24.543 Y33.344
X24.881 Y33.267
X24.959 Y33.248
X25.304 Y33.162
X25.388 Y33.14
X25.726 Y33.048
X25.811 Y33.024
X26.149 Y32.923
X26.194 Y32.91
X26.572 Y32.789
X26.656 Y32.76
X26.959 Y32.656
X26.994 Y32.644
X27.332 Y32.519
X27.416 Y32.487
X27.755 Y32.354
X27.84 Y32.318
X28.093 Y32.211
X28.178 Y32.175
X28.431 Y32.061
X28.516 Y32.023
X28.854 Y31.863
X28.938 Y31.821
X29.192 Y31.693
X29.276 Y31.649
X29.53 Y31.513
X29.605 Y31.472
X29.904 Y31.303
X29.953 Y31.274
X30.206 Y31.123
X30.291 Y31.071
X30.544 Y30.91
X30.59 Y30.881
X30.882 Y30.685
X31.136 Y30.506
X31.204 Y30.458
X31.474 Y30.256
X31.54 Y30.204
X31.754 Y30.035
X31.812 Y29.987
X31.981 Y29.846
X32.059 Y29.781
X32.25 Y29.612
X32.319 Y29.551
X32.573 Y29.314
X32.613 Y29.274
X32.784 Y29.105
X32.827 Y29.062
X33.027 Y28.851
X33.08 Y28.794
X33.255 Y28.597
X33.328 Y28.513
X33.503 Y28.304
X33.538 Y28.259
X33.672 Y28.089
X33.736 Y28.006
X33.859 Y27.836
X33.921 Y27.752
X34.093 Y27.498
X34.095 Y27.496
X34.264 Y27.228
X34.304 Y27.16
X34.433 Y26.938
X34.45 Y26.906
X34.585 Y26.653
X34.602 Y26.62
X34.708 Y26.399
X34.748 Y26.314
X34.94 Y25.869
X34.966 Y25.807
X35.032 Y25.638
X35.064 Y25.553
X35.126 Y25.384
X35.155 Y25.3
X35.193 Y25.185
X35.21 Y25.131
X35.235 Y25.046
X35.256 Y24.961
X35.261 Y24.94
X35.263 Y24.93
X35.264 Y24.926
Y24.924
Y24.877
X35.267 Y24.792
X35.272 Y24.708
X35.278 Y24.638
X35.28 Y24.623
X35.293 Y24.539
X35.312 Y24.454
X35.34 Y24.37
X35.362 Y24.318
X35.379 Y24.285
X35.404 Y24.243
X35.433 Y24.2
X35.447 Y24.181
X35.473 Y24.148
X35.502 Y24.116
X35.531 Y24.087
X35.566 Y24.058
X35.601 Y24.031
X35.616 Y24.021
X35.658 Y23.995
X35.701 Y23.972
X35.759 Y23.947
X35.785 Y23.937
X35.827 Y23.925
X35.87 Y23.915
X35.912 Y23.907
X35.954 Y23.903
X35.996 Y23.9
X36.039 Y23.901
X36.081 Y23.904
X36.123 Y23.909
X36.165 Y23.918
X36.208 Y23.929
X36.263 Y23.947
X36.292 Y23.958
X36.334 Y23.978
X36.377 Y24.001
X36.423 Y24.031
X36.461 Y24.06
X36.493 Y24.086
X36.524 Y24.116
X36.546 Y24.138
X36.573 Y24.169
X36.597 Y24.2
X36.63 Y24.248
X36.655 Y24.285
X36.7 Y24.37
X36.715 Y24.399
X36.741 Y24.454
X36.775 Y24.539
X36.799 Y24.602
X36.837 Y24.708
X36.865 Y24.792
X36.892 Y24.877
X36.918 Y24.961
X36.943 Y25.046
X36.968 Y25.13
X37.016 Y25.3
X37.041 Y25.384
X37.053 Y25.425
X37.067 Y25.469
X37.097 Y25.553
X37.128 Y25.638
X37.138 Y25.662
X37.162 Y25.722
X37.197 Y25.807
X37.27 Y25.976
X37.307 Y26.06
X37.426 Y26.314
X37.468 Y26.399
X37.56 Y26.582
X37.596 Y26.653
X37.732 Y26.906
X37.778 Y26.991
X37.923 Y27.245
X37.974 Y27.329
X38.078 Y27.498
X38.132 Y27.583
X38.3 Y27.836
X38.321 Y27.865
X38.49 Y28.099
X38.547 Y28.175
X38.745 Y28.428
X38.817 Y28.513
X38.961 Y28.682
X38.997 Y28.725
X39.191 Y28.936
X39.251 Y29.001
X39.521 Y29.274
X39.589 Y29.337
X39.792 Y29.528
X39.842 Y29.573
X40.096 Y29.794
X40.18 Y29.863
X40.392 Y30.035
X40.434 Y30.069
X40.723 Y30.289
X40.772 Y30.326
X41.11 Y30.566
X41.195 Y30.623
X41.455 Y30.796
X41.533 Y30.846
X41.871 Y31.058
X41.956 Y31.108
X42.287 Y31.303
X42.294 Y31.307
X42.716 Y31.542
X42.745 Y31.557
X43.139 Y31.764
X43.223 Y31.806
X43.477 Y31.932
X43.562 Y31.973
X43.9 Y32.129
X43.945 Y32.149
X44.238 Y32.275
X44.322 Y32.311
X44.66 Y32.446
X44.745 Y32.479
X45.083 Y32.604
X45.168 Y32.634
X45.506 Y32.749
X45.59 Y32.776
X45.928 Y32.883
X46.013 Y32.908
X46.351 Y33.006
X46.435 Y33.029
X46.774 Y33.118
X46.858 Y33.14
X47.196 Y33.222
X47.281 Y33.242
X47.703 Y33.335
X47.788 Y33.353
X48.211 Y33.438
X48.295 Y33.454
X48.718 Y33.531
X48.802 Y33.545
X49.225 Y33.614
X49.309 Y33.627
X49.817 Y33.701
X49.901 Y33.713
X50.324 Y33.768
X50.408 Y33.779
X50.493 Y33.789
X50.577 Y33.798
X50.662 Y33.807
X50.746 Y33.815
X51.084 Y33.843
X51.169 Y33.849
X51.507 Y33.871
X51.592 Y33.876
X51.93 Y33.893
X52.014 Y33.897
X52.437 Y33.912
X52.521 Y33.915
X52.944 Y33.926
X53.029 Y33.927
X53.958 Y33.936
X54.043
X54.55 Y33.934
X54.635 Y33.933
X55.142 Y33.924
X55.226 Y33.922
X55.733 Y33.908
X55.818 Y33.905
X56.241 Y33.887
X56.325 Y33.883
X56.748 Y33.859
X56.832 Y33.854
X57.001 Y33.842
X57.17 Y33.828
X57.255 Y33.821
X57.424 Y33.806
X57.509 Y33.797
X57.593 Y33.788
X57.678 Y33.778
X57.762 Y33.767
X57.847 Y33.756
X57.931 Y33.744
X58.016 Y33.732
X58.269 Y33.696
X58.354 Y33.685
X58.607 Y33.656
X58.692 Y33.648
X58.776 Y33.641
X58.861 Y33.634
X58.946 Y33.629
X59.03 Y33.625
X59.115 Y33.623
X59.199 Y33.624
X59.284 Y33.628
X59.368 Y33.638
X59.453 Y33.655
X59.508 Y33.671
X59.537 Y33.682
X59.579 Y33.7
X59.622 Y33.721
X59.681 Y33.756
X59.706 Y33.773
X59.747 Y33.804
X59.787 Y33.84
X59.791 Y33.844
X59.828 Y33.884
X59.861 Y33.925
X59.875 Y33.946
X59.896 Y33.977
X59.914 Y34.009
X59.935 Y34.051
X59.954 Y34.094
X59.96 Y34.11
X59.971 Y34.144
X59.981 Y34.178
X59.998 Y34.263
X60.003 Y34.305
X60.006 Y34.347
X60.007 Y34.432
X60.005 Y34.517
X59.997 Y34.601
X59.988 Y34.686
X59.977 Y34.77
X59.964 Y34.855
X59.95 Y34.939
X59.935 Y35.024
X59.903 Y35.193
X59.885 Y35.278
X59.867 Y35.362
X59.848 Y35.447
X59.808 Y35.616
X59.791 Y35.693
X59.699 Y36.123
X59.685 Y36.208
X59.632 Y36.546
X59.622 Y36.619
X59.58 Y37.053
X59.576 Y37.138
X59.564 Y37.476
X59.562 Y37.561
X59.572 Y37.983
X59.579 Y38.068
X59.609 Y38.406
X59.621 Y38.491
X59.676 Y38.829
X59.694 Y38.914
X59.712 Y38.998
X59.733 Y39.083
X59.756 Y39.167
X59.781 Y39.252
X59.865 Y39.505
X59.875 Y39.533
X60.002 Y39.844
X60.042 Y39.928
X60.164 Y40.182
X60.209 Y40.267
X60.347 Y40.52
X60.382 Y40.585
X60.6 Y40.943
X60.636 Y40.999
X60.824 Y41.281
X60.881 Y41.366
X61.125 Y41.704
X61.143 Y41.729
X61.397 Y42.056
X61.453 Y42.127
X61.735 Y42.465
X61.808 Y42.55
X62.073 Y42.846
X62.111 Y42.888
X62.435 Y43.226
X62.496 Y43.286
X62.78 Y43.564
X62.834 Y43.614
X63.151 Y43.903
X63.172 Y43.922
X63.51 Y44.207
X63.551 Y44.241
X63.878 Y44.494
X63.933 Y44.535
X64.271 Y44.775
X64.355 Y44.831
X64.44 Y44.887
X64.489 Y44.917
X64.624 Y45.002
X64.693 Y45.043
X64.778 Y45.094
X64.862 Y45.144
X65.054 Y45.255
X65.116 Y45.29
X65.285 Y45.386
X65.355 Y45.425
X65.539 Y45.526
X65.623 Y45.572
X65.821 Y45.678
X65.877 Y45.708
X66.13 Y45.842
X66.141 Y45.847
X66.722 Y46.145
X66.803 Y46.186
X67.314 Y46.438
X67.398 Y46.48
X68.022 Y46.777
X68.074 Y46.802
X68.666 Y47.074
X68.751 Y47.114
X68.754 Y47.116
X68.795 Y47.139
X68.835 Y47.165
X68.881 Y47.2
X68.92 Y47.235
X68.967 Y47.285
X69.004 Y47.333
X69.028 Y47.369
X69.052 Y47.412
X69.073 Y47.454
X69.089 Y47.493
X69.104 Y47.539
X69.115 Y47.581
X69.123 Y47.623
X69.129 Y47.665
X69.132 Y47.708
Y47.75
X69.13 Y47.792
X69.125 Y47.834
X69.117 Y47.877
X69.107 Y47.919
X69.094 Y47.961
X69.089 Y47.976
X69.075 Y48.011
X69.058 Y48.046
X69.035 Y48.088
X69.008 Y48.13
X69.004 Y48.135
X68.974 Y48.175
X68.938 Y48.215
X68.92 Y48.234
X68.88 Y48.269
X68.841 Y48.3
X68.835 Y48.303
X68.793 Y48.331
X68.751 Y48.354
X68.685 Y48.384
X68.666 Y48.391
X68.624 Y48.405
X68.582 Y48.416
X68.497 Y48.434
X68.413 Y48.446
X68.328 Y48.455
X68.243 Y48.462
X68.159 Y48.468
X68.074 Y48.473
X67.99 Y48.477
X67.905 Y48.481
X67.821 Y48.485
X67.736 Y48.489
X67.652 Y48.492
X67.567 Y48.495
X67.483 Y48.498
X67.398 Y48.5
X67.314 Y48.503
X67.145 Y48.507
X67.06 Y48.51
X66.891 Y48.514
X66.807 Y48.516
X66.637 Y48.519
X66.553 Y48.521
X66.384 Y48.524
X66.299 Y48.526
X66.13 Y48.529
X66.046 Y48.53
X65.792 Y48.534
X65.708 Y48.535
X65.539 Y48.537
X65.454 Y48.538
X65.201 Y48.542
X65.116 Y48.543
X64.862 Y48.545
X64.778 Y48.546
X64.524 Y48.549
X64.44
X64.186 Y48.552
X64.102
X63.425 Y48.557
X63.341 Y48.558
X62.665 Y48.561
X62.58
X61.819 Y48.564
X61.735
X61.65 Y48.565
X60.974 Y48.566
X60.213
X60.129 Y48.567
X56.156 Y48.554
X56.072
X55.142 Y48.548
X55.057 Y48.547
X54.212 Y48.54
X54.127 Y48.539
X53.282 Y48.53
X53.198 Y48.529
X52.86 Y48.525
X52.775 Y48.524
X52.352 Y48.518
X51.93 Y48.512
X51.592 Y48.506
X51.507 Y48.505
X51.169 Y48.499
X51.084 Y48.498
X50.831 Y48.493
X50.746 Y48.491
X50.408 Y48.484
X50.324 Y48.482
X50.07 Y48.476
X49.986 Y48.474
X49.788 Y48.469
X49.732 Y48.467
X49.478 Y48.46
X49.394 Y48.457
X49.225 Y48.452
X49.14 Y48.449
X48.971 Y48.443
X48.887 Y48.44
X48.718 Y48.432
X48.633 Y48.429
X48.464 Y48.42
X48.38 Y48.415
X48.295 Y48.41
X48.211 Y48.405
X48.126 Y48.399
X48.042 Y48.391
X47.967 Y48.384
X47.872 Y48.372
X47.788 Y48.36
X47.027 Y48.246
X46.943 Y48.233
X46.904 Y48.225
X46.866 Y48.215
X46.858 Y48.213
X46.816 Y48.198
X46.774 Y48.18
X46.731 Y48.159
X46.689 Y48.134
X46.683 Y48.13
X46.644 Y48.103
X46.605 Y48.07
X46.578 Y48.046
X46.547 Y48.013
X46.52 Y47.981
X46.505 Y47.961
X46.477 Y47.919
X46.452 Y47.877
X46.435 Y47.843
X46.414 Y47.792
X46.389 Y47.708
X46.146 Y46.777
X46.123 Y46.693
X46.078 Y46.524
X46.055 Y46.439
X46.007 Y46.27
X45.982 Y46.186
X45.957 Y46.101
X45.932 Y46.016
X45.878 Y45.847
X45.851 Y45.763
X45.823 Y45.678
X45.794 Y45.594
X45.759 Y45.496
X45.734 Y45.425
X45.702 Y45.34
X45.675 Y45.268
X45.636 Y45.171
X45.601 Y45.086
X45.564 Y45.002
X45.526 Y44.917
X45.506 Y44.874
X45.486 Y44.833
X45.443 Y44.748
X45.421 Y44.707
X45.397 Y44.664
X45.345 Y44.579
X45.337 Y44.565
X45.312 Y44.53
X45.285 Y44.494
X45.27 Y44.476
X45.261 Y44.467
X45.257 Y44.462
X45.254 Y44.46
X45.252 Y44.458
X45.185 Y44.41
X45.168 Y44.399
X45.083 Y44.35
X45.037 Y44.325
X44.999 Y44.305
X44.914 Y44.264
X44.863 Y44.241
X44.829 Y44.226
X44.745 Y44.189
X44.66 Y44.153
X44.576 Y44.119
X44.491 Y44.086
X44.453 Y44.072
X44.153 Y43.964
X44.069 Y43.936
X43.815 Y43.854
X43.731 Y43.827
X43.393 Y43.728
X43.308 Y43.703
X42.97 Y43.613
X42.885 Y43.59
X42.463 Y43.487
X42.433 Y43.48
X42.04 Y43.393
X41.956 Y43.375
X41.617 Y43.308
X41.533 Y43.291
X41.11 Y43.218
X41.026 Y43.206
X40.688 Y43.156
X40.603 Y43.146
X40.35 Y43.117
X40.265 Y43.108
X39.927 Y43.082
X39.842 Y43.078
X39.758 Y43.074
X39.673 Y43.073
X39.589 Y43.071
X39.504 Y43.072
X39.42
X39.335 Y43.073
X39.251 Y43.075
X39.166 Y43.079
X39.138 Y43.081
X39.137 Y43.082
X39.125 Y43.11
X39.111 Y43.141
X39.082 Y43.212
X39.076 Y43.226
X39.042 Y43.311
X39.011 Y43.395
X38.997 Y43.438
X38.959 Y43.564
X38.934 Y43.649
X38.888 Y43.818
X38.867 Y43.903
X38.825 Y44.072
X38.807 Y44.156
X38.716 Y44.579
X38.698 Y44.664
X38.659 Y44.876
X38.651 Y44.917
X38.61 Y45.171
X38.596 Y45.255
X38.403 Y46.524
X38.395 Y46.566
X38.386 Y46.608
X38.373 Y46.651
X38.357 Y46.693
X38.34 Y46.73
X38.321 Y46.768
X38.315 Y46.777
X38.289 Y46.82
X38.257 Y46.862
X38.236 Y46.887
X38.208 Y46.917
X38.177 Y46.947
X38.152 Y46.968
X38.11 Y46.999
X38.067 Y47.026
X38.059 Y47.031
X38.021 Y47.051
X37.983 Y47.068
X37.941 Y47.084
X37.898 Y47.097
X37.856 Y47.107
X37.814 Y47.114
X37.799 Y47.116
X37.764 Y47.119
X37.729 Y47.12
X37.687
X37.645 Y47.116
X37.64
X37.6 Y47.11
X37.56 Y47.102
X37.518 Y47.09
X37.476 Y47.076
X37.433 Y47.058
X37.391 Y47.037
X37.38 Y47.031
X37.344 Y47.009
X37.307 Y46.983
X37.262 Y46.947
X37.222 Y46.908
X37.182 Y46.862
X37.158 Y46.831
X37.138 Y46.8
X37.124 Y46.777
X37.101 Y46.735
X37.082 Y46.693
X37.066 Y46.651
X37.053 Y46.608
Y46.606
X37.043 Y46.565
X37.037 Y46.524
X36.86 Y45.242
X36.859 Y45.24
X35.303 Y45.298
X35.301 Y45.3
X35.298 Y45.34
X35.289 Y45.425
X35.28 Y45.509
X35.271 Y45.594
X35.261 Y45.678
X35.218 Y46.016
X35.206 Y46.101
X35.193 Y46.186
X35.179 Y46.27
X35.163 Y46.355
X35.144 Y46.439
X35.122 Y46.524
X35.109 Y46.57
X35.096 Y46.608
X35.062 Y46.693
X35.024 Y46.765
X35.017 Y46.777
X34.991 Y46.82
X34.96 Y46.862
X34.94 Y46.886
X34.912 Y46.916
X34.88 Y46.947
X34.855 Y46.969
X34.813 Y47.002
X34.771 Y47.03
X34.768 Y47.031
X34.727 Y47.054
X34.686 Y47.073
X34.644 Y47.09
X34.602 Y47.104
X34.557 Y47.116
X34.517 Y47.124
X34.475 Y47.129
X34.433 Y47.133
X34.39
X34.348 Y47.131
X34.306 Y47.126
X34.264 Y47.119
X34.249 Y47.116
X34.179 Y47.096
X34.137 Y47.08
X34.095 Y47.062
X34.038 Y47.031
X34.01 Y47.013
X33.968 Y46.982
X33.926 Y46.947
X33.925 Y46.946
X33.883 Y46.904
X33.847 Y46.862
X33.841 Y46.854
X33.813 Y46.816
X33.789 Y46.777
X33.756 Y46.717
X33.745 Y46.693
X33.727 Y46.651
X33.712 Y46.608
X33.686 Y46.524
X33.672 Y46.467
X33.666 Y46.439
X33.649 Y46.355
X33.634 Y46.27
X33.622 Y46.186
X33.611 Y46.101
X33.6 Y46.016
X33.568 Y45.678
X33.56 Y45.594
X33.554 Y45.509
X33.549 Y45.425
X33.544 Y45.34
X33.541 Y45.255
X33.536 Y45.171
X33.528 Y45.086
X33.519 Y45.002
X33.507 Y44.917
X33.495 Y44.833
X33.481 Y44.748
X33.467 Y44.664
X33.452 Y44.579
X33.384 Y44.241
X33.367 Y44.156
X33.265 Y43.733
X33.249 Y43.673
X33.107 Y43.135
X33.104 Y43.132
X32.658 Y43.107
X32.573 Y43.103
X32.489 Y43.099
X32.404 Y43.097
X32.319 Y43.096
X32.235 Y43.097
X31.981 Y43.103
X31.897 Y43.107
X31.643 Y43.125
X31.559 Y43.131
X31.221 Y43.168
X31.136 Y43.179
X30.798 Y43.227
X30.713 Y43.241
X30.375 Y43.3
X30.32 Y43.311
X29.953 Y43.386
X29.911 Y43.395
X29.53 Y43.485
X29.446 Y43.507
X29.192 Y43.574
X29.107 Y43.596
X28.769 Y43.697
X28.685 Y43.723
X28.398 Y43.818
X28.347 Y43.835
X28.009 Y43.96
X27.944 Y43.987
X27.741 Y44.072
X27.67 Y44.102
X27.417 Y44.223
X27.383 Y44.241
X27.332 Y44.268
X27.248 Y44.315
X27.23 Y44.325
X27.163 Y44.365
X27.093 Y44.41
X27.079 Y44.42
X26.994 Y44.481
X26.977 Y44.494
X26.91 Y44.553
X26.883 Y44.579
X26.825 Y44.637
X26.8 Y44.664
X26.741 Y44.727
X26.642 Y44.846
X26.641 Y44.847
X26.572 Y44.953
X26.542 Y45.002
X26.499 Y45.086
X26.487 Y45.113
X26.462 Y45.171
X26.428 Y45.255
X26.403 Y45.325
X26.397 Y45.34
X26.367 Y45.425
X26.34 Y45.509
X26.318 Y45.575
X26.261 Y45.763
X26.236 Y45.847
X26.212 Y45.932
X26.188 Y46.016
X26.141 Y46.186
X26.117 Y46.27
X26.049 Y46.524
X26.026 Y46.608
X26.004 Y46.693
X25.981 Y46.777
X25.959 Y46.862
X25.936 Y46.947
X25.69 Y47.877
X25.666 Y47.961
X25.642 Y48.022
X25.631 Y48.046
X25.608 Y48.088
X25.58 Y48.13
X25.557 Y48.162
X25.536 Y48.188
X25.511 Y48.215
X25.473 Y48.252
X25.443 Y48.277
X25.413 Y48.3
X25.388 Y48.317
X25.346 Y48.342
X25.304 Y48.363
X25.254 Y48.384
X25.219 Y48.396
X25.177 Y48.408
X25.135 Y48.416
X25.092 Y48.423
X25.05 Y48.426
X24.966 Y48.428
X16.766 Y48.55
X16.428 Y48.555
X14.907 Y48.574
X14.231 Y48.581
X14.146 Y48.582
X13.47 Y48.588
X13.385 Y48.589
X12.709 Y48.593
X12.625 Y48.594
X12.033 Y48.597
X11.948
X11.357 Y48.599
X11.272
X10.681 Y48.6
X10.596
X10.258 Y48.599
X10.173
X9.835
X9.751 Y48.598
X9.413 Y48.597
X9.328 Y48.596
X9.074 Y48.595
X8.99 Y48.594
X8.652 Y48.592
X8.567 Y48.591
X8.314 Y48.589
X8.229 Y48.588
X7.976 Y48.584
X7.891 Y48.583
X7.638 Y48.579
X7.553 Y48.578
X7.384 Y48.575
X7.299 Y48.573
X7.046 Y48.568
X6.961 Y48.566
X6.792 Y48.561
X6.708 Y48.559
X6.539 Y48.553
X6.531
X6.37 Y48.547
X6.285 Y48.544
X6.201 Y48.54
X6.116 Y48.536
X6.032 Y48.531
X5.947 Y48.526
X5.862 Y48.52
X5.778 Y48.513
X3.918 Y48.359
X3.834 Y48.352
X3.792 Y48.346
X3.749 Y48.338
X3.707 Y48.327
X3.665 Y48.314
X3.629 Y48.3
X3.58 Y48.276
X3.538 Y48.252
X3.496 Y48.224
X3.483 Y48.215
X3.447 Y48.186
X3.411 Y48.152
X3.39 Y48.13
X3.356 Y48.09
X3.327 Y48.049
X3.324 Y48.046
X3.299 Y48.004
X3.277 Y47.961
X3.258 Y47.919
X3.243 Y47.877
X3.242 Y47.874
X3.231 Y47.833
X3.222 Y47.792
X3.215 Y47.75
X3.211 Y47.708
X3.21 Y47.665
X3.211 Y47.623
X3.215 Y47.581
X3.222 Y47.539
X3.231 Y47.498
X3.242 Y47.457
X3.243 Y47.454
X3.258 Y47.412
X3.277 Y47.369
X3.299 Y47.327
X3.324 Y47.285
X3.327 Y47.282
X3.356 Y47.241
X3.391 Y47.2
X3.411 Y47.179
X3.447 Y47.145
X3.483 Y47.116
X3.496 Y47.107
X3.538 Y47.078
X3.58 Y47.054
X3.628 Y47.031
X4.595 Y46.568
X4.679 Y46.527
X4.933 Y46.405
X5.017 Y46.364
X5.355 Y46.198
X5.381 Y46.186
X5.693 Y46.03
X5.719 Y46.016
X5.947 Y45.9
X6.032 Y45.857
X6.21 Y45.763
X6.285 Y45.723
X6.524 Y45.594
X6.539 Y45.586
X6.708 Y45.491
X6.792 Y45.443
X6.967 Y45.34
X7.046 Y45.292
X7.384 Y45.081
X7.468 Y45.025
X7.807 Y44.794
X7.87 Y44.748
X8.229 Y44.482
X8.314 Y44.417
X8.432 Y44.325
X8.483 Y44.285
X8.652 Y44.15
X8.736 Y44.081
X8.953 Y43.903
X8.99 Y43.871
X9.247 Y43.649
X9.328 Y43.575
X9.497 Y43.422
X9.526 Y43.395
X9.538 Y43.384
X9.602 Y43.322
X9.667 Y43.26
X9.731 Y43.198 Z-1.401
X9.795 Y43.136 Z-1.402
X9.857 Y43.072
X9.92 Y43.008 Z-1.403
X9.982 Y42.944 Z-1.405
X10.044 Y42.879 Z-1.406
X10.105 Y42.813 Z-1.407
X10.165 Y42.747 Z-1.409
X10.225 Y42.681 Z-1.411
X10.285 Y42.614 Z-1.413
X10.343 Y42.546 Z-1.415
X10.401 Y42.479 Z-1.417
X10.46 Y42.41 Z-1.42
X10.517 Y42.341 Z-1.422
X10.628 Y42.203 Z-1.427
X10.684 Y42.133 Z-1.43
X10.738 Y42.061 Z-1.433
X10.845 Y41.919 Z-1.439
X10.899 Y41.847 Z-1.442
X10.951 Y41.773 Z-1.445
X11.053 Y41.628 Z-1.452
X11.103 Y41.554 Z-1.455
X11.153 Y41.479 Z-1.458
X11.202 Y41.405 Z-1.461
X11.251 Y41.33 Z-1.464
X11.298 Y41.254 Z-1.467
X11.345 Y41.178 Z-1.47
X11.392 Y41.102 Z-1.473
X11.438 Y41.025 Z-1.477
X11.526 Y40.871 Z-1.483
X11.571 Y40.794 Z-1.486
X11.613 Y40.715 Z-1.489
X11.697 Y40.558 Z-1.495
X11.738 Y40.479 Z-1.498
X11.778 Y40.399 Z-1.502
X11.857 Y40.239 Z-1.508
X11.895 Y40.158 Z-1.511
X11.932 Y40.077 Z-1.514
X11.968 Y39.996 Z-1.517
X12.005 Y39.915 Z-1.52
X12.041 Y39.833 Z-1.523
X12.076 Y39.752 Z-1.526
X12.111 Y39.67 Z-1.529
X12.145 Y39.588 Z-1.533
X12.179 Y39.506 Z-1.536
X12.213 Y39.423 Z-1.539
X12.245 Y39.34 Z-1.542
X12.277 Y39.257 Z-1.545
X12.308 Y39.174 Z-1.548
X12.337 Y39.09 Z-1.551
X12.365 Y39.005 Z-1.554
X12.39 Y38.919 Z-1.557
X12.413 Y38.833 Z-1.561
X12.435 Y38.746 Z-1.564
X12.452 Y38.659 Z-1.567
X12.468 Y38.572 Z-1.57
X12.482 Y38.484 Z-1.572
X12.491 Y38.395 Z-1.575
X12.499 Y38.306 Z-1.578
X12.506 Y38.218 Z-1.58
X12.513 Y38.04 Z-1.585
X12.516 Y37.862 Z-1.589
X12.515 Y37.684 Z-1.592
X12.511 Y37.507 Z-1.595
X12.504 Y37.329 Z-1.597
X12.492 Y37.152 Z-1.599
X12.475 Y36.975 Z-1.6
X12.465 Y36.873
X12.43 Y36.546
X12.419 Y36.461
X12.394 Y36.292
X12.38 Y36.208
X12.351 Y36.039
X12.334 Y35.954
X12.299 Y35.785
X12.287 Y35.736
X12.255 Y35.616
X12.232 Y35.531
X12.202 Y35.424
X12.185 Y35.362
X12.14 Y35.193
X12.119 Y35.108
X12.098 Y35.024
X12.078 Y34.939
X12.059 Y34.855
X12.041 Y34.77
X12.033 Y34.727
X12.025 Y34.686
X12.011 Y34.601
X11.999 Y34.517
X11.993 Y34.432
X11.991 Y34.39
Y34.347
X11.997 Y34.263
X12.003 Y34.221
X12.011 Y34.178
X12.021 Y34.14
X12.033 Y34.102
X12.036 Y34.094
X12.052 Y34.051
X12.071 Y34.009
X12.092 Y33.967
X12.117 Y33.925
Y33.924
X12.146 Y33.882
X12.179 Y33.84
X12.202 Y33.814
X12.232 Y33.783
X12.263 Y33.756
X12.287 Y33.736
X12.329 Y33.704
X12.371 Y33.677
X12.382 Y33.671
X12.419 Y33.651
X12.456 Y33.633
X12.498 Y33.615
X12.54 Y33.6
X12.589 Y33.586
X12.625 Y33.578
X12.709 Y33.565
X12.794 Y33.559
X12.878 Y33.558
X12.963 Y33.56
X13.047 Y33.564
X13.132 Y33.569
X13.216 Y33.575
X13.301 Y33.582
X13.359 Y33.586
X13.47 Y33.597
X13.554 Y33.604
X13.723 Y33.622
X13.808 Y33.631
X13.977 Y33.65
X14.062 Y33.659
X14.231 Y33.679
X14.315 Y33.69
X14.484 Y33.711
X14.569 Y33.721
X14.738 Y33.741
X14.822 Y33.749
X14.991 Y33.764
X15.076 Y33.771
X15.33 Y33.788
X15.414 Y33.793
X15.668 Y33.806
X15.752 Y33.809
X16.006 Y33.819
X16.09 Y33.822
X16.428 Y33.83
X16.513 Y33.831
X16.851 Y33.836
X16.936 Y33.837
X17.274 Y33.838
X17.358
X18.119 Y33.831
X18.203 Y33.83
X18.964 Y33.812
X19.049 Y33.809
X19.894 Y33.777
X19.978 Y33.773
X20.739 Y33.733
X20.824 Y33.728
X21.162 Y33.706
X21.246 Y33.7
X21.585 Y33.675
X21.632 Y33.671
X21.923 Y33.647
X22.007 Y33.639
X22.345 Y33.607
X22.43 Y33.599
X22.683 Y33.572
X22.768 Y33.562
X23.021 Y33.531
X23.106 Y33.52
X23.275 Y33.496
X23.36 Y33.484
X23.613 Y33.444
X23.698 Y33.428
X24.036 Y33.366
X24.12 Y33.349
X24.458 Y33.28
X24.543 Y33.261
X24.881 Y33.184
X24.965 Y33.164
X25.304 Y33.079
X25.388 Y33.057
X25.726 Y32.964
X25.811 Y32.94
X26.149 Y32.839
X26.194 Y32.825
X26.487 Y32.732
X26.572 Y32.704
X26.957 Y32.572
X26.994 Y32.558
X27.332 Y32.433
X27.411 Y32.403
X27.67 Y32.3
X27.755 Y32.266
X28.093 Y32.124
X28.178 Y32.087
X28.431 Y31.973
X28.516 Y31.934
X28.776 Y31.811
X28.854 Y31.773
X29.115 Y31.642
X29.192 Y31.602
X29.53 Y31.422
X29.591 Y31.388
X29.868 Y31.231
X29.889 Y31.219
X30.171 Y31.05
X30.206 Y31.029
X30.46 Y30.868
X30.544 Y30.814
X30.825 Y30.627
X30.882 Y30.586
X31.136 Y30.407
X31.182 Y30.373
X31.409 Y30.204
X31.474 Y30.154
X31.643 Y30.02
X31.728 Y29.953
X31.981 Y29.742
X32.033 Y29.697
X32.235 Y29.518
X32.317 Y29.443
X32.498 Y29.274
X32.573 Y29.2
X32.755 Y29.02
X32.827 Y28.945
X32.996 Y28.767
X33.072 Y28.682
X33.223 Y28.513
X33.249 Y28.482
X33.436 Y28.259
X33.502 Y28.175
X33.635 Y28.006
X33.672 Y27.956
X33.841 Y27.725
X33.881 Y27.667
X34.01 Y27.477
X34.051 Y27.414
X34.179 Y27.211
X34.211 Y27.16
X34.358 Y26.906
X34.404 Y26.822
X34.517 Y26.608
X34.537 Y26.568
X34.659 Y26.314
X34.686 Y26.254
X34.879 Y25.807
X34.913 Y25.722
X34.946 Y25.638
X34.979 Y25.553
X35.041 Y25.384
X35.07 Y25.3
X35.109 Y25.184
X35.126 Y25.131
X35.151 Y25.046
X35.174 Y24.961
X35.183 Y24.919
Y24.918
X35.184 Y24.877
X35.186 Y24.792
X35.191 Y24.708
X35.193 Y24.672
X35.199 Y24.623
X35.211 Y24.539
X35.229 Y24.454
X35.241 Y24.412
X35.255 Y24.37
X35.278 Y24.309
X35.289 Y24.285
X35.31 Y24.243
X35.335 Y24.2
X35.362 Y24.16
X35.395 Y24.116
X35.42 Y24.087
X35.447 Y24.057
X35.474 Y24.031
X35.503 Y24.006
X35.531 Y23.983
X35.583 Y23.947
X35.616 Y23.926
X35.658 Y23.903
X35.701 Y23.884
X35.756 Y23.862
X35.785 Y23.853
X35.827 Y23.842
X35.87 Y23.833
X35.912 Y23.826
X35.954 Y23.822
X35.996 Y23.82
X36.039
X36.081 Y23.823
X36.123 Y23.828
X36.165 Y23.835
X36.208 Y23.845
X36.265 Y23.862
X36.292 Y23.872
X36.334 Y23.889
X36.377 Y23.909
X36.409 Y23.927
X36.442 Y23.947
X36.461 Y23.96
X36.504 Y23.991
X36.546 Y24.026
X36.552 Y24.031
X36.594 Y24.072
X36.63 Y24.113
X36.633 Y24.116
X36.695 Y24.2
X36.715 Y24.229
X36.748 Y24.285
X36.79 Y24.37
X36.799 Y24.388
X36.828 Y24.454
X36.862 Y24.539
X36.884 Y24.599
X36.922 Y24.708
X36.949 Y24.792
X36.976 Y24.877
X37.002 Y24.961
X37.027 Y25.046
X37.052 Y25.131
X37.1 Y25.3
X37.125 Y25.384
X37.138 Y25.425
X37.152 Y25.469
X37.183 Y25.553
X37.215 Y25.638
X37.248 Y25.722
X37.284 Y25.807
X37.358 Y25.976
X37.391 Y26.05
X37.475 Y26.23
X37.516 Y26.314
X37.645 Y26.571
X37.687 Y26.653
X37.823 Y26.906
X37.871 Y26.991
X37.983 Y27.187
X38.017 Y27.245
X38.152 Y27.465
X38.173 Y27.498
X38.341 Y27.752
X38.4 Y27.836
X38.583 Y28.09
X38.649 Y28.175
X38.782 Y28.344
X38.828 Y28.402
X38.997 Y28.601
X39.067 Y28.682
X39.3 Y28.936
X39.335 Y28.972
X39.551 Y29.189
X39.589 Y29.227
X39.842 Y29.464
X39.913 Y29.528
X40.107 Y29.697
X40.18 Y29.76
X40.434 Y29.966
X40.519 Y30.032
X40.772 Y30.225
X40.857 Y30.287
X41.11 Y30.467
X41.195 Y30.526
X41.533 Y30.751
X41.604 Y30.796
X41.875 Y30.965
X41.956 Y31.015
X42.302 Y31.219
X42.378 Y31.262
X42.757 Y31.472
X42.801 Y31.495
X43.139 Y31.673
X43.223 Y31.717
X43.562 Y31.884
X43.586 Y31.895
X43.9 Y32.04
X43.952 Y32.064
X44.322 Y32.224
X44.345 Y32.233
X44.66 Y32.36
X44.745 Y32.393
X45.083 Y32.518
X45.168 Y32.548
X45.506 Y32.664
X45.59 Y32.692
X45.928 Y32.799
X46.013 Y32.824
X46.351 Y32.922
X46.435 Y32.945
X46.774 Y33.035
X46.858 Y33.057
X47.281 Y33.159
X47.298 Y33.164
X47.703 Y33.253
X47.788 Y33.271
X48.211 Y33.356
X48.295 Y33.372
X48.718 Y33.449
X48.802 Y33.463
X49.225 Y33.532
X49.309 Y33.546
X49.817 Y33.62
X49.901 Y33.631
X50.324 Y33.687
X50.408 Y33.698
X50.493 Y33.708
X50.577 Y33.717
X50.662 Y33.726
X50.746 Y33.734
X51.084 Y33.762
X51.169 Y33.769
X51.507 Y33.791
X51.592 Y33.795
X51.93 Y33.812
X52.014 Y33.816
X52.437 Y33.832
X52.521 Y33.834
X52.944 Y33.845
X53.029 Y33.846
X53.958 Y33.856
X54.043
X54.55 Y33.853
X54.635 Y33.852
X55.142 Y33.844
X55.226 Y33.842
X55.733 Y33.828
X56.241 Y33.807
X56.325 Y33.802
X56.748 Y33.779
X56.832 Y33.773
X56.917 Y33.767
X57.001 Y33.761
X57.17 Y33.747
X57.255 Y33.74
X57.339 Y33.732
X57.424 Y33.725
X57.593 Y33.707
X57.678 Y33.697
X57.762 Y33.686
X57.847 Y33.675
X57.931 Y33.663
X58.016 Y33.651
X58.269 Y33.615
X58.354 Y33.604
X58.523 Y33.585
X58.607 Y33.575
X58.692 Y33.567
X58.776 Y33.56
X58.861 Y33.553
X58.946 Y33.548
X59.03 Y33.544
X59.115 Y33.542
X59.199 Y33.543
X59.284 Y33.547
X59.368 Y33.556
X59.453 Y33.572
X59.508 Y33.586
X59.537 Y33.596
X59.579 Y33.612
X59.622 Y33.631
X59.698 Y33.671
X59.706 Y33.676
X59.749 Y33.704
X59.791 Y33.736
X59.814 Y33.756
X59.845 Y33.784
X59.875 Y33.816
X59.896 Y33.84
X59.929 Y33.882
X59.958 Y33.925
X59.96 Y33.928
X59.983 Y33.969
X60.004 Y34.009
X60.023 Y34.051
X60.039 Y34.094
X60.044 Y34.108
X60.055 Y34.143
X60.064 Y34.178
X60.079 Y34.263
X60.084 Y34.305
X60.087 Y34.347
X60.088 Y34.432
X60.085 Y34.517
X60.078 Y34.601
X60.069 Y34.686
X60.058 Y34.77
X60.046 Y34.855
X60.032 Y34.939
X60.017 Y35.024
X60.001 Y35.108
X59.985 Y35.193
X59.967 Y35.278
X59.931 Y35.447
X59.911 Y35.531
X59.891 Y35.616
X59.875 Y35.683
X59.781 Y36.123
X59.766 Y36.208
X59.706 Y36.596
X59.702 Y36.63
X59.661 Y37.053
X59.656 Y37.138
X59.644 Y37.476
X59.642 Y37.561
X59.653 Y37.983
X59.66 Y38.068
X59.69 Y38.406
X59.703 Y38.491
X59.744 Y38.744
X59.758 Y38.829
X59.795 Y38.998
X59.817 Y39.083
X59.839 Y39.167
X59.866 Y39.252
X59.922 Y39.421
X59.951 Y39.505
X60.055 Y39.759
X60.091 Y39.844
X60.213 Y40.099
X60.254 Y40.182
X60.439 Y40.52
X60.467 Y40.569
X60.643 Y40.858
X60.696 Y40.943
X60.92 Y41.281
X60.974 Y41.357
X61.163 Y41.619
X61.226 Y41.704
X61.488 Y42.042
X61.558 Y42.127
X61.819 Y42.441
X61.841 Y42.465
X62.143 Y42.803
X62.158 Y42.82
X62.496 Y43.173
X62.549 Y43.226
X62.834 Y43.504
X62.898 Y43.564
X63.177 Y43.818
X63.256 Y43.887
X63.575 Y44.156
X63.595 Y44.172
X63.933 Y44.435
X64.014 Y44.494
X64.271 Y44.676
X64.355 Y44.735
X64.44 Y44.79
X64.505 Y44.833
X64.641 Y44.917
X64.693 Y44.949
X64.862 Y45.051
X64.923 Y45.086
X65.069 Y45.171
X65.116 Y45.198
X65.285 Y45.293
X65.368 Y45.34
X65.539 Y45.434
X65.623 Y45.48
X65.877 Y45.617
X65.961 Y45.661
X66.153 Y45.763
X66.215 Y45.795
X66.722 Y46.055
X66.807 Y46.098
X67.398 Y46.39
X67.483 Y46.431
X68.074 Y46.713
X68.159 Y46.753
X68.751 Y47.024
X68.765 Y47.031
X68.8 Y47.049
X68.835 Y47.069
X68.87 Y47.091
X68.904 Y47.116
X68.92 Y47.128
X68.959 Y47.161
X68.999 Y47.2
X69.004 Y47.206
X69.039 Y47.245
X69.069 Y47.285
X69.089 Y47.314
X69.121 Y47.369
X69.142 Y47.412
X69.16 Y47.454
X69.173 Y47.49
X69.188 Y47.539
X69.197 Y47.581
X69.205 Y47.623
X69.21 Y47.665
X69.212 Y47.708
Y47.75
X69.21 Y47.792
X69.206 Y47.834
X69.199 Y47.877
X69.19 Y47.919
X69.179 Y47.961
X69.173 Y47.978
X69.161 Y48.012
X69.147 Y48.046
X69.127 Y48.088
X69.103 Y48.13
X69.089 Y48.154
X69.068 Y48.184
X69.045 Y48.215
X69.004 Y48.263
X68.967 Y48.3
X68.92 Y48.341
X68.89 Y48.363
X68.86 Y48.384
X68.835 Y48.4
X68.793 Y48.423
X68.751 Y48.444
X68.689 Y48.469
X68.666 Y48.476
X68.582 Y48.499
X68.497 Y48.516
X68.413 Y48.527
X68.328 Y48.536
X68.243 Y48.542
X68.159 Y48.548
X68.074 Y48.553
X67.99 Y48.558
X67.905 Y48.562
X67.736 Y48.569
X67.567 Y48.575
X67.483 Y48.578
X67.398 Y48.581
X67.314 Y48.583
X67.145 Y48.588
X67.06 Y48.59
X66.891 Y48.594
X66.807 Y48.596
X66.637 Y48.6
X66.553 Y48.601
X66.384 Y48.605
X66.299 Y48.606
X66.13 Y48.609
X66.046 Y48.61
X65.792 Y48.614
X65.708 Y48.616
X65.539 Y48.618
X65.454 Y48.619
X65.201 Y48.622
X65.116 Y48.623
X64.862 Y48.626
X64.778 Y48.627
X64.524 Y48.629
X64.44 Y48.63
X64.186 Y48.632
X64.102 Y48.633
X63.399 Y48.638
X63.341
X62.665 Y48.642
X62.58
X61.819 Y48.645
X61.735
X61.566
X60.974 Y48.647
X60.213
X60.129
X56.156 Y48.635
X56.072
X55.142 Y48.628
X55.057 Y48.627
X54.212 Y48.62
X54.127 Y48.619
X53.282 Y48.61
X53.198 Y48.609
X52.86 Y48.605
X52.775 Y48.604
X52.352 Y48.599
X51.93 Y48.592
X51.592 Y48.587
X51.507 Y48.586
X51.169 Y48.58
X51.084 Y48.578
X50.831 Y48.573
X50.746 Y48.572
X50.408 Y48.564
X50.324 Y48.562
X50.07 Y48.556
X49.986 Y48.554
X49.901 Y48.552
X49.732 Y48.548
X49.478 Y48.54
X49.394 Y48.538
X49.225 Y48.532
X49.14 Y48.53
X48.971 Y48.523
X48.887 Y48.52
X48.718 Y48.513
X48.633 Y48.509
X48.464 Y48.501
X48.38 Y48.496
X48.295 Y48.491
X48.211 Y48.485
X48.126 Y48.479
X48.042 Y48.472
X48.004 Y48.469
X47.957 Y48.464
X47.872 Y48.454
X47.788 Y48.441
X47.027 Y48.327
X46.943 Y48.315
X46.906 Y48.308
X46.87 Y48.3
X46.858 Y48.296
X46.816 Y48.284
X46.774 Y48.268
X46.731 Y48.249
X46.689 Y48.228
X46.667 Y48.215
X46.636 Y48.195
X46.605 Y48.174
X46.551 Y48.13
X46.52 Y48.101
X46.493 Y48.074
X46.469 Y48.046
X46.435 Y48.002
X46.408 Y47.961
X46.383 Y47.919
X46.362 Y47.877
X46.351 Y47.851
X46.329 Y47.792
X46.306 Y47.708
X46.062 Y46.777
X46.04 Y46.693
X45.995 Y46.524
X45.971 Y46.439
X45.923 Y46.27
X45.898 Y46.186
X45.873 Y46.101
X45.847 Y46.016
X45.794 Y45.847
X45.766 Y45.763
X45.738 Y45.678
X45.708 Y45.594
X45.675 Y45.499
X45.648 Y45.425
X45.616 Y45.34
X45.59 Y45.274
X45.549 Y45.171
X45.513 Y45.086
X45.506 Y45.069
X45.477 Y45.002
X45.421 Y44.883
X45.396 Y44.833
X45.352 Y44.748
X45.337 Y44.721
X45.303 Y44.664
X45.252 Y44.585
X45.248 Y44.579
X45.216 Y44.537
X45.211 Y44.53
X45.209 Y44.529
X45.202 Y44.522
X45.201 Y44.521
X45.192 Y44.513
X45.168 Y44.496
X45.166 Y44.494
X45.083 Y44.442
X45.024 Y44.41
X44.999 Y44.396
X44.914 Y44.354
X44.855 Y44.325
X44.745 Y44.276
X44.661 Y44.241
X44.576 Y44.206
X44.449 Y44.156
X44.407 Y44.141
X44.153 Y44.05
X44.069 Y44.02
X43.731 Y43.911
X43.702 Y43.903
X43.308 Y43.787
X43.223 Y43.764
X42.885 Y43.673
X42.801 Y43.652
X42.441 Y43.564
X42.378 Y43.55
X42.04 Y43.475
X41.956 Y43.457
X41.533 Y43.373
X41.448 Y43.359
X41.11 Y43.3
X41.026 Y43.287
X40.688 Y43.237
X40.603 Y43.227
X40.35 Y43.198
X40.265 Y43.189
X39.927 Y43.162
X39.842 Y43.158
X39.758 Y43.155
X39.673 Y43.153
X39.589 Y43.152
X39.504
X39.42 Y43.153
X39.335
X39.251 Y43.156
X39.208 Y43.157
X39.193 Y43.158
X39.191 Y43.16
X39.163 Y43.226
X39.129 Y43.311
X39.097 Y43.395
X39.082 Y43.439
X39.069 Y43.48
X39.043 Y43.564
X39.017 Y43.649
X38.972 Y43.818
X38.95 Y43.903
X38.908 Y44.072
X38.889 Y44.156
X38.798 Y44.579
X38.78 Y44.664
X38.733 Y44.917
X38.719 Y45.002
X38.691 Y45.171
X38.678 Y45.255
X38.484 Y46.524
X38.469 Y46.608
X38.457 Y46.651
X38.443 Y46.693
X38.427 Y46.735
X38.407 Y46.777
X38.405 Y46.78
X38.383 Y46.821
X38.357 Y46.862
X38.321 Y46.912
X38.291 Y46.947
X38.265 Y46.974
X38.236 Y47.002
X38.202 Y47.031
X38.152 Y47.068
X38.112 Y47.094
X38.071 Y47.116
X38.067 Y47.118
X38.025 Y47.138
X37.983 Y47.154
X37.941 Y47.168
X37.898 Y47.18
X37.856 Y47.189
X37.814 Y47.195
X37.749 Y47.2
X37.729 Y47.201
X37.69 Y47.2
X37.645 Y47.197
X37.602 Y47.192
X37.56 Y47.184
X37.518 Y47.174
X37.476 Y47.161
X37.433 Y47.146
X37.391 Y47.127
X37.368 Y47.116
X37.337 Y47.099
X37.307 Y47.081
X37.272 Y47.057
X37.237 Y47.031
X37.222 Y47.018
X37.185 Y46.985
X37.148 Y46.947
X37.138 Y46.935
X37.108 Y46.898
X37.082 Y46.862
X37.053 Y46.816
X37.032 Y46.777
X37.012 Y46.735
X36.996 Y46.693
X36.982 Y46.651
X36.97 Y46.608
X36.968 Y46.6
X36.955 Y46.524
X36.79 Y45.325
X36.788 Y45.323
X35.377 Y45.376
X35.375 Y45.377
X35.37 Y45.425
X35.362 Y45.498
X35.352 Y45.594
X35.342 Y45.678
X35.3 Y46.016
X35.288 Y46.101
X35.274 Y46.186
X35.261 Y46.27
X35.245 Y46.355
X35.227 Y46.439
X35.206 Y46.524
X35.193 Y46.569
X35.181 Y46.608
X35.15 Y46.693
X35.132 Y46.735
X35.11 Y46.777
X35.109 Y46.779
X35.059 Y46.862
X35.024 Y46.91
X34.994 Y46.947
X34.968 Y46.974
X34.94 Y47.001
X34.906 Y47.031
X34.855 Y47.07
X34.819 Y47.094
X34.783 Y47.116
X34.771 Y47.122
X34.728 Y47.143
X34.686 Y47.16
X34.644 Y47.175
X34.602 Y47.188
X34.546 Y47.2
X34.517 Y47.205
X34.475 Y47.21
X34.433 Y47.213
X34.39 Y47.214
X34.348 Y47.212
X34.306 Y47.208
X34.264 Y47.201
X34.26 Y47.2
X34.22 Y47.191
X34.179 Y47.18
X34.137 Y47.166
X34.095 Y47.15
X34.059 Y47.134
X34.024 Y47.116
X34.01 Y47.108
X33.968 Y47.082
X33.925 Y47.051
X33.9 Y47.031
X33.871 Y47.005
X33.841 Y46.976
X33.813 Y46.947
X33.783 Y46.911
X33.756 Y46.875
X33.747 Y46.862
X33.697 Y46.777
X33.672 Y46.727
X33.657 Y46.693
X33.627 Y46.608
X33.603 Y46.524
X33.587 Y46.459
X33.583 Y46.439
X33.567 Y46.355
X33.553 Y46.27
X33.541 Y46.186
X33.53 Y46.101
X33.519 Y46.016
X33.487 Y45.678
X33.479 Y45.594
X33.468 Y45.425
X33.464 Y45.34
X33.461 Y45.255
X33.455 Y45.171
X33.447 Y45.086
X33.438 Y45.002
X33.414 Y44.833
X33.399 Y44.748
X33.385 Y44.664
X33.369 Y44.579
X33.302 Y44.241
X33.284 Y44.156
X33.202 Y43.818
X33.182 Y43.733
X33.044 Y43.211
X33.042 Y43.209
X32.658 Y43.188
X32.573 Y43.183
X32.489 Y43.18
X32.404 Y43.177
X32.319 Y43.176
X32.235 Y43.177
X31.981 Y43.184
X31.897 Y43.188
X31.643 Y43.206
X31.559 Y43.212
X31.221 Y43.249
X31.136 Y43.26
X30.783 Y43.311
X30.713 Y43.323
X30.375 Y43.382
X30.309 Y43.395
X29.953 Y43.468
X29.903 Y43.48
X29.543 Y43.564
X29.53 Y43.568
X29.192 Y43.657
X29.107 Y43.68
X28.769 Y43.781
X28.685 Y43.808
X28.399 Y43.903
X28.347 Y43.921
X28.093 Y44.015
X28.009 Y44.047
X27.748 Y44.156
X27.67 Y44.192
X27.501 Y44.272
X27.417 Y44.314
X27.396 Y44.325
X27.332 Y44.359
X27.245 Y44.41
X27.163 Y44.46
X27.113 Y44.494
X27.079 Y44.518
X27.04 Y44.548
X27.001 Y44.579
X26.994 Y44.585
X26.912 Y44.664
X26.91 Y44.666
X26.83 Y44.748
X26.825 Y44.754
X26.758 Y44.833
X26.707 Y44.893
X26.705 Y44.895
X26.621 Y45.024
X26.62 Y45.026
X26.588 Y45.086
X26.572 Y45.122
X26.549 Y45.171
X26.515 Y45.255
X26.487 Y45.328
X26.452 Y45.425
X26.424 Y45.509
X26.397 Y45.594
X26.371 Y45.678
X26.345 Y45.763
X26.32 Y45.847
X26.271 Y46.016
X26.248 Y46.101
X26.201 Y46.27
X26.178 Y46.355
X26.132 Y46.524
X26.109 Y46.608
X26.087 Y46.693
X26.064 Y46.777
X26.042 Y46.862
X26.02 Y46.947
X25.773 Y47.877
X25.751 Y47.961
X25.739 Y47.995
X25.726 Y48.029
X25.719 Y48.046
X25.699 Y48.088
X25.676 Y48.13
X25.642 Y48.183
X25.618 Y48.215
X25.589 Y48.249
X25.557 Y48.283
X25.54 Y48.3
X25.507 Y48.329
X25.473 Y48.356
X25.432 Y48.384
X25.388 Y48.411
X25.346 Y48.432
X25.304 Y48.451
X25.256 Y48.469
X25.219 Y48.48
X25.177 Y48.49
X25.135 Y48.498
X25.092 Y48.504
X25.05 Y48.507
X24.966 Y48.508
X16.597 Y48.633
X16.428 Y48.635
X14.907 Y48.655
X14.231 Y48.662
X14.146 Y48.663
X13.47 Y48.669
X13.385
X12.709 Y48.674
X12.625
X12.033 Y48.677
X11.948 Y48.678
X11.357 Y48.679
X11.272 Y48.68
X10.681
X10.596
X10.258
X10.173
X9.835 Y48.679
X9.751
X9.413 Y48.677
X9.328
X9.074 Y48.675
X8.99
X8.652 Y48.672
X8.567
X8.314 Y48.669
X8.229 Y48.668
X7.976 Y48.665
X7.891 Y48.664
X7.638 Y48.66
X7.553 Y48.658
X7.384 Y48.655
X7.299 Y48.654
X7.046 Y48.648
X6.961 Y48.646
X6.792 Y48.642
X6.708 Y48.639
X6.539 Y48.634
X6.454 Y48.631
X6.37 Y48.628
X6.285 Y48.624
X6.201 Y48.62
X6.116 Y48.616
X6.032 Y48.612
X5.947 Y48.607
X5.862 Y48.601
X5.778 Y48.594
X3.834 Y48.432
X3.792 Y48.428
X3.749 Y48.42
X3.707 Y48.411
X3.665 Y48.399
X3.623 Y48.384
X3.58 Y48.366
X3.538 Y48.345
X3.496 Y48.321
X3.463 Y48.3
X3.411 Y48.261
X3.36 Y48.215
X3.327 Y48.18
X3.286 Y48.13
X3.263 Y48.098
X3.242 Y48.067
X3.23 Y48.046
X3.208 Y48.004
X3.188 Y47.961
X3.172 Y47.919
X3.159 Y47.877
X3.158 Y47.872
X3.148 Y47.832
X3.14 Y47.792
X3.134 Y47.75
X3.13 Y47.708
X3.129 Y47.665
X3.13 Y47.623
X3.134 Y47.581
X3.14 Y47.539
X3.148 Y47.499
X3.158 Y47.459
X3.159 Y47.454
X3.172 Y47.412
X3.187 Y47.373
X3.189 Y47.369
X3.208 Y47.327
X3.23 Y47.285
X3.242 Y47.264
X3.263 Y47.232
X3.286 Y47.2
X3.327 Y47.151
X3.36 Y47.116
X3.411 Y47.07
X3.463 Y47.031
X3.496 Y47.01
X3.538 Y46.986
X3.58 Y46.965
X4.425 Y46.559
X4.595 Y46.478
X4.933 Y46.315
X5.017 Y46.274
X5.271 Y46.15
X5.355 Y46.108
X5.609 Y45.982
X5.693 Y45.939
X5.947 Y45.81
X6.032 Y45.766
X6.201 Y45.677
X6.285 Y45.632
X6.454 Y45.54
X6.511 Y45.509
X6.708 Y45.398
X6.792 Y45.349
X6.952 Y45.255
X6.961 Y45.25
X7.358 Y45.002
X7.384 Y44.985
X7.731 Y44.748
X7.807 Y44.695
X8.145 Y44.444
X8.191 Y44.41
X8.398 Y44.249
X8.567 Y44.115
X8.621 Y44.072
X8.905 Y43.837
X8.928 Y43.818
X9.159 Y43.619
X9.221 Y43.564
X9.413 Y43.39
X9.483 Y43.325
X9.497 Y43.311
X9.674 Y43.141
X9.751 Y43.067
X9.928 Y42.888
X10.004 Y42.809
X10.173 Y42.628
X10.244 Y42.55
X10.393 Y42.38
X10.427 Y42.342
X10.606 Y42.127
X10.674 Y42.042
X10.805 Y41.873
X10.85 Y41.816
X11.019 Y41.585
X11.053 Y41.535
X11.188 Y41.339
X11.226 Y41.281
X11.357 Y41.076
X11.388 Y41.028
X11.538 Y40.774
X11.585 Y40.689
X11.695 Y40.491
X11.723 Y40.436
X11.81 Y40.267
X11.852 Y40.182
X11.972 Y39.928
X12.01 Y39.844
X12.048 Y39.759
X12.086 Y39.675
X12.122 Y39.59
X12.159 Y39.505
X12.202 Y39.402
X12.229 Y39.336
X12.262 Y39.252
X12.287 Y39.188
X12.325 Y39.083
X12.353 Y38.998
X12.371 Y38.943
X12.425 Y38.744
X12.443 Y38.66
X12.459 Y38.575
X12.474 Y38.491
X12.492 Y38.322
X12.5 Y38.237
X12.505 Y38.153
X12.508 Y38.068
X12.511 Y37.983
X12.512 Y37.899
X12.513 Y37.814
Y37.73
Y37.645
X12.511 Y37.561
X12.507 Y37.392
X12.502 Y37.307
X12.491 Y37.138
X12.484 Y37.053
X12.465 Y36.873
X12.446 Y36.696
X12.437 Y36.607 Z-1.601
X12.426 Y36.518 Z-1.602
X12.401 Y36.343 Z-1.603
X12.387 Y36.254 Z-1.605
X12.372 Y36.166 Z-1.606
X12.356 Y36.079 Z-1.607
X12.34 Y35.991 Z-1.609
X12.321 Y35.904 Z-1.611
X12.302 Y35.816 Z-1.613
X12.281 Y35.729 Z-1.615
X12.258 Y35.643 Z-1.617
X12.235 Y35.557 Z-1.619
X12.21 Y35.471 Z-1.622
X12.162 Y35.301 Z-1.627
X12.116 Y35.13 Z-1.633
X12.073 Y34.958 Z-1.639
X12.034 Y34.785 Z-1.645
X12.001 Y34.611 Z-1.651
X11.981 Y34.437 Z-1.657
X11.978 Y34.394 Z-1.659
Y34.35 Z-1.66
X11.984 Y34.264 Z-1.663
X11.989 Y34.221 Z-1.665
X11.997 Y34.179 Z-1.666
X12.008 Y34.136 Z-1.668
X12.02 Y34.095 Z-1.669
X12.035 Y34.054 Z-1.671
X12.052 Y34.014 Z-1.672
X12.071 Y33.974 Z-1.674
X12.092 Y33.936 Z-1.676
X12.115 Y33.899 Z-1.677
X12.14 Y33.864 Z-1.679
X12.167 Y33.83 Z-1.68
X12.196 Y33.797 Z-1.682
X12.227 Y33.766 Z-1.683
X12.26 Y33.737 Z-1.685
X12.294 Y33.709 Z-1.686
X12.329 Y33.684 Z-1.688
X12.366 Y33.66 Z-1.689
X12.405 Y33.639 Z-1.691
X12.444 Y33.619 Z-1.692
X12.484 Y33.602 Z-1.694
X12.526 Y33.586 Z-1.695
X12.568 Y33.573 Z-1.697
X12.61 Y33.563 Z-1.698
X12.654 Y33.554 Z-1.7
X12.697 Y33.547 Z-1.702
X12.742 Y33.543 Z-1.703
X12.83 Y33.539 Z-1.706
X12.919 Z-1.709
X13.007 Y33.542 Z-1.712
X13.185 Y33.552 Z-1.719
X13.362 Y33.566 Z-1.725
X13.539 Y33.581 Z-1.731
X13.715 Y33.599 Z-1.737
X13.892 Y33.618 Z-1.743
X14.069 Y33.637 Z-1.75
X14.245 Y33.658 Z-1.756
X14.422 Y33.68 Z-1.762
X14.598 Y33.701 Z-1.768
X14.775 Y33.721 Z-1.774
X14.952 Y33.737 Z-1.779
X15.129 Y33.751 Z-1.784
X15.306 Y33.763 Z-1.788
X15.483 Y33.773 Z-1.791
X15.661 Y33.781 Z-1.794
X15.838 Y33.789 Z-1.797
X16.016 Y33.795 Z-1.799
X16.194 Y33.8 Z-1.8
X16.35 Y33.804
X16.428 Y33.806
X16.513 Y33.807
X16.851 Y33.812
X16.936 Y33.813
X17.274 Y33.814
X17.358
X18.119 Y33.807
X18.203 Y33.806
X18.964 Y33.788
X19.049 Y33.785
X19.894 Y33.753
X19.978 Y33.749
X20.739 Y33.709
X20.824 Y33.704
X21.162 Y33.682
X21.246 Y33.676
X21.585 Y33.651
X21.669 Y33.644
X21.923 Y33.622
X22.007 Y33.615
X22.345 Y33.583
X22.43 Y33.575
X22.683 Y33.547
X22.768 Y33.538
X23.021 Y33.507
X23.06 Y33.502
X23.275 Y33.472
X23.36 Y33.46
X23.613 Y33.419
X23.625 Y33.417
X23.698 Y33.404
X24.036 Y33.341
X24.081 Y33.333
X24.458 Y33.255
X24.49 Y33.248
X24.543 Y33.236
X24.881 Y33.159
X24.966 Y33.138
X25.219 Y33.075
X25.304 Y33.054
X25.388 Y33.031
X25.726 Y32.939
X25.811 Y32.914
X26.149 Y32.814
X26.234 Y32.787
X26.487 Y32.706
X26.572 Y32.678
X26.636 Y32.656
X26.91 Y32.562
X26.994 Y32.532
X27.248 Y32.438
X27.332 Y32.407
X27.345 Y32.403
X27.417 Y32.374
X27.67 Y32.274
X27.755 Y32.24
X28.093 Y32.098
X28.168 Y32.064
X28.431 Y31.947
X28.516 Y31.907
X28.769 Y31.787
X28.854 Y31.746
X29.107 Y31.618
X29.192 Y31.575
X29.225 Y31.557
X29.446 Y31.439
X29.53 Y31.394
X29.784 Y31.25
X29.84 Y31.219
X29.868 Y31.203
X29.953 Y31.152
X30.124 Y31.05
X30.206 Y31.
X30.46 Y30.839
X30.528 Y30.796
X30.798 Y30.615
X30.882 Y30.556
X31.052 Y30.437
X31.136 Y30.377
X31.39 Y30.188
X31.474 Y30.123
X31.693 Y29.95
X31.728 Y29.922
X31.896 Y29.781
X31.981 Y29.71
X31.997 Y29.697
X32.235 Y29.486
X32.282 Y29.443
X32.489 Y29.25
X32.55 Y29.189
X32.742 Y28.999
X32.802 Y28.936
X32.963 Y28.767
X32.996 Y28.731
X33.191 Y28.513
X33.249 Y28.444
X33.418 Y28.242
X33.472 Y28.175
X33.604 Y28.006
X33.668 Y27.921
X33.792 Y27.752
X33.841 Y27.683
X33.967 Y27.498
X34.01 Y27.434
X34.183 Y27.16
X34.232 Y27.075
X34.348 Y26.875
X34.377 Y26.822
X34.466 Y26.653
X34.511 Y26.568
X34.633 Y26.314
X34.671 Y26.23
X34.855 Y25.801
X34.887 Y25.722
X34.94 Y25.587
X34.953 Y25.553
X35.024 Y25.359
X35.045 Y25.3
X35.073 Y25.215
X35.101 Y25.131
X35.126 Y25.046
X35.149 Y24.961
X35.159 Y24.919
Y24.917
Y24.915
X35.16 Y24.877
X35.162 Y24.792
X35.167 Y24.708
X35.174 Y24.623
X35.186 Y24.539
X35.193 Y24.503
X35.204 Y24.454
X35.215 Y24.412
X35.229 Y24.37
X35.262 Y24.285
X35.278 Y24.253
X35.307 Y24.2
X35.333 Y24.16
X35.362 Y24.119
X35.365 Y24.116
X35.399 Y24.074
X35.439 Y24.031
X35.447 Y24.023
X35.489 Y23.986
X35.531 Y23.953
X35.54 Y23.947
X35.578 Y23.921
X35.616 Y23.899
X35.653 Y23.879
X35.689 Y23.862
X35.701 Y23.858
X35.743 Y23.841
X35.785 Y23.828
X35.827 Y23.817
X35.87 Y23.808
X35.912 Y23.802
X35.954 Y23.798
X35.996 Y23.796
X36.039
X36.081 Y23.799
X36.123 Y23.804
X36.165 Y23.811
X36.208 Y23.82
X36.25 Y23.832
X36.292 Y23.846
X36.334 Y23.862
X36.377 Y23.882
X36.419 Y23.905
X36.461 Y23.931
X36.485 Y23.947
X36.546 Y23.994
X36.587 Y24.031
X36.63 Y24.076
X36.664 Y24.116
X36.715 Y24.186
X36.725 Y24.2
X36.752 Y24.243
X36.775 Y24.285
X36.799 Y24.334
X36.817 Y24.37
X36.854 Y24.454
X36.884 Y24.529
X36.888 Y24.539
X36.918 Y24.623
X36.948 Y24.708
X36.968 Y24.773
X37.002 Y24.877
X37.027 Y24.961
X37.053 Y25.048
X37.077 Y25.131
X37.125 Y25.3
X37.138 Y25.343
X37.15 Y25.384
X37.178 Y25.469
X37.208 Y25.553
X37.222 Y25.59
X37.24 Y25.638
X37.274 Y25.722
X37.307 Y25.798
X37.391 Y25.993
X37.423 Y26.061
X37.502 Y26.23
X37.543 Y26.314
X37.67 Y26.568
X37.715 Y26.653
X37.851 Y26.906
X37.898 Y26.99
X37.995 Y27.16
X38.045 Y27.245
X38.152 Y27.419
X38.202 Y27.498
X38.37 Y27.752
X38.405 Y27.803
X38.574 Y28.037
X38.613 Y28.09
X38.828 Y28.364
X38.883 Y28.428
X39.026 Y28.597
X39.082 Y28.662
X39.256 Y28.851
X39.334 Y28.936
X39.589 Y29.193
X39.673 Y29.273
X39.855 Y29.443
X39.927 Y29.507
X40.144 Y29.697
X40.18 Y29.728
X40.454 Y29.95
X40.519 Y30.002
X40.785 Y30.204
X40.857 Y30.257
X41.139 Y30.458
X41.195 Y30.497
X41.533 Y30.722
X41.617 Y30.775
X41.921 Y30.965
X41.956 Y30.986
X42.294 Y31.185
X42.351 Y31.219
X42.716 Y31.422
X42.801 Y31.468
X43.139 Y31.645
X43.223 Y31.689
X43.298 Y31.726
X43.562 Y31.856
X43.644 Y31.895
X43.9 Y32.013
X43.984 Y32.052
X44.322 Y32.197
X44.407 Y32.232
X44.66 Y32.333
X44.745 Y32.367
X45.083 Y32.492
X45.168 Y32.523
X45.506 Y32.639
X45.558 Y32.656
X45.928 Y32.773
X46.013 Y32.799
X46.351 Y32.897
X46.397 Y32.91
X46.435 Y32.92
X46.774 Y33.01
X46.858 Y33.032
X47.281 Y33.135
X47.365 Y33.154
X47.703 Y33.228
X47.788 Y33.247
X48.218 Y33.333
X48.295 Y33.348
X48.718 Y33.424
X48.802 Y33.439
X49.225 Y33.508
X49.309 Y33.521
X49.817 Y33.596
X49.901 Y33.607
X50.388 Y33.671
X50.408 Y33.673
X50.493 Y33.683
X50.577 Y33.693
X50.662 Y33.701
X50.746 Y33.71
X51.084 Y33.738
X51.169 Y33.745
X51.507 Y33.767
X51.592 Y33.771
X51.93 Y33.788
X52.014 Y33.792
X52.437 Y33.808
X52.521 Y33.81
X52.944 Y33.821
X53.029 Y33.822
X53.958 Y33.832
X54.043
X54.55 Y33.829
X54.635 Y33.828
X54.719 Y33.827
X55.142 Y33.82
X55.226 Y33.818
X55.564 Y33.808
X55.733 Y33.804
X55.818 Y33.8
X56.241 Y33.783
X56.325 Y33.778
X56.748 Y33.754
X56.832 Y33.749
X56.917 Y33.743
X57.001 Y33.737
X57.17 Y33.723
X57.255 Y33.716
X57.339 Y33.708
X57.424 Y33.701
X57.593 Y33.683
X57.678 Y33.673
X57.762 Y33.662
X57.847 Y33.65
X58.016 Y33.626
X58.185 Y33.602
X58.269 Y33.59
X58.3 Y33.586
X58.354 Y33.58
X58.523 Y33.56
X58.607 Y33.551
X58.692 Y33.543
X58.776 Y33.536
X58.861 Y33.529
X58.946 Y33.524
X59.03 Y33.52
X59.115 Y33.518
X59.199 Y33.519
X59.284 Y33.523
X59.368 Y33.531
X59.453 Y33.547
X59.495 Y33.557
X59.537 Y33.569
X59.586 Y33.586
X59.622 Y33.601
X59.664 Y33.622
X59.706 Y33.644
X59.75 Y33.671
X59.791 Y33.699
X59.825 Y33.726
X59.859 Y33.756
X59.875 Y33.771
X59.908 Y33.806
X59.938 Y33.84
X59.96 Y33.868
X59.997 Y33.925
X60.022 Y33.967
X60.043 Y34.009
X60.044 Y34.013
X60.062 Y34.053
X60.077 Y34.094
X60.09 Y34.136
X60.101 Y34.178
X60.11 Y34.221
X60.117 Y34.263
X60.122 Y34.305
X60.124 Y34.347
X60.126 Y34.432
X60.123 Y34.517
X60.116 Y34.601
X60.107 Y34.686
X60.096 Y34.77
X60.083 Y34.855
X60.069 Y34.939
X60.054 Y35.024
X60.039 Y35.108
X60.022 Y35.193
X60.005 Y35.278
X59.987 Y35.362
X59.968 Y35.447
X59.96 Y35.483
X59.929 Y35.616
X59.909 Y35.7
X59.889 Y35.785
X59.875 Y35.847
X59.834 Y36.039
X59.818 Y36.123
X59.802 Y36.208
X59.789 Y36.292
X59.775 Y36.377
X59.762 Y36.461
X59.749 Y36.546
X59.739 Y36.63
X59.729 Y36.715
X59.713 Y36.884
X59.705 Y36.969
X59.697 Y37.053
X59.692 Y37.138
X59.688 Y37.222
X59.685 Y37.307
X59.682 Y37.392
X59.68 Y37.476
X59.679 Y37.561
X59.68 Y37.645
X59.681 Y37.73
X59.683 Y37.814
X59.686 Y37.899
X59.69 Y37.983
X59.695 Y38.068
X59.702 Y38.153
X59.71 Y38.237
X59.718 Y38.322
X59.727 Y38.406
X59.738 Y38.491
X59.752 Y38.575
X59.766 Y38.66
X59.795 Y38.829
X59.813 Y38.914
X59.832 Y38.998
X59.854 Y39.083
X59.876 Y39.167
X59.903 Y39.252
X59.96 Y39.424
X59.989 Y39.505
X60.023 Y39.59
X60.092 Y39.759
X60.129 Y39.843
X60.251 Y40.097
X60.293 Y40.182
X60.298 Y40.191
X60.339 Y40.267
X60.431 Y40.436
X60.467 Y40.501
X60.478 Y40.52
X60.528 Y40.605
X60.682 Y40.858
X60.721 Y40.918
X60.737 Y40.943
X60.792 Y41.028
X60.904 Y41.197
X60.962 Y41.281
X61.022 Y41.366
X61.059 Y41.417
X61.228 Y41.651
X61.268 Y41.704
X61.397 Y41.87
X61.465 Y41.958
X61.531 Y42.042
X61.566 Y42.086
X61.741 Y42.296
X61.812 Y42.38
X61.819 Y42.389
X61.884 Y42.465
X62.111 Y42.719
X62.158 Y42.771
X62.187 Y42.803
X62.242 Y42.861
X62.429 Y43.057
X62.496 Y43.127
X62.51 Y43.141
X62.58 Y43.212
X62.595 Y43.226
X62.665 Y43.294
X62.855 Y43.48
X62.918 Y43.54
X62.945 Y43.564
X63.172 Y43.771
X63.224 Y43.818
X63.256 Y43.846
X63.322 Y43.903
X63.523 Y44.072
X63.595 Y44.132
X63.624 Y44.156
X63.679 Y44.199
X63.933 Y44.396
X63.95 Y44.41
X64.017 Y44.46
X64.305 Y44.664
X64.355 Y44.699
X64.43 Y44.748
X64.44 Y44.755
X64.524 Y44.81
X64.609 Y44.863
X64.693 Y44.915
X64.697 Y44.917
X64.778 Y44.966
X64.862 Y45.017
X64.947 Y45.066
X65.031 Y45.116
X65.116 Y45.164
X65.127 Y45.171
X65.201 Y45.212
X65.285 Y45.26
X65.37 Y45.308
X65.428 Y45.34
X65.581 Y45.425
X65.623 Y45.447
X65.708 Y45.493
X65.877 Y45.584
X65.895 Y45.594
X65.961 Y45.629
X66.13 Y45.718
X66.215 Y45.763
X66.299 Y45.806
X66.722 Y46.023
X66.807 Y46.066
X66.878 Y46.101
X67.314 Y46.317
X67.391 Y46.355
X67.398 Y46.358
X67.483 Y46.4
X67.99 Y46.642
X68.074 Y46.681
X68.243 Y46.76
X68.282 Y46.777
X68.751 Y46.993
X68.83 Y47.031
X68.835 Y47.034
X68.877 Y47.059
X68.92 Y47.087
X68.959 Y47.116
X69.004 Y47.155
X69.049 Y47.2
X69.089 Y47.247
X69.117 Y47.285
X69.144 Y47.327
X69.168 Y47.369
X69.173 Y47.379
X69.191 Y47.417
X69.206 Y47.454
X69.221 Y47.496
X69.233 Y47.539
X69.243 Y47.581
X69.251 Y47.623
X69.258 Y47.691
X69.259 Y47.708
Y47.746
X69.258 Y47.784
X69.257 Y47.792
X69.253 Y47.834
X69.247 Y47.877
X69.238 Y47.919
X69.226 Y47.961
X69.212 Y48.004
X69.195 Y48.046
X69.173 Y48.092
X69.152 Y48.13
X69.126 Y48.173
X69.095 Y48.215
X69.089 Y48.223
X69.056 Y48.261
X69.019 Y48.3
X69.004 Y48.314
X68.962 Y48.35
X68.92 Y48.382
X68.917 Y48.384
X68.876 Y48.411
X68.835 Y48.434
X68.763 Y48.469
X68.751 Y48.474
X68.708 Y48.49
X68.666 Y48.504
X68.582 Y48.525
X68.539 Y48.534
X68.497 Y48.54
X68.413 Y48.552
X68.397 Y48.553
X68.328 Y48.56
X68.243 Y48.567
X68.159 Y48.572
X68.074 Y48.578
X67.99 Y48.582
X67.905 Y48.586
X67.821 Y48.59
X67.736 Y48.593
X67.567 Y48.599
X67.483 Y48.602
X67.398 Y48.605
X67.314 Y48.607
X67.145 Y48.612
X67.06 Y48.614
X66.891 Y48.618
X66.807 Y48.62
X66.637 Y48.624
X66.553 Y48.625
X66.384 Y48.629
X66.299 Y48.63
X66.13 Y48.633
X66.046 Y48.635
X65.792 Y48.638
X65.708 Y48.64
X65.539 Y48.642
X65.454 Y48.643
X65.201 Y48.646
X65.116 Y48.647
X64.862 Y48.65
X64.778 Y48.651
X64.524 Y48.653
X64.44 Y48.654
X64.186 Y48.656
X64.102 Y48.657
X63.425 Y48.662
X63.341
X62.665 Y48.666
X62.58
X61.819 Y48.669
X61.735
X61.566
X60.974 Y48.671
X60.298
X60.129
X59.96
X59.791
X59.622
X59.453 Y48.67
X59.284
X59.115
X58.946 Y48.669
X58.776
X58.354 Y48.667
X57.931 Y48.666
X56.325 Y48.66
X56.241
X56.156 Y48.659
X56.072
X55.987 Y48.658
X55.142 Y48.652
X55.057 Y48.651
X54.973
X54.381 Y48.646
X54.212 Y48.644
X54.127 Y48.643
X54.043 Y48.642
X53.282 Y48.634
X53.198 Y48.633
X52.86 Y48.629
X52.775 Y48.628
X52.352 Y48.623
X51.93 Y48.616
X51.845 Y48.615
X51.592 Y48.611
X51.507 Y48.61
X51.169 Y48.604
X51.084 Y48.602
X50.831 Y48.597
X50.746 Y48.596
X50.408 Y48.588
X50.324 Y48.586
X50.07 Y48.581
X49.986 Y48.578
X49.817 Y48.574
X49.732 Y48.572
X49.648 Y48.569
X49.478 Y48.564
X49.394 Y48.562
X49.225 Y48.556
X49.14 Y48.554
X48.971 Y48.547
X48.887 Y48.544
X48.718 Y48.537
X48.633 Y48.533
X48.464 Y48.525
X48.38 Y48.52
X48.295 Y48.515
X48.211 Y48.51
X48.126 Y48.504
X48.042 Y48.496
X47.957 Y48.488
X47.872 Y48.478
X47.808 Y48.469
X46.943 Y48.339
X46.9 Y48.331
X46.858 Y48.321
X46.823 Y48.311
X46.789 Y48.3
X46.774 Y48.294
X46.731 Y48.276
X46.689 Y48.255
X46.655 Y48.236
X46.622 Y48.215
X46.605 Y48.203
X46.562 Y48.171
X46.52 Y48.135
X46.515 Y48.13
X46.474 Y48.088
X46.438 Y48.046
X46.435 Y48.042
X46.406 Y48.002
X46.38 Y47.961
X46.351 Y47.908
X46.336 Y47.877
X46.319 Y47.834
X46.304 Y47.792
X46.281 Y47.708
X46.038 Y46.777
X46.015 Y46.693
X45.97 Y46.524
X45.946 Y46.439
X45.922 Y46.355
X45.898 Y46.27
X45.873 Y46.186
X45.844 Y46.087
X45.822 Y46.016
X45.795 Y45.932
X45.769 Y45.847
X45.712 Y45.678
X45.683 Y45.594
X45.653 Y45.509
X45.622 Y45.425
X45.59 Y45.34
X45.557 Y45.255
X45.523 Y45.171
X45.506 Y45.13
X45.487 Y45.086
X45.45 Y45.002
X45.411 Y44.917
X45.369 Y44.833
X45.337 Y44.77
X45.324 Y44.748
X45.275 Y44.664
X45.252 Y44.627
X45.219 Y44.579
X45.197 Y44.552
X45.193 Y44.546
X45.191 Y44.545
X45.189 Y44.542
X45.187 Y44.541
X45.182 Y44.537
X45.168 Y44.525
X45.123 Y44.494
X45.083 Y44.47
X44.999 Y44.423
X44.973 Y44.41
X44.914 Y44.381
X44.829 Y44.34
X44.745 Y44.302
X44.66 Y44.267
X44.598 Y44.241
X44.576 Y44.232
X44.491 Y44.199
X44.407 Y44.166
X44.142 Y44.072
X44.069 Y44.046
X43.731 Y43.937
X43.646 Y43.911
X43.308 Y43.812
X43.223 Y43.789
X43.139 Y43.766
X42.885 Y43.698
X42.801 Y43.677
X42.547 Y43.615
X42.463 Y43.595
X42.378 Y43.575
X42.04 Y43.5
X41.956 Y43.482
X41.945 Y43.48
X41.871 Y43.465
X41.617 Y43.415
X41.533 Y43.398
X41.448 Y43.383
X41.364 Y43.368
X41.11 Y43.324
X41.026 Y43.311
X40.688 Y43.262
X40.603 Y43.251
X40.35 Y43.222
X40.265 Y43.213
X39.927 Y43.187
X39.842 Y43.182
X39.758 Y43.179
X39.673 Y43.177
X39.589 Y43.176
X39.504
X39.42 Y43.177
X39.335
X39.251 Y43.18
X39.212 Y43.181
X39.209
X39.208 Y43.182
X39.189 Y43.226
X39.166 Y43.283
X39.155 Y43.311
X39.122 Y43.395
X39.094 Y43.48
X39.068 Y43.564
X39.043 Y43.649
X38.997 Y43.818
X38.975 Y43.903
X38.933 Y44.072
X38.914 Y44.156
X38.823 Y44.579
X38.805 Y44.664
X38.758 Y44.917
X38.744 Y45.002
X38.716 Y45.171
X38.702 Y45.255
X38.509 Y46.524
X38.493 Y46.608
X38.49 Y46.623
X38.48 Y46.658
X38.469 Y46.693
X38.453 Y46.735
X38.434 Y46.777
X38.405 Y46.831
X38.386 Y46.862
X38.357 Y46.904
X38.323 Y46.947
X38.321 Y46.949
X38.283 Y46.99
X38.239 Y47.031
X38.236 Y47.034
X38.194 Y47.067
X38.152 Y47.097
X38.121 Y47.116
X38.067 Y47.145
X38.025 Y47.164
X37.983 Y47.18
X37.949 Y47.191
X37.916 Y47.2
X37.898 Y47.204
X37.856 Y47.213
X37.814 Y47.219
X37.771 Y47.223
X37.729 Y47.225
X37.687 Y47.224
X37.645 Y47.221
X37.602 Y47.216
X37.56 Y47.209
X37.524 Y47.2
X37.476 Y47.186
X37.433 Y47.171
X37.391 Y47.154
X37.354 Y47.136
X37.318 Y47.116
X37.307 Y47.109
X37.264 Y47.081
X37.222 Y47.05
X37.2 Y47.031
X37.169 Y47.003
X37.138 Y46.971
X37.116 Y46.947
X37.082 Y46.904
X37.053 Y46.862
X37.027 Y46.82
X37.005 Y46.777
X36.986 Y46.735
X36.97 Y46.693
X36.968 Y46.688
X36.956 Y46.648
X36.946 Y46.608
X36.937 Y46.566
X36.931 Y46.524
X36.769 Y45.349
X36.767 Y45.348
X35.398 Y45.399
X35.397 Y45.4
X35.394 Y45.425
X35.385 Y45.509
X35.376 Y45.594
X35.367 Y45.678
X35.362 Y45.711
X35.324 Y46.016
X35.312 Y46.101
X35.298 Y46.186
X35.285 Y46.27
X35.278 Y46.308
X35.269 Y46.355
X35.251 Y46.439
X35.231 Y46.524
X35.206 Y46.608
X35.193 Y46.645
X35.176 Y46.693
X35.158 Y46.735
X35.137 Y46.777
X35.109 Y46.828
X35.088 Y46.862
X35.059 Y46.904
X35.026 Y46.947
X35.024 Y46.948
X34.986 Y46.99
X34.943 Y47.031
X34.94 Y47.034
X34.898 Y47.069
X34.855 Y47.099
X34.83 Y47.116
X34.771 Y47.149
X34.728 Y47.169
X34.686 Y47.186
X34.644 Y47.2
X34.602 Y47.213
X34.559 Y47.222
X34.517 Y47.23
X34.475 Y47.234
X34.433 Y47.237
X34.39 Y47.238
X34.348 Y47.236
X34.306 Y47.232
X34.264 Y47.225
X34.221 Y47.217
X34.179 Y47.205
X34.162 Y47.2
X34.095 Y47.176
X34.052 Y47.157
X34.01 Y47.135
X33.976 Y47.116
X33.925 Y47.081
X33.895 Y47.058
X33.864 Y47.031
X33.841 Y47.01
X33.809 Y46.978
X33.781 Y46.947
X33.756 Y46.916
X33.719 Y46.862
X33.672 Y46.781
X33.67 Y46.777
X33.649 Y46.735
X33.631 Y46.693
X33.602 Y46.608
X33.587 Y46.56
X33.578 Y46.524
X33.559 Y46.439
X33.542 Y46.355
X33.528 Y46.27
X33.517 Y46.186
X33.503 Y46.082
X33.495 Y46.016
X33.463 Y45.678
X33.455 Y45.594
X33.444 Y45.425
X33.44 Y45.34
X33.437 Y45.255
X33.431 Y45.171
X33.423 Y45.086
X33.418 Y45.042
X33.414 Y45.002
X33.389 Y44.833
X33.375 Y44.748
X33.361 Y44.664
X33.345 Y44.579
X33.277 Y44.241
X33.259 Y44.156
X33.165 Y43.764
X33.157 Y43.733
X33.025 Y43.235
X33.023 Y43.232
X32.658 Y43.212
X32.573 Y43.207
X32.489 Y43.204
X32.404 Y43.201
X32.319 Y43.2
X32.235 Y43.201
X31.981 Y43.208
X31.897 Y43.212
X31.643 Y43.23
X31.559 Y43.236
X31.221 Y43.273
X31.136 Y43.284
X30.798 Y43.333
X30.713 Y43.347
X30.629 Y43.362
X30.544 Y43.377
X30.375 Y43.407
X30.291 Y43.423
X30.016 Y43.48
X29.953 Y43.493
X29.868 Y43.513
X29.615 Y43.572
X29.53 Y43.593
X29.446 Y43.615
X29.192 Y43.682
X29.107 Y43.705
X28.854 Y43.781
X28.769 Y43.806
X28.73 Y43.818
X28.431 Y43.917
X28.347 Y43.947
X28.093 Y44.04
X28.013 Y44.072
X27.755 Y44.179
X27.67 Y44.218
X27.501 Y44.299
X27.447 Y44.325
X27.417 Y44.341
X27.332 Y44.387
X27.248 Y44.436
X27.163 Y44.489
X27.155 Y44.494
X27.117 Y44.521
X27.079 Y44.548
X27.039 Y44.579
X26.994 Y44.618
X26.946 Y44.664
X26.91 Y44.7
X26.864 Y44.748
X26.825 Y44.789
X26.725 Y44.909
X26.724 Y44.91
X26.641 Y45.037
X26.64 Y45.039
X26.615 Y45.086
X26.576 Y45.171
X26.572 Y45.179
X26.541 Y45.255
X26.508 Y45.34
X26.478 Y45.425
X26.45 Y45.509
X26.422 Y45.594
X26.403 Y45.656
X26.37 Y45.763
X26.345 Y45.847
X26.296 Y46.016
X26.273 Y46.101
X26.226 Y46.27
X26.203 Y46.355
X26.149 Y46.554
X26.134 Y46.608
X26.112 Y46.693
X26.089 Y46.777
X26.067 Y46.862
X26.044 Y46.947
X25.798 Y47.877
X25.776 Y47.961
X25.762 Y48.004
X25.746 Y48.046
X25.726 Y48.088
X25.704 Y48.13
X25.678 Y48.173
X25.648 Y48.215
X25.642 Y48.224
X25.611 Y48.262
X25.575 Y48.3
X25.557 Y48.317
X25.516 Y48.353
X25.475 Y48.384
X25.473 Y48.386
X25.43 Y48.414
X25.388 Y48.438
X25.356 Y48.454
X25.324 Y48.469
X25.304 Y48.477
X25.261 Y48.492
X25.219 Y48.505
X25.177 Y48.515
X25.135 Y48.522
X25.092 Y48.528
X25.05 Y48.531
X24.966 Y48.532
X16.766 Y48.654
X16.428 Y48.659
X16.344 Y48.66
X16.259 Y48.661
X14.991 Y48.678
X14.907 Y48.679
X14.822 Y48.68
X14.231 Y48.686
X14.146 Y48.687
X13.47 Y48.693
X13.385
X12.709 Y48.698
X12.625
X12.033 Y48.701
X11.948 Y48.702
X11.357 Y48.703
X11.272 Y48.704
X10.681
X10.596
X10.258
X10.173
X9.835 Y48.703
X9.751
X9.413 Y48.701
X9.328
X9.074 Y48.699
X8.99
X8.652 Y48.696
X8.567
X8.314 Y48.693
X8.229 Y48.692
X7.976 Y48.689
X7.891 Y48.688
X7.638 Y48.684
X7.553 Y48.683
X7.384 Y48.679
X7.299 Y48.678
X7.046 Y48.672
X6.961 Y48.67
X6.792 Y48.666
X6.708 Y48.663
X6.539 Y48.658
X6.454 Y48.655
X6.37 Y48.652
X6.285 Y48.648
X6.201 Y48.645
X6.116 Y48.641
X6.066 Y48.638
X5.947 Y48.631
X5.862 Y48.625
X5.778 Y48.618
X3.834 Y48.457
X3.792 Y48.452
X3.749 Y48.446
X3.707 Y48.437
X3.665 Y48.426
X3.622 Y48.412
X3.58 Y48.396
X3.553 Y48.384
X3.496 Y48.355
X3.453 Y48.33
X3.411 Y48.301
X3.409 Y48.3
X3.368 Y48.267
X3.327 Y48.23
X3.311 Y48.215
X3.274 Y48.175
X3.242 Y48.135
X3.239 Y48.13
X3.21 Y48.088
X3.184 Y48.046
X3.158 Y47.994
X3.143 Y47.961
X3.127 Y47.919
X3.114 Y47.877
X3.103 Y47.834
X3.095 Y47.792
X3.089 Y47.75
X3.086 Y47.708
X3.085 Y47.665
X3.086 Y47.623
X3.089 Y47.581
X3.095 Y47.539
X3.104 Y47.496
X3.114 Y47.454
X3.128 Y47.412
X3.144 Y47.369
X3.158 Y47.337
X3.184 Y47.285
X3.21 Y47.243
X3.239 Y47.2
X3.242 Y47.196
X3.274 Y47.156
X3.311 Y47.116
X3.327 Y47.101
X3.368 Y47.064
X3.409 Y47.031
X3.411 Y47.03
X3.453 Y47.001
X3.496 Y46.976
X3.553 Y46.947
X3.58 Y46.934
X4.51 Y46.488
X4.595 Y46.447
X4.612 Y46.439
X4.679 Y46.407
X4.848 Y46.325
X4.933 Y46.284
X4.962 Y46.27
X5.017 Y46.243
X5.102 Y46.202
X5.271 Y46.119
X5.308 Y46.101
X5.355 Y46.077
X5.524 Y45.993
X5.609 Y45.951
X5.646 Y45.932
X5.693 Y45.908
X5.862 Y45.822
X5.947 Y45.778
X5.977 Y45.763
X6.032 Y45.734
X6.138 Y45.678
X6.201 Y45.645
X6.285 Y45.6
X6.37 Y45.554
X6.452 Y45.509
X6.539 Y45.461
X6.623 Y45.414
X6.708 Y45.366
X6.752 Y45.34
X6.792 Y45.317
X6.897 Y45.255
X6.961 Y45.217
X7.035 Y45.171
X7.215 Y45.058
X7.299 Y45.005
X7.305 Y45.002
X7.384 Y44.951
X7.433 Y44.917
X7.638 Y44.778
X7.68 Y44.748
X7.722 Y44.719
X7.799 Y44.664
X7.914 Y44.579
X8.145 Y44.408
X8.229 Y44.343
X8.252 Y44.325
X8.361 Y44.241
X8.398 Y44.211
X8.574 Y44.072
X8.652 Y44.007
X8.676 Y43.987
X8.882 Y43.818
X8.905 Y43.798
X9.078 Y43.649
X9.159 Y43.578
X9.175 Y43.564
X9.244 Y43.502
X9.361 Y43.395
X9.413 Y43.348
X9.453 Y43.311
X9.497 Y43.268
X9.666 Y43.106
X9.716 Y43.057
X9.92 Y42.851
X9.966 Y42.803
X10.124 Y42.634
X10.173 Y42.581
X10.202 Y42.55
X10.258 Y42.487
X10.352 Y42.38
X10.424 Y42.296
X10.427 Y42.293
X10.495 Y42.211
X10.596 Y42.089
X10.633 Y42.042
X10.699 Y41.958
X10.765 Y41.873
X10.83 Y41.789
X10.954 Y41.619
X11.014 Y41.535
X11.019 Y41.529
X11.072 Y41.45
X11.13 Y41.366
X11.187 Y41.281
X11.188
X11.241 Y41.197
X11.295 Y41.112
X11.349 Y41.028
X11.357 Y41.015
X11.4 Y40.943
X11.5 Y40.774
X11.526 Y40.729
X11.548 Y40.689
X11.641 Y40.52
X11.687 Y40.436
X11.779 Y40.254
X11.816 Y40.182
X11.856 Y40.097
X11.896 Y40.013
X11.936 Y39.928
X11.948 Y39.901
X11.974 Y39.844
X12.012 Y39.759
X12.033 Y39.713
X12.086 Y39.59
X12.117 Y39.519
X12.123 Y39.505
X12.158 Y39.421
X12.193 Y39.336
X12.202 Y39.315
X12.227 Y39.252
X12.259 Y39.167
X12.287 Y39.092
X12.29 Y39.083
X12.319 Y38.998
X12.345 Y38.914
X12.369 Y38.829
X12.371 Y38.821
X12.391 Y38.744
X12.41 Y38.66
X12.426 Y38.575
X12.44 Y38.491
X12.45 Y38.406
X12.459 Y38.322
X12.466 Y38.237
X12.471 Y38.153
X12.474 Y38.068
X12.477 Y37.983
X12.478 Y37.899
X12.479 Y37.814
Y37.73
Y37.645
X12.478 Y37.561
X12.476 Y37.476
X12.473 Y37.392
X12.468 Y37.307
X12.463 Y37.222
X12.457 Y37.138
X12.456 Y37.117
X12.451 Y37.053
X12.442 Y36.969
X12.432 Y36.876
X12.424 Y36.8
X12.415 Y36.715
X12.406 Y36.63
X12.396 Y36.546
X12.384 Y36.461
X12.372 Y36.377
X12.36 Y36.292
X12.346 Y36.208
X12.331 Y36.123
X12.317 Y36.039
X12.3 Y35.954
X12.287 Y35.888
X12.283 Y35.869
X12.264 Y35.785
X12.243 Y35.7
X12.221 Y35.616
X12.202 Y35.548
X12.173 Y35.447
X12.15 Y35.362
X12.127 Y35.278
X12.105 Y35.193
X12.084 Y35.108
X12.063 Y35.024
X12.043 Y34.939
X12.033 Y34.894
X12.024 Y34.855
X12.007 Y34.77
X11.99 Y34.686
X11.976 Y34.601
X11.964 Y34.517
X11.958 Y34.432
X11.956 Y34.39
Y34.347
X11.962 Y34.263
X11.968 Y34.221
X11.976 Y34.178
X11.987 Y34.136
X12. Y34.094
X12.016 Y34.053
X12.033 Y34.013
X12.034 Y34.009
X12.055 Y33.967
X12.08 Y33.925
X12.117 Y33.869
X12.14 Y33.84
X12.169 Y33.806
X12.202 Y33.772
X12.22 Y33.756
X12.253 Y33.727
X12.287 Y33.701
X12.33 Y33.671
X12.371 Y33.646
X12.413 Y33.624
X12.456 Y33.605
X12.503 Y33.586
X12.54 Y33.574
X12.582 Y33.563
X12.625 Y33.553
X12.709 Y33.54
X12.794 Y33.535
X12.878 Y33.534
X12.963 Y33.536
X13.047 Y33.54
X13.132 Y33.545
X13.216 Y33.551
X13.301 Y33.557
X13.385 Y33.565
X13.47 Y33.572
X13.554 Y33.58
X13.723 Y33.598
X13.808 Y33.607
X13.977 Y33.625
X14.062 Y33.635
X14.231 Y33.655
X14.315 Y33.666
X14.484 Y33.687
X14.569 Y33.697
X14.738 Y33.717
X14.822 Y33.725
X14.991 Y33.74
X15.076 Y33.747
X15.33 Y33.764
X15.414 Y33.769
X15.668 Y33.782
X15.752 Y33.785
X16.006 Y33.795
X16.09 Y33.798
X16.35 Y33.804
X16.528 Y33.808
X16.706 Y33.81 Z-1.802
X16.883 Y33.812 Z-1.803
X17.061 Y33.813 Z-1.806
X17.239 Y33.814 Z-1.809
X17.416 Y33.813 Z-1.813
X17.594 Y33.812 Z-1.817
X17.772 Y33.81 Z-1.822
X17.949 Y33.809 Z-1.827
X18.127 Y33.807 Z-1.833
X18.305 Y33.803 Z-1.839
X18.838 Y33.791 Z-1.857
X19.015 Y33.786 Z-1.864
X19.193 Y33.78 Z-1.87
X19.725 Y33.76 Z-1.888
X19.903 Y33.752 Z-1.895
X20.081 Y33.743 Z-1.901
X20.613 Y33.715 Z-1.919
X20.79 Y33.705 Z-1.926
X20.968 Y33.694 Z-1.932
X21.145 Y33.682 Z-1.938
X21.322 Y33.669 Z-1.944
X21.499 Y33.656 Z-1.95
X21.676 Y33.642 Z-1.957
X21.854 Y33.627 Z-1.963
X22.031 Y33.612 Z-1.969
X22.207 Y33.595 Z-1.974
X22.384 Y33.578 Z-1.979
X22.561 Y33.559 Z-1.984
X22.738 Y33.539 Z-1.988
X22.914 Y33.518 Z-1.992
X23.09 Y33.495 Z-1.995
X23.266 Y33.471 Z-1.997
X23.442 Y33.444 Z-1.999
X23.617 Y33.416 Z-2.
X23.747 Y33.391
X23.782 Y33.384
X23.867 Y33.369
X24.062 Y33.333
X24.12 Y33.322
X24.205 Y33.304
X24.289 Y33.287
X24.374 Y33.269
X24.627 Y33.212
X24.712 Y33.193
X24.838 Y33.164
X24.881 Y33.153
X25.05 Y33.112
X25.135 Y33.091
X25.388 Y33.026
X25.473 Y33.003
X25.502 Y32.994
X25.557 Y32.979
X25.642 Y32.957
X25.895 Y32.883
X25.98 Y32.858
X26.149 Y32.806
X26.234 Y32.78
X26.361 Y32.741
X26.403 Y32.727
X26.656 Y32.644
X26.741 Y32.615
X26.865 Y32.572
X26.91 Y32.556
X27.1 Y32.487
X27.163 Y32.464
X27.417 Y32.37
X27.501 Y32.337
X27.549 Y32.318
X27.586 Y32.304
X27.67 Y32.269
X27.96 Y32.149
X28.009 Y32.129
X28.093 Y32.093
X28.161 Y32.064
X28.178 Y32.057
X28.262 Y32.019
X28.347 Y31.981
X28.6 Y31.862
X28.685 Y31.822
X28.769 Y31.782
X28.854 Y31.741
X28.938 Y31.699
X29.023 Y31.656
X29.276 Y31.524
X29.361 Y31.479
X29.446 Y31.433
X29.528 Y31.388
X29.615 Y31.34
X29.68 Y31.303
X29.953 Y31.147
X29.973 Y31.134
X30.037 Y31.094
X30.114 Y31.05
X30.122 Y31.045
X30.206 Y30.992
X30.383 Y30.881
X30.46 Y30.832
X30.544 Y30.779
X30.629 Y30.721
X30.643 Y30.711
X30.713 Y30.666
X30.771 Y30.627
X30.967 Y30.491
X31.014 Y30.458
X31.136 Y30.37
X31.221 Y30.307
X31.39 Y30.182
X31.47 Y30.12
X31.643 Y29.985
X31.686 Y29.95
X31.812 Y29.848
X31.893 Y29.781
X32.091 Y29.612
X32.15 Y29.559
X32.279 Y29.443
X32.319 Y29.407
X32.489 Y29.247
X32.548 Y29.189
X32.658 Y29.081
X32.718 Y29.02
X32.882 Y28.851
X32.911 Y28.82
X33.038 Y28.682
X33.08 Y28.635
X33.189 Y28.513
X33.249 Y28.442
X33.334 Y28.343
X33.403 Y28.259
X33.471 Y28.175
X33.503 Y28.135
X33.538 Y28.09
X33.604 Y28.006
X33.668 Y27.921
X33.672 Y27.916
X33.73 Y27.836
X33.792 Y27.752
X33.841 Y27.683
X33.967 Y27.498
X34.01 Y27.434
X34.13 Y27.245
X34.179 Y27.165
X34.264 Y27.021
X34.281 Y26.991
X34.33 Y26.906
X34.348 Y26.875
X34.433 Y26.716
X34.466 Y26.653
X34.51 Y26.568
X34.633 Y26.314
X34.671 Y26.23
X34.855 Y25.801
X34.887 Y25.722
X34.94 Y25.587
X34.953 Y25.553
X34.984 Y25.469
X35.024 Y25.359
X35.045 Y25.3
X35.073 Y25.215
X35.101 Y25.131
X35.109 Y25.102
X35.126 Y25.046
X35.149 Y24.961
X35.159 Y24.919
Y24.917
Y24.915
X35.16 Y24.877
X35.162 Y24.792
X35.167 Y24.708
X35.174 Y24.623
X35.186 Y24.539
X35.193 Y24.502
X35.204 Y24.454
X35.215 Y24.412
X35.229 Y24.37
X35.262 Y24.285
X35.278 Y24.253
X35.307 Y24.2
X35.333 Y24.159
X35.362 Y24.118
X35.364 Y24.116
X35.399 Y24.074
X35.439 Y24.031
X35.447 Y24.023
X35.489 Y23.986
X35.531 Y23.953
X35.539 Y23.947
X35.578 Y23.921
X35.616 Y23.898
X35.653 Y23.879
X35.689 Y23.862
X35.701 Y23.858
X35.743 Y23.841
X35.785 Y23.828
X35.827 Y23.817
X35.87 Y23.808
X35.912 Y23.802
X35.954 Y23.798
X35.996 Y23.796
X36.039
X36.081 Y23.799
X36.123 Y23.803
X36.165 Y23.811
X36.208 Y23.82
X36.25 Y23.831
X36.292 Y23.845
X36.336 Y23.862
X36.377 Y23.881
X36.419 Y23.903
X36.461 Y23.929
X36.487 Y23.947
X36.546 Y23.993
X36.588 Y24.031
X36.63 Y24.075
X36.666 Y24.116
X36.715 Y24.181
X36.727 Y24.2
X36.777 Y24.285
X36.799 Y24.328
X36.82 Y24.37
X36.856 Y24.454
X36.884 Y24.523
X36.89 Y24.539
X36.92 Y24.623
X36.95 Y24.708
X36.977 Y24.792
X37.004 Y24.877
X37.055 Y25.046
X37.08 Y25.131
X37.128 Y25.3
X37.138 Y25.334
X37.153 Y25.384
X37.181 Y25.469
X37.211 Y25.553
X37.243 Y25.638
X37.277 Y25.722
X37.312 Y25.807
X37.349 Y25.892
X37.386 Y25.976
X37.425 Y26.061
X37.464 Y26.145
X37.476 Y26.169
X37.505 Y26.23
X37.56 Y26.343
X37.588 Y26.399
X37.63 Y26.484
X37.645 Y26.513
X37.673 Y26.568
X37.729 Y26.672
X37.764 Y26.737
X37.81 Y26.822
X37.855 Y26.906
X37.898 Y26.985
X37.901 Y26.991
X37.95 Y27.075
X38.048 Y27.245
X38.067 Y27.275
X38.152 Y27.414
X38.206 Y27.498
X38.236 Y27.545
X38.318 Y27.667
X38.374 Y27.752
X38.405 Y27.797
X38.434 Y27.836
X38.574 Y28.031
X38.618 Y28.09
X38.659 Y28.142
X38.751 Y28.259
X38.817 Y28.344
X38.828 Y28.357
X38.888 Y28.428
X39.031 Y28.597
X39.082 Y28.655
X39.106 Y28.682
X39.166 Y28.747
X39.261 Y28.851
X39.335 Y28.93
X39.34 Y28.936
X39.42 Y29.015
X39.592 Y29.189
X39.673 Y29.266
X39.772 Y29.358
X39.842 Y29.424
X39.863 Y29.443
X39.927 Y29.5
X40.096 Y29.648
X40.153 Y29.697
X40.18 Y29.72
X40.254 Y29.781
X40.434 Y29.927
X40.463 Y29.95
X40.519 Y29.994
X40.571 Y30.035
X40.794 Y30.204
X40.857 Y30.25
X40.91 Y30.289
X41.148 Y30.458
X41.195 Y30.49
X41.279 Y30.547
X41.533 Y30.715
X41.617 Y30.769
X41.795 Y30.881
X41.871 Y30.928
X41.956 Y30.98
X42.04 Y31.03
X42.217 Y31.134
X42.294 Y31.179
X42.362 Y31.219
X42.378 Y31.228
X42.666 Y31.388
X42.716 Y31.416
X42.801 Y31.462
X42.821 Y31.472
X42.885 Y31.506
X43.143 Y31.642
X43.223 Y31.683
X43.312 Y31.726
X43.393 Y31.765
X43.646 Y31.89
X43.656 Y31.895
X43.9 Y32.008
X43.984 Y32.045
X44.069 Y32.082
X44.153 Y32.118
X44.322 Y32.191
X44.407 Y32.226
X44.636 Y32.318
X44.66 Y32.328
X44.745 Y32.361
X44.829 Y32.393
X45.083 Y32.487
X45.168 Y32.517
X45.252 Y32.546
X45.327 Y32.572
X45.506 Y32.633
X45.574 Y32.656
X45.844 Y32.742
X45.928 Y32.768
X46.013 Y32.794
X46.097 Y32.819
X46.266 Y32.868
X46.351 Y32.892
X46.435 Y32.915
X46.52 Y32.938
X46.774 Y33.006
X46.858 Y33.027
X46.943 Y33.048
X47.027 Y33.069
X47.281 Y33.13
X47.365 Y33.149
X47.43 Y33.164
X47.788 Y33.243
X47.815 Y33.248
X48.126 Y33.311
X48.211 Y33.327
X48.295 Y33.344
X48.38 Y33.36
X48.699 Y33.417
X48.718 Y33.421
X48.802 Y33.435
X48.887 Y33.45
X49.225 Y33.505
X49.309 Y33.518
X49.394 Y33.531
X49.478 Y33.543
X49.817 Y33.593
X49.901 Y33.604
X49.986 Y33.615
X50.412 Y33.671
X50.493 Y33.68
X50.577 Y33.69
X50.662 Y33.699
X50.746 Y33.707
X50.831 Y33.715
X51. Y33.73
X51.084 Y33.736
X51.169 Y33.743
X51.254 Y33.749
X51.338 Y33.754
X51.507 Y33.765
X51.592 Y33.77
X51.676 Y33.775
X51.845 Y33.783
X51.93 Y33.787
X52.014 Y33.791
X52.099 Y33.795
X52.268 Y33.801
X52.352 Y33.804
X52.606 Y33.812
X52.691 Y33.814
X52.86 Y33.819
X52.944 Y33.82
X53.113 Y33.823
X53.958 Y33.832
X54.043
X54.127 Y33.831
X54.297
X54.466 Y33.83
X54.55 Y33.829
X54.973 Y33.823
X55.057 Y33.821
X55.142 Y33.82
X55.226 Y33.818
X55.733 Y33.803
X55.818 Y33.8
X56.156 Y33.786
X56.241 Y33.783
X56.325 Y33.778
X56.663 Y33.759
X56.748 Y33.754
X56.832 Y33.749
X57.001 Y33.737
X57.086 Y33.73
X57.17 Y33.723
X57.255 Y33.716
X57.339 Y33.708
X57.424 Y33.7
X57.509 Y33.692
X57.593 Y33.682
X57.69 Y33.671
X57.762 Y33.662
X57.931 Y33.638
X58.016 Y33.626
X58.185 Y33.602
X58.269 Y33.59
X58.299 Y33.586
X58.438 Y33.569
X58.523 Y33.56
X58.607 Y33.551
X58.692 Y33.543
X58.776 Y33.536
X58.861 Y33.529
X58.946 Y33.524
X59.03 Y33.52
X59.115 Y33.518
X59.199
X59.284 Y33.521
X59.368 Y33.527
X59.453 Y33.539
X59.537 Y33.559
X59.579 Y33.571
X59.622 Y33.586
X59.623
X59.665 Y33.604
X59.706 Y33.624
X59.747 Y33.646
X59.787 Y33.671
X59.791 Y33.673
X59.833 Y33.703
X59.875 Y33.737
X59.896 Y33.756
X59.93 Y33.789
X59.96 Y33.822
X59.974 Y33.84
X60.006 Y33.882
X60.034 Y33.925
X60.044 Y33.942
X60.063 Y33.976
X60.079 Y34.009
X60.097 Y34.051
X60.112 Y34.094
X60.129 Y34.147
X60.137 Y34.178
X60.147 Y34.221
X60.153 Y34.263
X60.158 Y34.305
X60.16 Y34.347
X60.163 Y34.432
X60.159 Y34.517
X60.153 Y34.601
X60.143 Y34.686
X60.132 Y34.77
X60.119 Y34.855
X60.106 Y34.939
X60.091 Y35.024
X60.075 Y35.108
X60.059 Y35.193
X60.044 Y35.261
X60.023 Y35.362
X60.005 Y35.447
X59.985 Y35.531
X59.96 Y35.637
X59.945 Y35.7
X59.925 Y35.785
X59.887 Y35.954
X59.875 Y36.014
X59.854 Y36.123
X59.838 Y36.208
X59.824 Y36.292
X59.811 Y36.377
X59.797 Y36.461
X59.791 Y36.506
X59.775 Y36.63
X59.765 Y36.715
X59.756 Y36.8
X59.74 Y36.969
X59.734 Y37.053
X59.729 Y37.138
X59.724 Y37.222
X59.72 Y37.307
X59.716 Y37.476
X59.715 Y37.561
X59.716 Y37.73
X59.718 Y37.814
X59.722 Y37.899
X59.732 Y38.068
X59.737 Y38.153
X59.745 Y38.237
X59.774 Y38.491
X59.787 Y38.575
X59.791 Y38.595
X59.817 Y38.744
X59.832 Y38.829
X59.849 Y38.914
X59.869 Y38.998
X59.875 Y39.025
X59.89 Y39.083
X59.913 Y39.167
X59.939 Y39.252
X59.96 Y39.319
X59.965 Y39.336
X59.994 Y39.421
X60.025 Y39.505
X60.044 Y39.555
X60.059 Y39.59
X60.093 Y39.675
X60.128 Y39.759
X60.166 Y39.844
X60.205 Y39.928
X60.213 Y39.946
X60.246 Y40.013
X60.298 Y40.119
X60.33 Y40.182
X60.382 Y40.281
X60.421 Y40.351
X60.467 Y40.435
X60.515 Y40.52
X60.552 Y40.582
X60.616 Y40.689
X60.636 Y40.723
X60.667 Y40.774
X60.721 Y40.858
X60.89 Y41.118
X60.941 Y41.197
X60.974 Y41.244
X61.182 Y41.535
X61.228 Y41.598
X61.243 Y41.619
X61.306 Y41.704
X61.312 Y41.711
X61.372 Y41.789
X61.57 Y42.042
X61.639 Y42.127
X61.65 Y42.141
X61.709 Y42.211
X61.925 Y42.465
X61.988 Y42.539
X61.998 Y42.55
X62.073 Y42.633
X62.242 Y42.819
X62.307 Y42.888
X62.327 Y42.909
X62.388 Y42.972
X62.55 Y43.141
X62.58 Y43.172
X62.749 Y43.338
X62.808 Y43.395
X62.834 Y43.42
X62.895 Y43.48
X63.087 Y43.657
X63.172 Y43.734
X63.256 Y43.809
X63.364 Y43.903
X63.425 Y43.956
X63.51 Y44.027
X63.564 Y44.072
X63.679 Y44.165
X63.764 Y44.233
X63.848 Y44.299
X63.882 Y44.325
X64.017 Y44.427
X64.102 Y44.49
X64.186 Y44.55
X64.227 Y44.579
X64.271 Y44.61
X64.348 Y44.664
X64.355 Y44.669
X64.44 Y44.726
X64.473 Y44.748
X64.524 Y44.781
X64.604 Y44.833
X64.609 Y44.835
X64.693 Y44.888
X64.741 Y44.917
X64.778 Y44.94
X64.862 Y44.99
X64.947 Y45.041
X65.025 Y45.086
X65.031 Y45.09
X65.116 Y45.139
X65.201 Y45.187
X65.285 Y45.235
X65.321 Y45.255
X65.454 Y45.33
X65.473 Y45.34
X65.539 Y45.376
X65.623 Y45.422
X65.708 Y45.469
X65.783 Y45.509
X65.792 Y45.514
X65.877 Y45.56
X65.961 Y45.605
X66.046 Y45.65
X66.13 Y45.694
X66.215 Y45.738
X66.299 Y45.782
X66.384 Y45.826
X66.553 Y45.913
X66.924 Y46.101
X66.976 Y46.126
X67.145 Y46.21
X67.229 Y46.252
X67.483 Y46.376
X67.567 Y46.417
X67.736 Y46.498
X67.791 Y46.524
X68.582 Y46.892
X68.666 Y46.931
X68.835 Y47.009
X68.88 Y47.031
X68.92 Y47.054
X68.962 Y47.081
X69.004 Y47.113
X69.008 Y47.116
X69.048 Y47.151
X69.089 Y47.191
X69.098 Y47.2
X69.134 Y47.243
X69.165 Y47.285
X69.173 Y47.297
X69.196 Y47.333
X69.216 Y47.369
X69.237 Y47.412
X69.255 Y47.454
X69.258 Y47.462
X69.271 Y47.5
X69.283 Y47.539
X69.293 Y47.581
X69.3 Y47.623
X69.305 Y47.665
X69.308 Y47.708
X69.309 Y47.75
X69.307 Y47.792
X69.303 Y47.834
X69.296 Y47.877
X69.287 Y47.919
X69.276 Y47.961
X69.258 Y48.014
X69.245 Y48.046
X69.225 Y48.088
X69.202 Y48.13
X69.173 Y48.176
X69.145 Y48.215
X69.118 Y48.247
X69.089 Y48.28
X69.069 Y48.3
X69.037 Y48.329
X69.004 Y48.356
X68.966 Y48.384
X68.92 Y48.414
X68.877 Y48.438
X68.835 Y48.459
X68.813 Y48.469
X68.751 Y48.493
X68.666 Y48.517
X68.582 Y48.535
X68.497 Y48.547
X68.446 Y48.553
X68.413 Y48.557
X68.328 Y48.564
X68.243 Y48.57
X68.159 Y48.576
X68.074 Y48.58
X67.99 Y48.584
X67.905 Y48.588
X67.821 Y48.592
X67.736 Y48.595
X67.652 Y48.598
X67.567 Y48.601
X67.483 Y48.604
X67.398 Y48.606
X67.314 Y48.609
X67.229 Y48.611
X67.145 Y48.613
X67.06 Y48.615
X66.976 Y48.617
X66.807 Y48.621
X66.722 Y48.623
X66.637 Y48.625
X66.553 Y48.626
X66.384 Y48.63
X66.215 Y48.632
X66.13 Y48.634
X65.961 Y48.637
X65.88 Y48.638
X65.708 Y48.64
X65.623 Y48.641
X65.285 Y48.646
X65.201 Y48.647
X65.116 Y48.648
X64.778 Y48.651
X64.693 Y48.652
X64.609 Y48.653
X64.186 Y48.656
X64.102 Y48.657
X63.764 Y48.659
X63.595 Y48.661
X63.51
X63.087 Y48.664
X63.003
X62.918
X62.665 Y48.666
X62.58
X62.411 Y48.667
X61.819 Y48.669
X61.735
X61.566
X60.974 Y48.671
X60.213
X60.129
X59.96
X59.791
X58.946 Y48.67
X58.692 Y48.669
X58.607
X57.17 Y48.664
X57.086
X56.494 Y48.661
X56.41
X56.156 Y48.659
X56.072
X55.733 Y48.656
X55.649
X55.226 Y48.653
X55.142 Y48.652
X55.057 Y48.651
X54.635 Y48.648
X54.55 Y48.647
X54.212 Y48.644
X54.127 Y48.643
X54.043 Y48.642
X53.536 Y48.637
X53.451 Y48.636
X53.282 Y48.634
X53.198 Y48.633
X52.944 Y48.63
X52.86 Y48.629
X52.775 Y48.628
X52.352 Y48.623
X51.93 Y48.616
X51.845 Y48.615
X51.592 Y48.611
X51.507 Y48.61
X51.338 Y48.607
X51.169 Y48.604
X51.084 Y48.602
X50.915 Y48.599
X50.831 Y48.597
X50.746 Y48.596
X50.408 Y48.588
X50.324 Y48.586
X50.07 Y48.581
X49.986 Y48.578
X49.901 Y48.576
X49.732 Y48.572
X49.648 Y48.569
X49.563 Y48.567
X49.478 Y48.564
X49.394 Y48.562
X49.309 Y48.559
X49.225 Y48.556
X49.14 Y48.554
X48.971 Y48.547
X48.887 Y48.544
X48.802 Y48.541
X48.718 Y48.537
X48.633 Y48.533
X48.464 Y48.525
X48.38 Y48.52
X48.295 Y48.515
X48.211 Y48.51
X48.126 Y48.504
X48.042 Y48.496
X47.957 Y48.488
X47.872 Y48.478
X47.808 Y48.469
X46.943 Y48.339
X46.9 Y48.331
X46.858 Y48.321
X46.823 Y48.311
X46.789 Y48.3
X46.774 Y48.294
X46.731 Y48.276
X46.689 Y48.255
X46.655 Y48.236
X46.622 Y48.215
X46.605 Y48.203
X46.562 Y48.171
X46.52 Y48.135
X46.515 Y48.13
X46.474 Y48.088
X46.438 Y48.046
X46.435 Y48.042
X46.406 Y48.002
X46.38 Y47.961
X46.351 Y47.908
X46.336 Y47.877
X46.319 Y47.834
X46.304 Y47.792
X46.281 Y47.708
X46.038 Y46.777
X46.015 Y46.693
X45.969 Y46.524
X45.946 Y46.439
X45.928 Y46.376
X45.898 Y46.27
X45.873 Y46.186
X45.848 Y46.101
X45.795 Y45.932
X45.768 Y45.847
X45.712 Y45.678
X45.683 Y45.594
X45.652 Y45.509
X45.622 Y45.425
X45.59 Y45.341
X45.557 Y45.255
X45.523 Y45.171
X45.487 Y45.086
X45.45 Y45.002
X45.41 Y44.917
X45.369 Y44.833
X45.324 Y44.748
X45.274 Y44.664
X45.252 Y44.628
X45.217 Y44.579
X45.2 Y44.556
X45.198 Y44.554
X45.184 Y44.539
X45.182 Y44.537
X45.153 Y44.515
X45.152 Y44.514
X45.083 Y44.47
X44.999 Y44.424
X44.972 Y44.41
X44.914 Y44.381
X44.829 Y44.341
X44.796 Y44.325
X44.745 Y44.303
X44.66 Y44.267
X44.598 Y44.241
X44.491 Y44.199
X44.407 Y44.166
X44.142 Y44.072
X44.069 Y44.046
X43.984 Y44.018
X43.731 Y43.937
X43.646 Y43.911
X43.393 Y43.837
X43.326 Y43.818
X42.885 Y43.699
X42.801 Y43.677
X42.716 Y43.657
X42.33 Y43.564
X42.294 Y43.556
X42.209 Y43.537
X42.125 Y43.519
X41.786 Y43.448
X41.702 Y43.431
X41.617 Y43.415
X41.533 Y43.399
X41.11 Y43.325
X41.026 Y43.311
X40.772 Y43.274
X40.688 Y43.262
X40.603 Y43.251
X40.35 Y43.222
X40.265 Y43.213
X40.011 Y43.193
X39.927 Y43.187
X39.842 Y43.182
X39.758 Y43.179
X39.673 Y43.178
X39.589 Y43.176
X39.504
X39.42 Y43.177
X39.335
X39.251 Y43.18
X39.223 Y43.181
X39.214
X39.213 Y43.182
X39.204 Y43.203
X39.195 Y43.226
X39.166 Y43.297
X39.161 Y43.311
X39.128 Y43.395
X39.099 Y43.48
X39.082 Y43.536
X39.073 Y43.564
X39.048 Y43.649
X39.025 Y43.733
X39.002 Y43.818
X38.98 Y43.903
X38.959 Y43.987
X38.939 Y44.072
X38.913 Y44.182
X38.899 Y44.241
X38.881 Y44.325
X38.863 Y44.41
X38.846 Y44.494
X38.811 Y44.664
X38.794 Y44.748
X38.763 Y44.917
X38.748 Y45.002
X38.721 Y45.171
X38.707 Y45.255
X38.526 Y46.439
X38.513 Y46.524
X38.498 Y46.608
X38.49 Y46.64
X38.474 Y46.693
X38.457 Y46.735
X38.438 Y46.777
X38.423 Y46.808
X38.405 Y46.839
X38.391 Y46.862
X38.362 Y46.904
X38.328 Y46.947
X38.321 Y46.955
X38.282 Y46.996
X38.244 Y47.031
X38.236 Y47.038
X38.194 Y47.071
X38.152 Y47.1
X38.126 Y47.116
X38.067 Y47.147
X38.025 Y47.166
X37.983 Y47.182
X37.92 Y47.2
X37.898 Y47.206
X37.856 Y47.214
X37.814 Y47.22
X37.771 Y47.223
X37.729 Y47.225
X37.687 Y47.224
X37.645 Y47.221
X37.602 Y47.216
X37.56 Y47.209
