(1)
(CONTOUR PASS)
(T2  D=3.175 CR=0. - ZMIN=-8.048 - FLAT END MILL)
G0 G90 G94 G17
G21
G53 Z0.

(ADAPTIVE1)
M5
M9
T2
S12000 M3
G55
M8
G0 X-0.218 Y-2.92
Z15.
Z5.
Z-1.365
G1 Z-1.683 F513.
X-0.216 Y-2.912 Z-1.753
X-0.21 Y-2.889 Z-1.82
X-0.201 Y-2.853 Z-1.88
X-0.188 Y-2.804 Z-1.931
X-0.173 Y-2.746 Z-1.969
X-0.157 Y-2.681 Z-1.992
X-0.139 Y-2.612 Z-2.
G3 X0.003 Y-1.625 I-4.485 J1.149
G1 Y-1.475 F900.
X-0.145 Y-0.752
X-0.224 Y-0.019
X-0.267 Y0.718
X-0.289 Y1.455
X-0.301 Y2.193
X-0.307 Y2.931
X-0.31 Y3.669
X-0.313 Y5.144
X-0.312 Y11.047
X-0.304 Y48.675
X-0.298 Y74.499
X-0.267 Y74.681
X-0.119 Y75.019
X0.124 Y75.296
X0.713 Y75.74
X1.406 Y75.994
X2.13 Y76.135
X2.864 Y76.21
X3.601 Y76.251
X4.338 Y76.272
X5.076 Y76.283
X5.814 Y76.289
X6.552 Y76.293
X8.027 Y76.295
X13.93 Y76.296
X23.521 Y76.297
X73.693 Y76.298
X74.431
X74.615 Y76.294
X74.793 Y76.244
X75.112 Y76.06
X75.371 Y75.797
X75.784 Y75.186
X76.019 Y74.486
X76.148 Y73.76
X76.218 Y73.025
X76.255 Y72.288
X76.274 Y71.551
X76.285 Y70.813
X76.29 Y70.075
X76.293 Y69.338
X76.295 Y67.862
X76.296 Y60.484
X76.297 Y27.282
X76.298 Y1.459
X76.255 Y1.279
X76.092 Y0.948
X75.842 Y0.677
X75.244 Y0.244
X74.549 Y-0.003
X73.824 Y-0.139
X73.09 Y-0.212
X72.353 Y-0.251
X71.615 Y-0.272
X70.878 Y-0.283
X70.14 Y-0.288
X69.402 Y-0.291
X67.927 Y-0.293
X61.286
X52.432 Y-0.291
X2.814 Y-0.28
X2.633 Y-0.246
X2.294 Y-0.101
X2.012 Y0.137
X1.554 Y0.716
X1.287 Y1.403
X1.136 Y2.126
X1.053 Y2.859
X1.008 Y3.595
X0.984 Y4.333
X0.971 Y5.07
X0.965 Y5.808
X0.961 Y6.546
X0.958 Y8.022
Y12.448
X0.966 Y50.077
X0.971 Y72.949
X1.057 Y73.308
X1.237 Y73.63
X1.728 Y74.18
X2.377 Y74.531
X3.084 Y74.743
X3.812 Y74.866
X4.546 Y74.937
X5.283 Y74.976
X6.02 Y74.998
X6.758 Y75.011
X7.496 Y75.018
X8.234 Y75.022
X9.709 Y75.025
X13.398 Y75.026
X27.417 Y75.027
X72.792 Y75.028
X73.159 Y74.987
X73.5 Y74.846
X73.795 Y74.625
X74.289 Y74.077
X74.598 Y73.407
X74.782 Y72.693
X74.889 Y71.963
X74.949 Y71.227
X74.984 Y70.49
X75.003 Y69.753
X75.013 Y69.015
X75.019 Y68.277
X75.022 Y67.539
X75.025 Y66.064
X75.026 Y60.899
X75.027 Y21.057
X75.028 Y3.349
X75.022 Y2.981
X74.916 Y2.627
X74.72 Y2.314
X74.208 Y1.783
X73.552 Y1.447
X72.842 Y1.245
X72.114 Y1.127
X71.379 Y1.06
X70.642 Y1.023
X69.904 Y1.002
X69.167 Y0.99
X68.429 Y0.984
X67.691 Y0.98
X66.215 Y0.978
X61.789 Y0.977
X43.343 Y0.981
X4.239 Y0.989
X3.887 Y1.101
X3.575 Y1.298
X3.045 Y1.811
X2.707 Y2.467
X2.503 Y3.176
X2.384 Y3.904
X2.315 Y4.639
X2.276 Y5.375
X2.254 Y6.113
X2.242 Y6.851
X2.236 Y7.588
X2.232 Y8.326
X2.229 Y9.802
X2.228 Y11.277
X2.239 Y61.449
X2.241 Y71.409
X2.283 Y71.776
X2.418 Y72.119
X2.629 Y72.422
X3.157 Y72.937
X3.816 Y73.27
X4.525 Y73.472
X5.253 Y73.592
X5.987 Y73.662
X6.724 Y73.703
X7.462 Y73.726
X8.199 Y73.739
X8.937 Y73.747
X9.675 Y73.751
X10.413 Y73.753
X12.626 Y73.756
X41.401 Y73.757
X71.651 Y73.758
X72.004 Y73.648
X72.32 Y73.458
X72.864 Y72.96
X73.221 Y72.315
X73.442 Y71.61
X73.574 Y70.885
X73.651 Y70.151
X73.696 Y69.414
X73.722 Y68.677
X73.737 Y67.939
X73.745 Y67.202
X73.75 Y66.464
X73.753 Y65.726
X73.755 Y64.25
X73.756 Y58.348
Y54.659
X73.758 Y4.487
X73.687 Y4.125
X73.526 Y3.793
X73.298 Y3.503
X72.748 Y3.012
X72.079 Y2.7
X71.366 Y2.51
X70.637 Y2.398
X69.902 Y2.333
X69.165 Y2.295
X68.428 Y2.274
X67.69 Y2.262
X66.952 Y2.255
X66.214 Y2.251
X64.739 Y2.248
X61.05 Y2.247
X24.159 Y2.255
X5.713 Y2.259
X5.354 Y2.34
X5.025 Y2.507
X4.453 Y2.973
X4.073 Y3.606
X3.837 Y4.305
X3.695 Y5.029
X3.611 Y5.762
X3.563 Y6.498
X3.534 Y7.236
X3.518 Y7.973
X3.509 Y8.711
X3.504 Y9.449
X3.501 Y10.187
X3.499 Y11.662
Y16.827
X3.503 Y33.059
X3.511 Y69.95
X3.536 Y70.318
X3.639 Y70.672
X3.822 Y70.993
X4.307 Y71.548
X4.946 Y71.917
X5.647 Y72.148
X6.371 Y72.288
X7.104 Y72.37
X7.841 Y72.419
X8.578 Y72.448
X9.315 Y72.464
X10.053 Y72.473
X10.791 Y72.479
X11.529 Y72.482
X13.004 Y72.485
X15.956 Y72.486
X66.127 Y72.488
X70.185
X70.547 Y72.417
X70.881 Y72.261
X71.175 Y72.037
X71.676 Y71.495
X71.999 Y70.832
X72.198 Y70.122
X72.318 Y69.394
X72.388 Y68.659
X72.43 Y67.923
X72.454 Y67.185
X72.468 Y66.448
X72.475 Y65.71
X72.48 Y64.972
X72.483 Y64.234
X72.485 Y62.759
X72.486 Y57.594
X72.487 Y27.343
X72.488 Y5.947
X72.44 Y5.581
X72.313 Y5.235
X72.111 Y4.926
X71.597 Y4.396
X70.947 Y4.048
X70.242 Y3.831
X69.515 Y3.701
X68.782 Y3.623
X68.045 Y3.578
X67.308 Y3.552
X66.57 Y3.537
X65.832 Y3.528
X65.095 Y3.523
X64.357 Y3.52
X62.881 Y3.518
X57.716
X44.436 Y3.521
X7.176 Y3.529
X6.81 Y3.573
X6.466 Y3.705
X6.159 Y3.911
X5.633 Y4.429
X5.29 Y5.081
X5.077 Y5.788
X4.949 Y6.514
X4.873 Y7.248
X4.828 Y7.985
X4.803 Y8.722
X4.788 Y9.46
X4.779 Y10.198
X4.774 Y10.935
X4.772 Y11.673
X4.769 Y13.149
Y15.362
X4.78 Y65.534
Y68.485
X4.783 Y68.854
X4.848 Y69.217
X4.996 Y69.555
X5.212 Y69.854
X5.743 Y70.366
X6.4 Y70.702
X7.108 Y70.91
X7.835 Y71.036
X8.569 Y71.111
X9.305 Y71.155
X10.043 Y71.18
X10.78 Y71.195
X11.518 Y71.204
X12.256 Y71.209
X12.994 Y71.212
X14.469 Y71.215
X18.896 Y71.216
X50.622 Y71.217
X69.067 Y71.218
X69.417 Y71.099
X69.731 Y70.906
X70.278 Y70.411
X70.643 Y69.769
X70.872 Y69.068
X71.012 Y68.344
X71.096 Y67.611
X71.146 Y66.875
X71.175 Y66.137
X71.192 Y65.4
X71.202 Y64.662
X71.208 Y63.924
X71.212 Y63.186
X71.215 Y61.711
X71.216 Y58.022
X71.217 Y40.314
X71.218 Y7.113
X71.142 Y6.752
X70.985 Y6.417
X70.764 Y6.122
X70.224 Y5.62
X69.564 Y5.291
X68.855 Y5.086
X68.127 Y4.963
X67.393 Y4.889
X66.657 Y4.846
X65.919 Y4.821
X65.182 Y4.807
X64.444 Y4.798
X63.706 Y4.794
X62.968 Y4.791
X61.493 Y4.789
X57.066 Y4.788
X54.852 Y4.789
X8.37 Y4.799
X8.008 Y4.871
X7.673 Y5.026
X7.377 Y5.246
X6.873 Y5.784
X6.543 Y6.444
X6.338 Y7.153
X6.215 Y7.881
X6.141 Y8.615
X6.098 Y9.351
X6.073 Y10.089
X6.058 Y10.826
X6.05 Y11.564
X6.045 Y12.302
X6.042 Y13.04
X6.04 Y14.515
X6.039 Y18.942
X6.048 Y58.046
X6.05 Y67.638
X6.134 Y67.997
X6.297 Y68.328
X6.747 Y68.913
X7.37 Y69.309
X8.063 Y69.561
X8.784 Y69.717
X9.516 Y69.81
X10.252 Y69.866
X10.989 Y69.899
X11.726 Y69.919
X12.464 Y69.93
X13.202 Y69.937
X13.94 Y69.941
X15.415 Y69.944
X18.367 Y69.946
X45.666 Y69.947
X67.8 Y69.948
X68.15 Y69.829
X68.464 Y69.636
X69.007 Y69.137
X69.37 Y68.494
X69.6 Y67.793
X69.74 Y67.069
X69.824 Y66.336
X69.875 Y65.6
X69.904 Y64.862
X69.922 Y64.125
X69.932 Y63.387
X69.938 Y62.649
X69.941 Y61.912
X69.945 Y60.436
X69.946 Y56.747
X69.947 Y42.728
X69.948 Y8.789
X69.944 Y8.42
X69.872 Y8.058
X69.722 Y7.721
X69.505 Y7.423
X68.972 Y6.913
X68.314 Y6.578
X67.607 Y6.369
X66.88 Y6.241
X66.146 Y6.165
X65.41 Y6.12
X64.672 Y6.094
X63.935 Y6.079
X63.197 Y6.07
X62.459 Y6.064
X61.721 Y6.061
X60.246 Y6.059
X55.819
X55.081
X9.705 Y6.069
X9.342 Y6.134
X9.002 Y6.276
X8.7 Y6.488
X8.182 Y7.014
X7.841 Y7.668
X7.627 Y8.374
X7.497 Y9.1
X7.419 Y9.834
X7.373 Y10.57
X7.346 Y11.307
X7.33 Y12.045
X7.321 Y12.783
X7.316 Y13.521
X7.313 Y14.258
X7.31 Y15.734
Y19.423
X7.318 Y60.003
X7.32 Y66.274
X7.381 Y66.638
X7.523 Y66.978
X7.735 Y67.28
X8.259 Y67.801
X8.913 Y68.142
X9.619 Y68.355
X10.345 Y68.485
X11.079 Y68.563
X11.815 Y68.61
X12.553 Y68.637
X13.29 Y68.653
X14.028 Y68.663
X14.766 Y68.668
X15.504 Y68.672
X16.979 Y68.675
X20.668 Y68.676
X50.181 Y68.677
X66.413 Y68.678
X66.77 Y68.585
X67.096 Y68.413
X67.668 Y67.947
X68.055 Y67.318
X68.3 Y66.623
X68.452 Y65.9
X68.543 Y65.168
X68.598 Y64.432
X68.63 Y63.695
X68.649 Y62.958
X68.66 Y62.22
X68.667 Y61.482
X68.671 Y60.744
X68.674 Y59.269
X68.676 Y56.318
X68.677 Y35.659
X68.678 Y9.835
X68.63 Y9.469
X68.508 Y9.121
X68.313 Y8.808
X67.813 Y8.265
X67.171 Y7.903
X66.469 Y7.674
X65.745 Y7.534
X65.012 Y7.449
X64.276 Y7.399
X63.539 Y7.369
X62.801 Y7.352
X62.063 Y7.342
X61.326 Y7.336
X60.588 Y7.332
X59.112 Y7.329
X55.423
X45.094 Y7.331
X11.154 Y7.338
X10.787 Y7.373
X10.434 Y7.48
X10.113 Y7.663
X9.554 Y8.144
X9.179 Y8.779
X8.941 Y9.478
X8.794 Y10.201
X8.706 Y10.933
X8.654 Y11.669
X8.623 Y12.406
X8.604 Y13.144
X8.594 Y13.882
X8.587 Y14.62
X8.584 Y15.357
X8.581 Y16.833
X8.58 Y19.784
Y22.735
X8.59 Y64.791
X8.616 Y65.159
X8.715 Y65.514
X8.89 Y65.839
X9.361 Y66.407
X9.992 Y66.79
X10.688 Y67.033
X11.411 Y67.183
X12.143 Y67.274
X12.879 Y67.328
X13.616 Y67.36
X14.354 Y67.379
X15.091 Y67.39
X15.829 Y67.397
X16.567 Y67.401
X18.043 Y67.405
X20.994 Y67.406
X65.263 Y67.408
X65.611 Y67.286
X65.925 Y67.092
X66.466 Y66.591
X66.829 Y65.948
X67.058 Y65.247
X67.198 Y64.523
X67.283 Y63.79
X67.334 Y63.054
X67.363 Y62.316
X67.381 Y61.579
X67.392 Y60.841
X67.398 Y60.103
X67.401 Y59.365
X67.405 Y57.89
X67.406 Y54.201
X67.408 Y17.31
Y11.407
X67.405 Y11.039
X67.346 Y10.674
X67.21 Y10.332
X67.004 Y10.025
X66.487 Y9.499
X65.837 Y9.15
X65.133 Y8.93
X64.407 Y8.795
X63.674 Y8.714
X62.938 Y8.666
X62.2 Y8.638
X61.463 Y8.621
X60.725 Y8.611
X59.987 Y8.606
X59.249 Y8.603
X57.774 Y8.6
X54.085 Y8.599
X24.572 Y8.605
X12.767 Y8.608
X12.029 Y8.609
X11.679 Y8.725
X11.363 Y8.915
X10.813 Y9.408
X10.443 Y10.046
X10.208 Y10.745
X10.064 Y11.469
X9.976 Y12.201
X9.924 Y12.937
X9.893 Y13.674
X9.875 Y14.412
X9.864 Y15.15
X9.858 Y15.888
X9.854 Y16.625
X9.851 Y18.101
X9.85 Y21.052
X9.855 Y45.4
X9.859 Y63.846
X9.951 Y64.203
X10.12 Y64.531
X10.581 Y65.107
X11.206 Y65.499
X11.9 Y65.75
X12.621 Y65.904
X13.353 Y65.998
X14.088 Y66.054
X14.825 Y66.088
X15.563 Y66.108
X16.301 Y66.12
X17.039 Y66.126
X17.776 Y66.131
X19.252 Y66.134
X22.203 Y66.136
X40.649 Y66.137
X63.521 Y66.138
X63.889 Y66.117
X64.246 Y66.022
X64.571 Y65.847
X65.138 Y65.376
X65.521 Y64.745
X65.765 Y64.049
X65.914 Y63.326
X66.004 Y62.594
X66.058 Y61.858
X66.09 Y61.121
X66.109 Y60.384
X66.12 Y59.646
X66.127 Y58.908
X66.131 Y58.17
X66.135 Y56.695
X66.136 Y53.743
X66.137 Y39.725
X66.138 Y12.426
X66.097 Y12.059
X65.985 Y11.708
X65.798 Y11.39
X65.31 Y10.836
X64.673 Y10.464
X63.974 Y10.228
X63.25 Y10.083
X62.518 Y9.996
X61.782 Y9.943
X61.045 Y9.912
X60.307 Y9.894
X59.569 Y9.883
X58.831 Y9.877
X58.094 Y9.873
X56.618 Y9.87
X53.667 Y9.869
X44.075 Y9.871
X13.825 Y9.877
X13.456 Y9.885
X13.095 Y9.963
X12.762 Y10.121
X12.174 Y10.566
X11.772 Y11.185
X11.515 Y11.877
X11.357 Y12.597
X11.26 Y13.329
X11.203 Y14.065
X11.168 Y14.802
X11.148 Y15.539
X11.136 Y16.277
X11.129 Y17.015
X11.125 Y17.752
X11.123 Y18.49
X11.121 Y19.966
Y25.131
X11.122 Y28.82
X11.129 Y62.39
X11.176 Y62.756
X11.304 Y63.102
X11.504 Y63.412
X12.013 Y63.947
X12.659 Y64.303
X13.362 Y64.527
X14.087 Y64.663
X14.82 Y64.746
X15.556 Y64.795
X16.294 Y64.824
X17.031 Y64.842
X17.769 Y64.852
X18.507 Y64.858
X19.245 Y64.861
X20.72 Y64.865
X24.409 Y64.866
X26.445 Y64.867
X26.478
X26.511 Y64.87
X26.543 Y64.873
X27.105 Y64.947
X27.44 Y64.989
X27.608 Y65.01
X27.775 Y65.023
X28.278 Y65.016
X28.781 Y65.001
X29.284 Y64.979
X29.451 Y64.967
X30.188 Y64.933
X30.926 Y64.901
X31.663 Y64.885
X32.401 Y64.876
X33.139 Y64.872
X33.877 Y64.869
X36.09 Y64.867
X45.855
X45.894 Y64.868
X45.933 Y64.871
X45.972 Y64.877
X46.046 Y64.888
X46.213 Y64.912
X46.549 Y64.955
X46.716 Y64.971
X47.722 Y65.02
X47.89 Y65.018
X48.225 Y65.011
X48.392 Y65.003
X48.895 Y64.969
X49.633 Y64.955
X50.37 Y64.913
X51.107 Y64.891
X51.845 Y64.88
X52.583 Y64.874
X53.32 Y64.871
X54.796 Y64.868
X60.699
X62.174
X62.543 Y64.854
X62.903 Y64.774
X63.235 Y64.613
X63.82 Y64.164
X64.219 Y63.543
X64.474 Y62.851
X64.631 Y62.13
X64.726 Y61.398
X64.783 Y60.662
X64.817 Y59.925
X64.837 Y59.188
X64.849 Y58.45
X64.856 Y57.712
X64.861 Y56.975
X64.863 Y56.237
X64.865 Y54.761
X64.867 Y49.596
Y28.938
X64.868 Y13.443
X64.777 Y13.086
X64.61 Y12.757
X64.154 Y12.177
X63.53 Y11.782
X62.837 Y11.529
X62.116 Y11.373
X61.385 Y11.278
X60.649 Y11.221
X59.912 Y11.187
X59.174 Y11.167
X58.437 Y11.155
X57.699 Y11.148
X56.961 Y11.144
X56.223 Y11.142
X54.748 Y11.14
X49.583
X31.138 Y11.144
X14.906 Y11.147
X14.539 Y11.188
X14.19 Y11.306
X13.875 Y11.499
X13.33 Y11.997
X12.966 Y12.638
X12.737 Y13.34
X12.597 Y14.064
X12.512 Y14.797
X12.462 Y15.533
X12.432 Y16.27
X12.415 Y17.008
X12.404 Y17.745
X12.398 Y18.483
X12.395 Y19.221
X12.392 Y20.697
X12.391 Y23.648
X12.395 Y44.307
X12.399 Y61.277
X12.484 Y61.635
X12.647 Y61.966
X13.098 Y62.55
X13.72 Y62.948
X14.412 Y63.202
X15.133 Y63.36
X15.865 Y63.455
X16.6 Y63.513
X17.337 Y63.547
X18.075 Y63.567
X18.813 Y63.579
X19.55 Y63.586
X20.288 Y63.59
X21.026 Y63.593
X22.164 Y63.595
X22.272 Y63.603
X22.377 Y63.626
X22.477 Y63.664
X22.796 Y63.813
X23.082 Y63.941
X23.249 Y64.015
X23.417 Y64.086
X23.92 Y64.271
X24.423 Y64.431
X24.608 Y64.484
X25.093 Y64.62
X25.261 Y64.667
X25.429 Y64.708
X25.596 Y64.744
X26.139 Y64.819
X26.543 Y64.873
G3 X26.788 Y65.076 I-0.053 J0.313 F513.
G2 X27.056 Y65.281 I0.298 J-0.111
G1 X27.363 Y65.31
X28.308 Y65.399 F900.
G2 X28.526 Y65.339 I0.03 J-0.316
G3 X28.534 Y65.333 I1.189 J1.621
X29.451 Y64.967 I1.18 J1.627 F513.
G1 X29.787 Y64.935 F900.
X29.954 Y64.914
X30.289 Y64.857
X30.457 Y64.828
X30.96 Y64.721
X31.463 Y64.619
X31.63 Y64.574
X31.966 Y64.471
X32.133 Y64.415
X32.971 Y64.111
X33.139 Y64.051
X33.312 Y63.99
X33.748 Y63.873
X34.405 Y63.752
X35.139 Y63.678
X35.876 Y63.639
X36.614 Y63.619
X37.352 Y63.609
X38.089 Y63.603
X38.827 Y63.6
X40.303 Y63.598
X41.714 Y63.597
X41.826 Y63.606
X41.935 Y63.631
X42.039 Y63.672
X42.19 Y63.746
X42.333 Y63.813
X42.861 Y64.037
X43.196 Y64.164
X43.364 Y64.227
X43.629 Y64.316
X43.867 Y64.396
X44.034 Y64.447
X44.37 Y64.541
X44.537 Y64.588
X44.872 Y64.676
X45.04 Y64.718
X45.543 Y64.807
X45.972 Y64.877
G3 X45.89 Y65.505 I-0.061 J0.312 F513.
G1 X45.849 Y65.502
X33.412 Y64.666 F900.
X33.252 Y64.655 F513.
G3 X33.139 Y64.051 I0.021 J-0.317
G1 X33.307 Y63.98 F900.
X33.691 Y63.813
X34.674 Y63.311
X34.815 Y63.237
X35.15 Y63.05
X35.337 Y62.949
X35.59 Y62.837
X35.929 Y62.72
X36.393 Y62.599
X37.099 Y62.475
X37.833 Y62.406
X38.57 Y62.369
X39.308 Y62.35
X39.575 Y62.346
X39.734 Y62.361
X39.885 Y62.409
X40.023 Y62.489
G3 X39.867 Y63.053 I-0.196 J0.25 F513.
G1 X39.617 Y63.085
X35.507 Y63.612 F900.
X35.365 Y63.63 F513.
G3 X35.15 Y63.05 I-0.04 J-0.315
G1 X35.318 Y62.948 F900.
X35.821 Y62.623
X35.989 Y62.5
X36.324 Y62.243
X36.455 Y62.137
X36.579 Y62.031
X36.704 Y61.934
X36.867 Y61.827
X37.078 Y61.712
X37.345 Y61.593
X37.695 Y61.471
X38.163 Y61.347
X38.274 Y61.327
X38.451 Y61.317
X38.625 Y61.349
X38.787 Y61.421
X38.927 Y61.53
G3 X38.779 Y62.054 I-0.231 J0.218 F513.
G1 X38.448 Y62.144
X37.024 Y62.531 F900.
X36.877 Y62.571 F513.
G3 X36.579 Y62.031 I-0.083 J-0.306
G1 X36.659 Y61.962 F900.
X37.162 Y61.462
X37.33 Y61.287
X37.477 Y61.132
X37.535 Y61.065
X37.638 Y60.956
X37.796 Y60.867
X37.973 Y60.829
X38.153 Y60.845
X38.321 Y60.915
X38.46 Y61.031
G3 X38.237 Y61.549 I-0.246 J0.201 F513.
G1 X38.066 Y61.561
X37.806 Y61.58
G3 X37.535 Y61.065 I-0.023 J-0.317
G1 X37.766 Y60.796 F900.
X37.799 Y60.764
X37.832 Y60.738
X37.874 Y60.714
X37.916 Y60.698
X37.958 Y60.688
X38. Y60.684
X38.042 Y60.685
X38.084 Y60.692
X38.126 Y60.705
X38.168 Y60.725
X38.21 Y60.754
X38.253 Y60.796
X38.503 Y61.081
X38.704 Y61.299
X38.838 Y61.442
X39.032 Y61.634
X39.375 Y61.97
X39.567 Y62.137
X39.676 Y62.223
X40.011 Y62.48
X40.179 Y62.603
X40.682 Y62.933
X40.85 Y63.036
X41.185 Y63.229
X41.352 Y63.319
X41.688 Y63.498
X41.855 Y63.583
X42.039 Y63.672
G3 X42.207 Y63.941 I-0.149 J0.28 F513.
G2 X42.458 Y64.24 I0.317 J-0.011
G1 X42.697 Y64.292
X47.713 Y65.365 F900.
G2 X47.96 Y65.315 I0.066 J-0.31
G3 X47.969 Y65.309 I1.144 J1.653
X48.895 Y64.969 I1.135 J1.659 F513.
G1 X49.231 Y64.946 F900.
X49.398 Y64.931
X49.901 Y64.846
X50.404 Y64.754
X50.739 Y64.69
X50.913 Y64.652
X51.074 Y64.605
X52.08 Y64.296
X52.468 Y64.149
X52.583 Y64.1
X52.762 Y64.031
X53.148 Y63.915
X53.709 Y63.796
X54.44 Y63.701
X55.177 Y63.652
X55.914 Y63.626
X56.652 Y63.613
X57.389 Y63.605
X58.127 Y63.602
X59.603 Y63.599
X61.078 Y63.598
X61.445 Y63.557
X61.794 Y63.438
X62.109 Y63.246
X62.654 Y62.748
X63.018 Y62.107
X63.248 Y61.405
X63.388 Y60.681
X63.473 Y59.948
X63.523 Y59.212
X63.553 Y58.475
X63.571 Y57.737
X63.581 Y56.999
X63.588 Y56.262
X63.591 Y55.524
X63.595 Y54.048
X63.596 Y51.097
X63.597 Y23.06
X63.598 Y14.944
X63.559 Y14.577
X63.445 Y14.226
X63.256 Y13.91
X62.762 Y13.362
X62.122 Y12.994
X61.422 Y12.762
X60.698 Y12.619
X59.965 Y12.533
X59.229 Y12.482
X58.492 Y12.452
X57.754 Y12.434
X57.016 Y12.424
X56.279 Y12.417
X55.541 Y12.414
X54.065 Y12.411
X51.114 Y12.41
X40.224 Y12.412
X40.091 Y12.4
X39.963 Y12.364
X39.844 Y12.305
X39.676 Y12.21
X39.332 Y12.019
X39.173 Y11.944
X39.006 Y11.877
X38.838 Y11.824
X38.67 Y11.774
X38.503 Y11.726
X38.335 Y11.696
X38.262 Y11.684
X38.168 Y11.677
X38. Y11.669
X37.759 Y11.684
X37.246 Y11.755
X37.235 Y11.757
X36.958 Y11.851
X36.827 Y11.907
X36.688 Y11.965
X36.321 Y12.079
X35.795 Y12.198
X35.065 Y12.301
X34.329 Y12.355
X33.591 Y12.383
X32.854 Y12.397
X32.116 Y12.405
X31.378 Y12.409
X29.902 Y12.413
X25.476 Y12.415
X15.884 Y12.417
X15.531 Y12.524
X15.21 Y12.706
X14.649 Y13.185
X14.271 Y13.819
X14.03 Y14.516
X13.881 Y15.239
X13.791 Y15.971
X13.738 Y16.707
X13.706 Y17.444
X13.687 Y18.182
X13.676 Y18.919
X13.669 Y19.657
X13.665 Y20.395
X13.662 Y21.871
X13.661 Y24.822
X13.664 Y41.054
Y41.579
X13.663 Y41.626
X13.658 Y41.673
X13.651 Y41.72
X13.429 Y42.861
X13.36 Y43.225
X13.336 Y43.364
X13.285 Y43.867
X13.125 Y45.543
X13.097 Y46.046
X13.096 Y46.213
X13.112 Y48.225
X13.124 Y48.392
X13.157 Y48.728
X13.175 Y48.895
X13.349 Y50.404
X13.36 Y50.492
X13.42 Y50.907
X13.447 Y51.074
X13.556 Y51.804
X13.609 Y52.54
X13.637 Y53.277
X13.651 Y54.015
X13.659 Y54.753
X13.663 Y55.491
X13.667 Y56.966
X13.668 Y59.917
X13.73 Y60.281
X13.874 Y60.621
X14.086 Y60.923
X14.609 Y61.443
X15.262 Y61.786
X15.968 Y62.
X16.694 Y62.132
X17.428 Y62.211
X18.164 Y62.258
X18.901 Y62.286
X19.639 Y62.303
X19.981 Y62.307
X20.133 Y62.325
X20.279 Y62.374
X20.411 Y62.452
X20.568 Y62.568
X20.668 Y62.64
X21.238 Y62.991
X21.741 Y63.292
X22.244 Y63.553
X22.437 Y63.646
X22.477 Y63.664
G3 X22.205 Y64.238 I-0.144 J0.283 F513.
X22.188 Y64.23 I0.127 J-0.291
G1 X22.126 Y64.198 Z-1.992
X22.066 Y64.168 Z-1.969
X22.012 Y64.14 Z-1.931
X21.967 Y64.117 Z-1.88
X21.934 Y64.1 Z-1.82
X21.913 Y64.089 Z-1.753
X21.906 Y64.086 Z-1.683
G0 Z5.
X12.771 Y49.956
Z-1.365
G1 Z-1.683 F513.
X12.776 Y49.962 Z-1.753
X12.792 Y49.979 Z-1.82
X12.817 Y50.007 Z-1.88
X12.851 Y50.044 Z-1.931
X12.891 Y50.089 Z-1.969
X12.936 Y50.139 Z-1.992
X12.983 Y50.191 Z-2.
G3 X13.447 Y51.074 I-1.492 J1.347
G1 X13.548 Y51.577 F900.
X13.629 Y51.912
X13.67 Y52.08
X13.801 Y52.583
X13.891 Y52.918
X13.983 Y53.253
X14.082 Y53.589
X14.141 Y53.756
X14.414 Y54.427
X14.551 Y54.816
X14.668 Y55.262
X14.789 Y55.942
X14.86 Y56.676
X14.897 Y57.413
X14.917 Y58.15
X14.927 Y58.888
X15.05 Y59.236
X15.244 Y59.55
X15.74 Y60.096
X16.38 Y60.463
X17.08 Y60.696
X17.804 Y60.84
X18.336 Y60.904
X18.485 Y60.937
X18.623 Y61.
X18.746 Y61.09
G3 X18.317 Y61.558 I-0.221 J0.228 F513.
X18.304 Y61.546 I0.207 J-0.241
G1 X18.253 Y61.497 Z-1.992
X18.205 Y61.45 Z-1.969
X18.161 Y61.408 Z-1.931
X18.125 Y61.373 Z-1.88
X18.098 Y61.347 Z-1.82
X18.081 Y61.33 Z-1.753
X18.076 Y61.325 Z-1.683
G0 Z5.
X13.539 Y53.455
Z-1.365
G1 Z-1.683 F513.
X13.546 Y53.46 Z-1.753
X13.564 Y53.474 Z-1.82
X13.594 Y53.497 Z-1.88
X13.635 Y53.527 Z-1.931
X13.683 Y53.564 Z-1.969
X13.736 Y53.604 Z-1.992
X13.793 Y53.647 Z-2.
G3 X14.414 Y54.427 I-1.212 J1.604
G1 X15.036 Y55.951 F900.
X15.179 Y56.271
X15.204 Y56.322
X15.539 Y56.933
X15.649 Y57.159
X15.916 Y57.846
X16.308 Y58.471
X16.665 Y58.761
X16.708 Y58.799
X16.749 Y58.84
X16.785 Y58.884
G3 X16.712 Y59.327 I-0.258 J0.185 F513.
X16.269 Y59.254 I-0.185 J-0.258
X16.26 Y59.24 I0.258 J-0.185 F900.
G1 X14.999 Y57.266
G3 X14.993 Y57.258 I0.268 J-0.171
X15.104 Y56.823 I0.273 J-0.162 F513.
X15.539 Y56.933 I0.162 J0.273
G1 X15.727 Y57.276 F900.
X15.874 Y57.53
X15.924 Y57.612
X16.476 Y58.45
X16.587 Y58.617
X16.712 Y58.789
X16.88 Y59.006
X17.383 Y59.647
X17.499 Y59.791
X17.96 Y60.293
X18.431 Y60.796
X18.556 Y60.919
X19.059 Y61.373
X19.562 Y61.82
X19.729 Y61.949
X20.411 Y62.452
G3 X20.016 Y62.949 I-0.197 J0.249 F513.
G1 X19.961 Y62.905 Z-1.992
X19.908 Y62.864 Z-1.969
X19.861 Y62.826 Z-1.931
X19.822 Y62.795 Z-1.88
X19.792 Y62.771 Z-1.82
X19.774 Y62.757 Z-1.753
X19.767 Y62.752 Z-1.683
G0 Z5.
X51.641 Y65.007
Z-1.365
G1 Z-1.683 F513.
X51.646 Y65.001 Z-1.753
X51.659 Y64.981 Z-1.82
X51.681 Y64.95 Z-1.88
X51.71 Y64.909 Z-1.931
X51.745 Y64.86 Z-1.969
X51.783 Y64.805 Z-1.992
X51.824 Y64.748 Z-2.
G3 X52.583 Y64.1 I1.643 J1.158
G1 X53.421 Y63.725 F900.
X53.596 Y63.646
X53.756 Y63.572
X54.259 Y63.3
X54.594 Y63.095
X54.851 Y62.955
X55.105 Y62.843
X55.439 Y62.725
X55.901 Y62.604
X56.595 Y62.48
X57.33 Y62.409
X58.067 Y62.371
X58.804 Y62.351
X59.911 Y62.335
X60.274 Y62.271
X60.614 Y62.129
X60.918 Y61.919
X61.438 Y61.395
X61.782 Y60.743
X61.999 Y60.037
X62.131 Y59.312
X62.211 Y58.578
X62.258 Y57.842
X62.286 Y57.105
X62.303 Y56.367
X62.312 Y55.629
X62.318 Y54.891
X62.322 Y54.154
X62.325 Y52.678
Y52.194
X62.327 Y52.144
X62.332 Y52.094
X62.341 Y52.044
X62.542 Y51.074
X62.574 Y50.907
X62.64 Y50.548
X62.663 Y50.404
X62.788 Y49.398
X62.845 Y48.895
X62.858 Y48.728
X62.918 Y47.387
X62.926 Y47.219
X62.924 Y47.051
X62.912 Y46.549
X62.882 Y45.543
X62.857 Y45.208
X62.844 Y45.04
X62.829 Y44.872
X62.728 Y43.867
X62.662 Y43.364
X62.635 Y43.196
X62.579 Y42.861
X62.493 Y42.128
X62.413 Y41.395
X62.372 Y40.658
X62.351 Y39.921
X62.339 Y39.183
X62.333 Y38.445
X62.33 Y37.707
X62.328 Y36.232
X62.327 Y29.591
X62.328 Y16.311
X62.302 Y15.943
X62.207 Y15.586
X62.034 Y15.26
X61.567 Y14.689
X60.938 Y14.303
X60.243 Y14.057
X59.521 Y13.905
X58.789 Y13.813
X58.053 Y13.758
X57.316 Y13.726
X56.578 Y13.706
X55.84 Y13.695
X55.103 Y13.688
X54.365 Y13.685
X52.889 Y13.681
X49.938 Y13.68
X42.003 Y13.681
X41.84 Y13.663
X41.686 Y13.61
X41.547 Y13.525
X41.329 Y13.36
X40.85 Y13.
X40.65 Y12.857
X40.347 Y12.642
X40.011 Y12.409
X39.88 Y12.327
X39.844 Y12.305
G3 X39.701 Y12.022 I0.174 J-0.265 F513.
G2 X39.502 Y11.709 I-0.317 J-0.018
G1 X39.252 Y11.609
X37.93 Y11.082 F900.
G2 X37.542 Y11.211 I-0.118 J0.295
G3 X37.536 Y11.22 I-1.715 J-1.048
X36.827 Y11.907 I-1.71 J-1.057 F513.
G1 X36.659 Y11.995 F900.
X36.321 Y12.187
X36.156 Y12.288
X35.989 Y12.404
X35.653 Y12.642
X35.486 Y12.766
X35.244 Y12.925
X35.043 Y13.036
X34.789 Y13.151
X34.454 Y13.271
X33.997 Y13.394
X33.315 Y13.52
X32.581 Y13.595
X31.844 Y13.636
X31.107 Y13.658
X30.369 Y13.67
X29.631 Y13.676
X28.893 Y13.68
X27.418 Y13.683
X22.991 Y13.685
X17.088 Y13.687
X16.739 Y13.806
X16.425 Y13.999
X15.881 Y14.497
X15.516 Y15.138
X15.284 Y15.839
X15.142 Y16.563
X15.056 Y17.296
X15.004 Y18.032
X14.974 Y18.769
X14.956 Y19.506
X14.945 Y20.244
X14.939 Y20.982
X14.935 Y21.72
X14.932 Y23.195
X14.931 Y26.147
X14.933 Y37.15
X14.928 Y37.237
X14.913 Y37.322
X14.889 Y37.404
X14.733 Y37.832
X14.554 Y38.335
X14.533 Y38.398
X14.366 Y38.957
X13.919 Y40.514
X13.875 Y40.682
X13.793 Y41.017
X13.755 Y41.185
X13.651 Y41.72
G3 X13.032 Y41.577 I-0.309 J-0.071 F513.
G1 X13.048 Y41.509 Z-1.992
X13.063 Y41.443 Z-1.969
X13.077 Y41.385 Z-1.931
X13.088 Y41.336 Z-1.88
X13.096 Y41.299 Z-1.82
X13.102 Y41.276 Z-1.753
X13.104 Y41.268 Z-1.683
G0 Z5.
X36.214 Y11.68
Z-1.365
G1 Z-1.683 F513.
X36.21 Y11.687 Z-1.753
X36.201 Y11.709 Z-1.82
X36.187 Y11.744 Z-1.88
X36.167 Y11.79 Z-1.931
X36.144 Y11.845 Z-1.969
X36.117 Y11.907 Z-1.992
X36.09 Y11.972 Z-2.
G3 X35.486 Y12.766 I-1.851 J-0.783
G1 X35.134 Y13.025 F900.
X34.471 Y13.528
X33.977 Y13.908
X33.819 Y14.03
X33.68 Y14.128
X33.487 Y14.241
X33.235 Y14.363
X32.922 Y14.485
X32.494 Y14.613
X31.885 Y14.742
X31.153 Y14.837
X30.417 Y14.889
X29.68 Y14.918
X28.942 Y14.934
X28.205 Y14.943
X27.467 Y14.948
X26.729 Y14.951
X25.253 Y14.954
X19.351 Y14.956
X18.613
X18.249 Y15.015
X17.908 Y15.156
X17.605 Y15.366
X17.085 Y15.89
X16.741 Y16.542
X16.525 Y17.248
X16.393 Y17.974
X16.315 Y18.708
X16.268 Y19.444
X16.24 Y20.181
X16.224 Y20.919
X16.214 Y21.657
X16.208 Y22.394
X16.205 Y23.132
X16.202 Y24.608
Y28.297
X16.203 Y34.18
X16.195 Y34.286
X16.173 Y34.39
X16.135 Y34.489
X15.601 Y35.653
X15.371 Y36.161
X15.204 Y36.578
X15.171 Y36.659
X15.106 Y36.827
X14.979 Y37.162
X14.901 Y37.371
X14.889 Y37.404
G3 X14.293 Y37.184 I-0.294 J-0.119 F513.
X14.3 Y37.166 I0.301 J0.102
G1 X14.327 Y37.101 Z-1.992
X14.352 Y37.038 Z-1.969
X14.374 Y36.983 Z-1.931
X14.393 Y36.936 Z-1.88
X14.407 Y36.901 Z-1.82
X14.416 Y36.879 Z-1.753
X14.419 Y36.872 Z-1.683
G0 Z5.
X34.518 Y12.925
Z-1.365
G1 Z-1.683 F513.
X34.515 Y12.933 Z-1.753
X34.506 Y12.954 Z-1.82
X34.493 Y12.99 Z-1.88
X34.474 Y13.036 Z-1.931
X34.452 Y13.093 Z-1.969
X34.428 Y13.155 Z-1.992
X34.402 Y13.221 Z-2.
G3 X33.819 Y14.03 I-1.872 J-0.733
G1 X33.474 Y14.299 F900.
X32.971 Y14.703
X32.351 Y15.204
X32.137 Y15.359
X31.947 Y15.475
X31.707 Y15.597
X31.405 Y15.72
X31. Y15.849
X30.433 Y15.98
X29.703 Y16.088
X28.968 Y16.148
X28.231 Y16.182
X27.493 Y16.201
X26.755 Y16.211
X26.017 Y16.217
X25.28 Y16.221
X23.804 Y16.224
X20.115 Y16.226
X19.747 Y16.248
X19.39 Y16.341
X19.062 Y16.511
X18.488 Y16.974
X18.099 Y17.601
X17.851 Y18.296
X17.698 Y19.018
X17.606 Y19.75
X17.551 Y20.486
X17.518 Y21.223
X17.498 Y21.96
X17.487 Y22.698
X17.48 Y23.436
X17.476 Y24.174
X17.473 Y25.649
X17.472 Y28.601
Y31.711
X17.462 Y31.834
X17.432 Y31.953
X17.382 Y32.066
X16.704 Y33.307
X16.616 Y33.474
X16.37 Y33.977
X16.135 Y34.489
G3 X15.568 Y34.204 I-0.284 J-0.142 F513.
G1 X15.599 Y34.141 Z-1.992
X15.63 Y34.081 Z-1.969
X15.657 Y34.027 Z-1.931
X15.679 Y33.982 Z-1.88
X15.696 Y33.949 Z-1.82
X15.707 Y33.928 Z-1.753
X15.71 Y33.921 Z-1.683
G0 Z5.
X33.029 Y14.086
Z-1.365
G1 Z-1.683 F513.
X33.026 Y14.094 Z-1.753
X33.018 Y14.116 Z-1.82
X33.005 Y14.151 Z-1.88
X32.988 Y14.198 Z-1.931
X32.967 Y14.255 Z-1.969
X32.943 Y14.318 Z-1.992
X32.919 Y14.384 Z-2.
G3 X32.351 Y15.204 I-1.884 J-0.699
G1 X31.728 Y15.707 F900.
X31.295 Y16.07
X30.96 Y16.356
X30.792 Y16.5
X30.674 Y16.592
X30.49 Y16.709
X30.258 Y16.832
X29.97 Y16.955
X29.585 Y17.086
X29.059 Y17.217
X28.331 Y17.339
X27.596 Y17.407
X26.86 Y17.445
X26.122 Y17.467
X25.384 Y17.479
X24.647 Y17.486
X23.909 Y17.49
X22.433 Y17.494
X20.958 Y17.496
X20.605 Y17.604
X20.284 Y17.786
X19.726 Y18.269
X19.349 Y18.903
X19.109 Y19.601
X18.961 Y20.324
X18.872 Y21.056
X18.818 Y21.792
X18.786 Y22.529
X18.768 Y23.267
X18.757 Y24.004
X18.75 Y24.742
X18.746 Y25.48
X18.743 Y26.955
X18.742 Y29.583
X18.729 Y29.722
X18.69 Y29.856
X18.627 Y29.98
X18.006 Y30.96
X17.886 Y31.154
X17.804 Y31.295
X17.528 Y31.798
X17.382 Y32.066
G3 X16.947 Y32.177 I-0.273 J-0.162 F513.
X16.835 Y31.742 I0.162 J-0.273
G1 X16.871 Y31.681 Z-1.992
X16.905 Y31.624 Z-1.969
X16.936 Y31.572 Z-1.931
X16.962 Y31.529 Z-1.88
X16.981 Y31.496 Z-1.82
X16.993 Y31.476 Z-1.753
X16.997 Y31.469 Z-1.683
G0 Z5.
X31.437 Y15.362
Z-1.365
G1 Z-1.683 F513.
X31.434 Y15.37 Z-1.753
X31.426 Y15.392 Z-1.82
X31.414 Y15.428 Z-1.88
X31.398 Y15.475 Z-1.931
X31.379 Y15.532 Z-1.969
X31.358 Y15.596 Z-1.992
X31.335 Y15.663 Z-2.
G3 X30.792 Y16.5 I-1.905 J-0.641
G1 X30.289 Y16.929 F900.
X30.122 Y17.072
X29.764 Y17.383
X29.451 Y17.66
X29.261 Y17.813
X29.09 Y17.929
X28.875 Y18.051
X28.611 Y18.174
X28.26 Y18.305
X27.797 Y18.436
X27.12 Y18.569
X26.387 Y18.654
X25.651 Y18.702
X24.914 Y18.729
X24.176 Y18.745
X23.438 Y18.754
X22.7 Y18.759
X22.332 Y18.772
X21.972 Y18.853
X21.64 Y19.015
X21.056 Y19.466
X20.658 Y20.087
X20.404 Y20.78
X20.246 Y21.501
X20.151 Y22.232
X20.094 Y22.968
X20.06 Y23.705
X20.04 Y24.442
X20.028 Y25.18
X20.021 Y25.918
X20.017 Y26.656
X20.014 Y27.686
X19.998 Y27.839
X19.951 Y27.985
X19.874 Y28.118
X19.638 Y28.446
X19.284 Y28.949
X19.227 Y29.034
X18.627 Y29.98
G3 X18.186 Y30.063 I-0.262 J-0.179 F513.
X18.103 Y29.622 I0.179 J-0.262
G1 X18.143 Y29.563 Z-1.992
X18.181 Y29.508 Z-1.969
X18.215 Y29.458 Z-1.931
X18.243 Y29.417 Z-1.88
X18.264 Y29.386 Z-1.82
X18.278 Y29.366 Z-1.753
X18.282 Y29.36 Z-1.683
G0 Z5.
X30.075 Y16.511
Z-1.365
G1 Z-1.683 F513.
X30.073 Y16.519 Z-1.753
X30.066 Y16.541 Z-1.82
X30.055 Y16.577 Z-1.88
X30.039 Y16.625 Z-1.931
X30.021 Y16.682 Z-1.969
X30.001 Y16.746 Z-1.992
X29.979 Y16.814 Z-2.
G3 X29.451 Y17.66 I-1.916 J-0.608
G1 X29.116 Y17.959 F900.
X28.446 Y18.57
X28.278 Y18.726
X28.11 Y18.885
X27.95 Y19.022
X27.787 Y19.141
X27.592 Y19.261
X27.348 Y19.385
X27.027 Y19.516
X26.616 Y19.647
X26.036 Y19.782
X25.306 Y19.89
X24.571 Y19.952
X23.834 Y19.988
X23.467 Y20.032
X23.116 Y20.145
X22.798 Y20.332
X22.248 Y20.823
X21.877 Y21.461
X21.641 Y22.16
X21.496 Y22.884
X21.409 Y23.616
X21.357 Y24.352
X21.326 Y25.089
X21.308 Y25.827
X21.306 Y25.944
X21.286 Y26.104
X21.232 Y26.256
X21.147 Y26.392
X20.849 Y26.769
X20.727 Y26.937
X19.874 Y28.118
G3 X19.362 Y27.744 I-0.251 J-0.195 F513.
X19.373 Y27.729 I0.262 J0.18
G1 X19.416 Y27.673 Z-1.992
X19.457 Y27.62 Z-1.969
X19.494 Y27.572 Z-1.931
X19.525 Y27.533 Z-1.88
X19.548 Y27.503 Z-1.82
X19.562 Y27.484 Z-1.753
X19.567 Y27.478 Z-1.683
G0 Z5.
X28.696 Y17.716
Z-1.365
G1 Z-1.683 F513.
X28.694 Y17.724 Z-1.753
X28.688 Y17.746 Z-1.82
X28.678 Y17.783 Z-1.88
X28.664 Y17.831 Z-1.931
X28.648 Y17.889 Z-1.969
X28.629 Y17.953 Z-1.992
X28.61 Y18.021 Z-2.
G3 X28.11 Y18.885 I-1.935 J-0.544
G1 X26.769 Y20.16 F900.
X26.623 Y20.286
X26.465 Y20.401
X26.269 Y20.521
X26.011 Y20.652
X25.699 Y20.779
X24.996 Y21.003
X24.643 Y21.108
X24.308 Y21.264
X23.708 Y21.693
X23.28 Y22.294
X23. Y22.976
X22.824 Y23.693
X22.74 Y24.256
X22.709 Y24.383
X22.657 Y24.504
X22.583 Y24.613
G3 X22.135 Y24.644 I-0.24 J-0.208 F513.
X22.104 Y24.196 I0.208 J-0.24
G1 X22.15 Y24.143 Z-1.992
X22.194 Y24.092 Z-1.969
X22.234 Y24.047 Z-1.931
X22.267 Y24.009 Z-1.88
X22.291 Y23.98 Z-1.82
X22.307 Y23.963 Z-1.753
X22.312 Y23.957 Z-1.683
G0 Z5.
X27.355 Y18.991
Z-1.365
G1 Z-1.683 F513.
X27.353 Y18.998 Z-1.753
X27.347 Y19.021 Z-1.82
X27.337 Y19.057 Z-1.88
X27.323 Y19.106 Z-1.931
X27.307 Y19.164 Z-1.969
X27.289 Y19.228 Z-1.992
X27.269 Y19.296 Z-2.
G3 X26.769 Y20.16 I-1.935 J-0.544
G1 X26.517 Y20.4 F900.
X26.267 Y20.648
X24.59 Y22.368
X24.395 Y22.579
X24.244 Y22.747
X22.896 Y24.255
X22.601 Y24.59
X21.246 Y26.267
X21.147 Y26.392
G3 X20.662 Y25.982 I-0.242 J-0.205 F513.
G1 X20.708 Y25.928 Z-1.992
X20.751 Y25.877 Z-1.969
X20.79 Y25.831 Z-1.931
X20.823 Y25.792 Z-1.88
X20.847 Y25.764 Z-1.82
X20.862 Y25.746 Z-1.753
X20.867 Y25.74 Z-1.683
G0 Z5.
X63.22 Y44.
Z-1.365
G1 Z-1.683 F513.
X63.215 Y43.994 Z-1.753
X63.2 Y43.976 Z-1.82
X63.175 Y43.948 Z-1.88
X63.143 Y43.909 Z-1.931
X63.104 Y43.863 Z-1.969
X63.06 Y43.812 Z-1.992
X63.015 Y43.758 Z-2.
G3 X62.579 Y42.861 I1.533 J-1.299
G1 X62.466 Y42.191 F900.
X62.437 Y42.023
X62.372 Y41.688
X62.097 Y40.514
X62.016 Y40.179
X61.974 Y40.011
X61.625 Y38.838
X61.523 Y38.503
X61.47 Y38.335
X61.382 Y38.045
X61.263 Y37.498
X61.164 Y36.766
X61.113 Y36.03
X61.087 Y35.293
X61.073 Y34.555
X61.065 Y33.818
X61.061 Y33.08
X61.058 Y31.604
X61.057 Y27.177
X61.058 Y17.586
X61.032 Y17.218
X60.939 Y16.861
X60.767 Y16.534
X60.3 Y15.963
X59.673 Y15.575
X58.977 Y15.328
X58.255 Y15.176
X57.523 Y15.084
X56.788 Y15.029
X56.051 Y14.996
X55.313 Y14.977
X54.575 Y14.965
X53.837 Y14.959
X53.1 Y14.955
X51.624 Y14.951
X48.673 Y14.95
X43.633 Y14.951
X43.468 Y14.933
X43.312 Y14.878
X43.171 Y14.79
X43.029 Y14.677
X42.526 Y14.289
X41.547 Y13.525
G3 X41.94 Y13.026 I0.204 J-0.243 F513.
X41.955 Y13.038 I-0.189 J0.255
G1 X42.009 Y13.083 Z-1.992
X42.06 Y13.126 Z-1.969
X42.106 Y13.165 Z-1.931
X42.145 Y13.197 Z-1.88
X42.174 Y13.222 Z-1.82
X42.192 Y13.237 Z-1.753
X42.198 Y13.242 Z-1.683
G0 Z5.
X62.303 Y39.343
Z-1.365
G1 Z-1.683 F513.
X62.297 Y39.338 Z-1.753
X62.279 Y39.323 Z-1.82
X62.25 Y39.299 Z-1.88
X62.211 Y39.267 Z-1.931
X62.165 Y39.229 Z-1.969
X62.113 Y39.186 Z-1.992
X62.058 Y39.141 Z-2.
G3 X61.47 Y38.335 I1.279 J-1.551
G1 X61.048 Y37.162 F900.
X60.926 Y36.827
X60.86 Y36.659
X60.786 Y36.491
X60.41 Y35.653
X60.229 Y35.19
X60.112 Y34.801
X59.991 Y34.236
X59.895 Y33.504
X59.844 Y32.768
X59.817 Y32.031
X59.803 Y31.293
X59.796 Y30.556
X59.792 Y29.818
X59.789 Y28.342
X59.787 Y24.653
X59.788 Y18.751
X59.746 Y18.384
X59.63 Y18.034
X59.44 Y17.717
X58.945 Y17.171
X58.305 Y16.804
X57.604 Y16.572
X56.88 Y16.43
X56.147 Y16.344
X55.411 Y16.293
X54.674 Y16.263
X53.937 Y16.245
X53.199 Y16.234
X52.461 Y16.228
X51.723 Y16.225
X50.248 Y16.221
X47.296
X45.181
X45.009 Y16.201
X44.846 Y16.141
X44.702 Y16.045
X44.202 Y15.622
X43.686 Y15.204
X43.171 Y14.79
G3 X43.136 Y14.342 I0.206 J-0.241 F513.
X43.584 Y14.307 I0.241 J0.206
G1 X43.638 Y14.353 Z-1.992
X43.689 Y14.397 Z-1.969
X43.734 Y14.436 Z-1.931
X43.773 Y14.468 Z-1.88
X43.801 Y14.493 Z-1.82
X43.819 Y14.508 Z-1.753
X43.825 Y14.513 Z-1.683
G0 Z5.
X61.318 Y36.594
Z-1.365
G1 Z-1.683 F513.
X61.311 Y36.589 Z-1.753
X61.292 Y36.576 Z-1.82
X61.261 Y36.554 Z-1.88
X61.22 Y36.525 Z-1.931
X61.171 Y36.49 Z-1.969
X61.116 Y36.452 Z-1.992
X61.058 Y36.411 Z-2.
G3 X60.41 Y35.653 I1.155 J-1.645
G1 X59.657 Y33.977 F900.
X59.418 Y33.474
X59.329 Y33.307
X59.236 Y33.139
X59.088 Y32.837
X58.973 Y32.548
X58.854 Y32.159
X58.732 Y31.602
X58.631 Y30.871
X58.578 Y30.135
X58.55 Y29.398
X58.535 Y28.66
X58.527 Y27.923
X58.522 Y27.185
X58.52 Y26.447
X58.518 Y24.234
X58.517 Y19.807
X58.431 Y19.448
X58.267 Y19.118
X57.815 Y18.535
X57.193 Y18.137
X56.501 Y17.883
X55.78 Y17.725
X55.048 Y17.63
X54.313 Y17.573
X53.576 Y17.539
X52.838 Y17.519
X52.1 Y17.507
X51.362 Y17.5
X50.625 Y17.496
X49.887 Y17.493
X48.411 Y17.491
X46.678
X46.506 Y17.471
X46.344 Y17.411
X46.199 Y17.315
X44.702 Y16.045
G3 X45.115 Y15.563 I0.214 J-0.235 F513.
X45.129 Y15.575 I-0.199 J0.247
G1 X45.181 Y15.623 Z-1.992
X45.231 Y15.668 Z-1.969
X45.275 Y15.709 Z-1.931
X45.312 Y15.742 Z-1.88
X45.34 Y15.768 Z-1.82
X45.358 Y15.784 Z-1.753
X45.364 Y15.789 Z-1.683
G0 Z5.
X60.221 Y33.998
Z-1.365
G1 Z-1.683 F513.
X60.215 Y33.994 Z-1.753
X60.194 Y33.983 Z-1.82
X60.162 Y33.964 Z-1.88
X60.118 Y33.938 Z-1.931
X60.066 Y33.908 Z-1.969
X60.008 Y33.874 Z-1.992
X59.947 Y33.839 Z-2.
G3 X59.236 Y33.139 I1.011 J-1.737
G1 X58.114 Y31.122 F900.
X58.023 Y30.96
X57.981 Y30.894
X57.903 Y30.756
X57.79 Y30.511
X57.671 Y30.185
X57.549 Y29.746
X57.424 Y29.094
X57.343 Y28.361
X57.299 Y27.624
X57.275 Y26.887
X57.263 Y26.149
X57.256 Y25.412
X57.252 Y24.674
X57.249 Y23.198
X57.248 Y20.985
X57.144 Y20.631
X56.963 Y20.309
X56.483 Y19.749
X55.85 Y19.37
X55.153 Y19.129
X54.43 Y18.981
X53.697 Y18.891
X52.962 Y18.837
X52.224 Y18.806
X51.487 Y18.787
X50.749 Y18.776
X50.011 Y18.769
X49.274 Y18.766
X48.082 Y18.763
X47.901 Y18.74
X47.732 Y18.674
X47.583 Y18.569
X46.468 Y17.55
X46.381 Y17.472
X46.279 Y17.383
X46.199 Y17.315
G3 X46.612 Y16.833 I0.214 J-0.235 F513.
X46.627 Y16.845 I-0.199 J0.247
G1 X46.679 Y16.893 Z-1.992
X46.729 Y16.938 Z-1.969
X46.773 Y16.979 Z-1.931
X46.81 Y17.012 Z-1.88
X46.838 Y17.038 Z-1.82
X46.856 Y17.054 Z-1.753
X46.861 Y17.059 Z-1.683
G0 Z5.
X59.011 Y31.698
Z-1.365
G1 Z-1.683 F513.
X59.004 Y31.695 Z-1.753
X58.983 Y31.684 Z-1.82
X58.95 Y31.667 Z-1.88
X58.905 Y31.644 Z-1.931
X58.851 Y31.617 Z-1.969
X58.791 Y31.586 Z-1.992
X58.729 Y31.554 Z-2.
G3 X57.981 Y30.894 I0.915 J-1.79
G1 X57.811 Y30.625 F900.
X56.827 Y29.116
X56.668 Y28.844
X56.554 Y28.605
X56.432 Y28.289
X56.309 Y27.871
X56.182 Y27.264
X56.089 Y26.532
X56.039 Y25.796
X56.011 Y25.059
X55.996 Y24.321
X55.988 Y23.583
X55.983 Y22.845
X55.982 Y22.476
X55.93 Y22.111
X55.795 Y21.768
X55.59 Y21.461
X55.075 Y20.933
X54.426 Y20.582
X53.722 Y20.362
X52.996 Y20.228
X52.263 Y20.147
X51.526 Y20.099
X50.789 Y20.071
X50.052 Y20.054
X49.445 Y20.046
X49.258 Y20.019
X49.084 Y19.946
X48.933 Y19.831
X48.661 Y19.562
X48.56 Y19.466
X48.057 Y19.002
X47.583 Y18.569
G3 X48.014 Y18.102 I0.222 J-0.227 F513.
X48.028 Y18.115 I-0.208 J0.239
G1 X48.078 Y18.165 Z-1.992
X48.126 Y18.212 Z-1.969
X48.169 Y18.254 Z-1.931
X48.205 Y18.289 Z-1.88
X48.232 Y18.315 Z-1.82
X48.249 Y18.332 Z-1.753
X48.255 Y18.337 Z-1.683
G0 Z5.
X57.87 Y29.904
Z-1.365
G1 Z-1.683 F513.
X57.863 Y29.901 Z-1.753
X57.842 Y29.89 Z-1.82
X57.808 Y29.874 Z-1.88
X57.763 Y29.852 Z-1.931
X57.709 Y29.825 Z-1.969
X57.649 Y29.795 Z-1.992
X57.585 Y29.764 Z-2.
G3 X56.827 Y29.116 I0.886 J-1.804
G1 X56.389 Y28.446 F900.
X56.267 Y28.278
X55.896 Y27.775
X55.646 Y27.44
X55.499 Y27.221
X55.384 Y27.016
X55.266 Y26.757
X55.141 Y26.415
X55.015 Y25.956
X54.886 Y25.279
X54.806 Y24.546
X54.762 Y23.809
X54.706 Y23.445
X54.58 Y23.098
X54.383 Y22.786
X53.882 Y22.244
X53.239 Y21.882
X52.538 Y21.652
X51.814 Y21.511
X51.081 Y21.425
X50.776 Y21.404
X50.604 Y21.371
X50.444 Y21.299
X50.306 Y21.191
G3 X50.755 Y20.743 I0.231 J-0.218 F513.
X50.768 Y20.756 I-0.218 J0.231
G1 X50.817 Y20.808 Z-1.992
X50.863 Y20.856 Z-1.969
X50.904 Y20.9 Z-1.931
X50.938 Y20.937 Z-1.88
X50.964 Y20.964 Z-1.82
X50.98 Y20.982 Z-1.753
X50.986 Y20.987 Z-1.683
G0 Z5.
X56.736 Y28.161
Z-1.365
G1 Z-1.683 F513.
X56.729 Y28.158 Z-1.753
X56.707 Y28.149 Z-1.82
X56.672 Y28.135 Z-1.88
X56.626 Y28.116 Z-1.931
X56.57 Y28.092 Z-1.969
X56.508 Y28.067 Z-1.992
X56.443 Y28.04 Z-2.
G3 X55.646 Y27.44 I0.772 J-1.856
G1 X54.762 Y26.254 F900.
X54.642 Y26.099
X54.427 Y25.831
X54.289 Y25.64
X54.176 Y25.454
X54.041 Y25.184
X53.765 Y24.5
X53.362 Y23.883
X52.787 Y23.42
X52.219 Y23.152
X52.136 Y23.106
X52.06 Y23.05
X51.991 Y22.984
G3 X52.025 Y22.536 I0.241 J-0.207 F513.
X52.473 Y22.571 I0.207 J0.241
G1 X54.908 Y25.417 F900.
X54.909 F513.
G3 X54.427 Y25.831 I-0.241 J0.206
G1 X54.373 Y25.764 F900.
X54.236 Y25.596
X52.918 Y24.017
X52.543 Y23.585
X52.391 Y23.417
X50.844 Y21.741
X50.353 Y21.238
X48.933 Y19.831
G3 X49.383 Y19.383 I0.231 J-0.218 F513.
X49.396 Y19.396 I-0.218 J0.231
G1 X49.444 Y19.448 Z-1.992
X49.49 Y19.497 Z-1.969
X49.532 Y19.54 Z-1.931
X49.566 Y19.577 Z-1.88
X49.592 Y19.605 Z-1.82
X49.608 Y19.622 Z-1.753
X49.613 Y19.627 Z-1.683
G0 Z5.
X53.776 Y64.114
Z-1.365
G1 Z-1.683 F513.
X53.779 Y64.107 Z-1.753
X53.79 Y64.086 Z-1.82
X53.808 Y64.053 Z-1.88
X53.831 Y64.009 Z-1.931
X53.86 Y63.955 Z-1.969
X53.891 Y63.896 Z-1.992
X53.924 Y63.834 Z-2.
G3 X54.594 Y63.095 I1.777 J0.939
G1 X55.339 Y62.64 F900.
X55.432 Y62.58
X55.591 Y62.472
X56.018 Y62.137
X56.23 Y61.97
X56.358 Y61.879
X56.545 Y61.767
X56.783 Y61.65
X57.084 Y61.531
X57.492 Y61.406
X58.073 Y61.278
X58.804 Y61.178
X59.154 Y61.06
X59.474 Y60.877
X60.038 Y60.402
X60.423 Y59.772
X60.67 Y59.077
X60.823 Y58.355
X60.917 Y57.624
X60.973 Y56.888
X61.007 Y56.151
X61.011 Y56.025
X61.02 Y55.927
X61.042 Y55.83
X61.077 Y55.738
G3 X61.653 Y56.005 I0.284 J0.142 F513.
X61.645 Y56.022 I-0.292 J-0.125
G1 X61.614 Y56.085 Z-1.992
X61.584 Y56.145 Z-1.969
X61.557 Y56.199 Z-1.931
X61.534 Y56.244 Z-1.88
X61.517 Y56.277 Z-1.82
X61.507 Y56.298 Z-1.753
X61.503 Y56.306 Z-1.683
G0 Z5.
X55.54 Y63.08
Z-1.365
G1 Z-1.683 F513.
X55.543 Y63.072 Z-1.753
X55.551 Y63.05 Z-1.82
X55.565 Y63.015 Z-1.88
X55.583 Y62.968 Z-1.931
X55.604 Y62.912 Z-1.969
X55.628 Y62.849 Z-1.992
X55.653 Y62.783 Z-2.
G3 X56.23 Y61.97 I1.877 J0.719
G1 X56.443 Y61.802 F900.
X56.941 Y61.405
X57.052 Y61.299
X57.276 Y61.077
X57.39 Y60.964
X57.939 Y60.47
X58.496 Y59.987
X58.932 Y59.392
X59.033 Y59.172
X59.06 Y59.117
X59.092 Y59.065
X59.128 Y59.016
G3 X59.576 Y58.982 I0.241 J0.207 F513.
X59.61 Y59.43 I-0.207 J0.241
G1 X59.606 Y59.434 F900.
X57.859 Y61.392
X57.854 Y61.398
G3 X57.39 Y60.964 I-0.232 J-0.217 F513.
G1 X58.064 Y60.293 F900.
X58.114 Y60.237
X58.503 Y59.791
X58.639 Y59.623
X59.179 Y58.952
X59.309 Y58.785
X59.431 Y58.617
X60.189 Y57.444
X60.293 Y57.274
X60.385 Y57.109
X60.474 Y56.941
X60.987 Y55.935
X61.217 Y55.432
X61.299 Y55.23
X61.634 Y54.386
X61.683 Y54.259
X61.858 Y53.756
X62.157 Y52.751
X62.204 Y52.583
X62.305 Y52.196
X62.333 Y52.08
X62.341 Y52.044
G3 X62.879 Y51.901 I0.308 J0.075 F513.
G1 X62.906 Y51.948 Z-1.995
X62.932 Y51.994 Z-1.981
X62.956 Y52.037 Z-1.958
X62.962 Y52.081 Z-1.927
X62.967 Y52.12 Z-1.889
X62.964 Y52.153 Z-1.842
X62.962 Y52.177 Z-1.79
X62.959 Y52.19 Z-1.737
X62.958 Y52.195 Z-1.683
G0 Z5.
X48.255 Y65.556
Z-1.165
G1 Z-1.482 F513.
X48.261 Y65.551 Z-1.553
X48.279 Y65.535 Z-1.62
X48.308 Y65.511 Z-1.68
X48.346 Y65.479 Z-1.731
X48.393 Y65.44 Z-1.769
X48.444 Y65.397 Z-1.792
X48.498 Y65.352 Z-1.8
G3 X49.398 Y64.922 I1.29 J1.541
G1 X49.901 Y64.84 F900.
X50.404 Y64.748
X50.739 Y64.682
X50.907 Y64.642
X51.074 Y64.595
X51.577 Y64.439
X52.08 Y64.285
X52.434 Y64.149
X52.583 Y64.085
X53.421 Y63.71
X53.589 Y63.635
X53.756 Y63.557
X54.259 Y63.285
X55.314 Y62.64
X55.432 Y62.561
X55.558 Y62.472
X55.777 Y62.305
X55.935 Y62.183
X56.438 Y61.786
X56.831 Y61.467
X56.941 Y61.376
X57.023 Y61.299
X57.531 Y60.796
X58.035 Y60.293
X58.114 Y60.206
X58.472 Y59.791
X58.785 Y59.403
X59.148 Y58.952
X59.288 Y58.77
X59.397 Y58.617
X59.791 Y58.012
X60.049 Y57.612
X60.261 Y57.276
X60.353 Y57.109
X60.461 Y56.903
X60.954 Y55.935
X61.18 Y55.432
X61.248 Y55.265
X61.634 Y54.292
X61.822 Y53.756
X62.137 Y52.698
X62.169 Y52.583
X62.256 Y52.248
X62.297 Y52.08
X62.506 Y51.074
X62.538 Y50.907
X62.599 Y50.571
X62.626 Y50.404
X62.751 Y49.398
X62.808 Y48.89
X62.819 Y48.728
X62.879 Y47.387
X62.886 Y47.219
X62.885 Y47.051
X62.867 Y46.381
X62.842 Y45.543
X62.805 Y45.04
X62.79 Y44.872
X62.689 Y43.867
X62.62 Y43.364
X62.564 Y43.029
X62.423 Y42.191
X62.332 Y41.688
X62.097 Y40.682
X62.057 Y40.514
X61.931 Y40.011
X61.882 Y39.844
X61.582 Y38.838
X61.467 Y38.456
X61.428 Y38.335
X61.066 Y37.33
X60.882 Y36.827
X60.818 Y36.659
X60.796 Y36.605
X60.446 Y35.821
X59.618 Y33.977
X59.376 Y33.474
X59.287 Y33.307
X58.114 Y31.199
X58.074 Y31.128
X57.974 Y30.96
X57.779 Y30.644
X56.673 Y28.949
X56.342 Y28.446
X55.935 Y27.89
X54.726 Y26.267
X54.594 Y26.099
X54.259 Y25.681
X52.918 Y24.074
X52.751 Y23.878
X52.496 Y23.585
X50.794 Y21.741
X50.637 Y21.573
X50.571 Y21.504
X49.119 Y20.065
X48.611 Y19.562
X48.392 Y19.355
X48.225 Y19.2
X46.419 Y17.55
X46.213 Y17.37
X44.202 Y15.665
X43.531 Y15.123
X43.196 Y14.853
X43.005 Y14.701
X42.79 Y14.533
X42.14 Y14.03
X41.495 Y13.528
X41.185 Y13.294
X40.826 Y13.025
X40.682 Y12.919
X40.347 Y12.683
X40.011 Y12.452
X39.859 Y12.354
X39.676 Y12.25
X39.258 Y12.019
X39.006 Y11.925
X38.838 Y11.865
X38.795 Y11.851
X38.67 Y11.815
X38.503 Y11.769
X38.335 Y11.738
X38.168 Y11.718
X38. Y11.709
X37.832 Y11.719
X37.665 Y11.736
X37.33 Y11.784
X37.162 Y11.821
X37.068 Y11.851
X36.994 Y11.876
X36.827 Y11.951
X36.69 Y12.019
X36.324 Y12.226
X36.156 Y12.328
X35.989 Y12.445
X35.645 Y12.689
X35.15 Y13.054
X34.526 Y13.528
X33.977 Y13.95
X33.446 Y14.366
X33.028 Y14.701
X31.782 Y15.707
X31.183 Y16.209
X30.4 Y16.88
X30.122 Y17.117
X29.787 Y17.41
X29.284 Y17.855
X29.064 Y18.053
X28.512 Y18.556
X28.333 Y18.724
X27.943 Y19.091
X26.566 Y20.4
X26.397 Y20.568
X26.267 Y20.698
X24.758 Y22.246
X24.59 Y22.421
X24.141 Y22.914
X22.942 Y24.255
X22.652 Y24.59
X22.378 Y24.926
X21.293 Y26.267
X20.897 Y26.769
X20.654 Y27.105
X19.686 Y28.446
X19.562 Y28.62
X19.329 Y28.949
X19.219 Y29.116
X18.221 Y30.691
X18.052 Y30.96
X17.948 Y31.128
X17.886 Y31.235
X17.571 Y31.798
X16.712 Y33.371
X16.659 Y33.474
X16.415 Y33.977
X15.645 Y35.653
X15.417 Y36.156
X15.349 Y36.324
X15.204 Y36.686
X15.021 Y37.162
X14.958 Y37.33
X14.776 Y37.832
X14.597 Y38.335
X14.533 Y38.537
X14.441 Y38.838
X14.391 Y39.006
X13.958 Y40.514
X13.914 Y40.682
X13.832 Y41.017
X13.793 Y41.185
X13.5 Y42.693
X13.468 Y42.861
X13.407 Y43.196
X13.378 Y43.364
X13.323 Y43.867
X13.162 Y45.543
X13.134 Y46.046
Y46.213
X13.145 Y47.722
X13.151 Y48.225
X13.163 Y48.392
X13.196 Y48.728
X13.213 Y48.895
X13.387 Y50.404
X13.41 Y50.571
X13.458 Y50.907
X13.485 Y51.074
X13.55 Y51.41
X13.586 Y51.577
X13.705 Y52.08
X13.793 Y52.415
X13.882 Y52.751
X14.019 Y53.253
X14.067 Y53.421
X14.117 Y53.589
X14.177 Y53.756
X14.377 Y54.259
X15.06 Y55.935
X15.136 Y56.103
X15.204 Y56.248
X15.303 Y56.438
X15.394 Y56.606
X15.707 Y57.176
X15.763 Y57.276
X15.874 Y57.469
X15.959 Y57.612
X16.29 Y58.114
X16.625 Y58.617
X16.712 Y58.742
X16.88 Y58.965
X17.396 Y59.623
X17.532 Y59.791
X17.998 Y60.293
X18.468 Y60.796
X18.556 Y60.886
X19.007 Y61.299
X19.227 Y61.495
X19.562 Y61.79
X19.729 Y61.919
X19.897 Y62.045
X20.568 Y62.541
X20.709 Y62.64
X21.07 Y62.868
X21.242 Y62.975
X21.741 Y63.274
X22.244 Y63.537
X22.411 Y63.618
X22.83 Y63.813
X23.249 Y64.001
X23.417 Y64.072
X23.92 Y64.257
X24.423 Y64.42
X24.644 Y64.484
X25.261 Y64.656
X25.429 Y64.699
X25.596 Y64.735
X26.187 Y64.819
X26.602 Y64.88
X26.937 Y64.924
X27.272 Y64.965
X27.608 Y65.004
X27.775 Y65.017
X28.278 Y65.013
X28.781 Y65.
X29.116 Y64.984
X29.284 Y64.975
X29.451 Y64.963
X29.787 Y64.932
X29.954 Y64.912
G3 X30.261 Y65.377 I0.026 J0.316 F513.
G1 X30.225 Y65.417 Z-1.795
X30.189 Y65.456 Z-1.781
X30.156 Y65.493 Z-1.758
X30.114 Y65.509 Z-1.726
X30.077 Y65.523 Z-1.686
X30.048 Y65.534 Z-1.64
X30.026 Y65.542 Z-1.59
X30.012 Y65.544 Z-1.537
X30.007 Z-1.483
G0 Z5.
X44.941 Y65.213
Z-0.965
G1 Z-1.283 F513.
X44.949 Y65.209 Z-1.353
X44.97 Y65.2 Z-1.42
X45.004 Y65.184 Z-1.48
X45.05 Y65.163 Z-1.531
X45.105 Y65.139 Z-1.569
X45.166 Y65.111 Z-1.592
X45.231 Y65.082 Z-1.6
G3 X46.213 Y64.91 I0.826 J1.832
G1 X46.549 Y64.948 F900.
X46.716 Y64.964
X47.219 Y64.993
X47.722 Y65.012
X48.057 Y65.008
X48.225 Y65.005
X48.392 Y64.997
X48.728 Y64.974
X48.895 Y64.961
X49.231 Y64.929
X49.398 Y64.911
X49.901 Y64.835
X50.404 Y64.743
X50.571 Y64.708
X50.739 Y64.671
X50.907 Y64.631
X51.074 Y64.585
X51.577 Y64.427
X52.08 Y64.273
X52.415 Y64.143
X52.583 Y64.07
X53.154 Y63.813
X53.589 Y63.623
X53.756 Y63.545
X54.259 Y63.27
X54.762 Y62.964
X55.279 Y62.64
X55.432 Y62.538
X55.524 Y62.472
X55.768 Y62.292
X55.935 Y62.165
X56.438 Y61.768
X56.8 Y61.467
X56.941 Y61.347
X56.995 Y61.299
X57.505 Y60.796
X58.003 Y60.293
X58.114 Y60.173
X58.45 Y59.781
X59.12 Y58.95
X59.244 Y58.785
X59.288 Y58.725
X59.362 Y58.617
X59.695 Y58.114
X60.019 Y57.612
X60.126 Y57.436
X60.222 Y57.276
X60.293 Y57.152
X60.318 Y57.109
X60.407 Y56.941
X60.667 Y56.438
X60.838 Y56.103
X60.922 Y55.935
X61.137 Y55.432
X61.343 Y54.93
X61.543 Y54.427
X61.608 Y54.259
X61.788 Y53.756
X61.97 Y53.142
X62.082 Y52.751
X62.137 Y52.549
X62.215 Y52.248
X62.257 Y52.08
X62.367 Y51.577
X62.472 Y51.07
X62.503 Y50.907
X62.562 Y50.571
X62.589 Y50.404
X62.654 Y49.901
X62.717 Y49.398
X62.77 Y48.895
X62.781 Y48.728
X62.818 Y47.89
X62.847 Y47.219
X62.846 Y47.051
X62.823 Y46.213
X62.817 Y46.046
X62.795 Y45.543
X62.766 Y45.04
X62.752 Y44.872
X62.668 Y44.034
X62.651 Y43.867
X62.575 Y43.364
X62.378 Y42.191
X62.292 Y41.688
X62.137 Y41.017
X62.058 Y40.682
X62.017 Y40.514
X61.883 Y40.011
X61.74 Y39.509
X61.541 Y38.838
X61.44 Y38.503
X61.387 Y38.335
X61.025 Y37.33
X60.962 Y37.162
X60.796 Y36.727
X60.629 Y36.317
X60.562 Y36.156
X59.734 Y34.312
X59.656 Y34.145
X59.333 Y33.474
X59.288 Y33.385
X59.12 Y33.078
X58.408 Y31.798
X58.114 Y31.282
X58.025 Y31.128
X57.779 Y30.713
X57.725 Y30.625
X56.741 Y29.116
X56.606 Y28.912
X56.292 Y28.446
X55.93 Y27.943
X55.681 Y27.608
X55.057 Y26.769
X54.676 Y26.267
X54.412 Y25.931
X54.259 Y25.738
X54.143 Y25.596
X53.086 Y24.33
X52.739 Y23.92
X52.583 Y23.737
X52.449 Y23.585
X51.211 Y22.244
X50.739 Y21.735
X50.571 Y21.555
X50.236 Y21.22
X49.398 Y20.388
X48.728 Y19.724
X48.56 Y19.56
X48.024 Y19.059
X46.739 Y17.886
X46.367 Y17.55
X46.175 Y17.383
X45.878 Y17.126
X44.705 Y16.131
X44.199 Y15.707
X43.531 Y15.167
X43.029 Y14.763
X42.861 Y14.629
X42.023 Y13.981
X41.439 Y13.528
X40.85 Y13.084
X40.682 Y12.961
X40.347 Y12.723
X40.011 Y12.496
X39.844 Y12.385
X39.792 Y12.354
X39.341 Y12.106
X39.173 Y12.03
X38.838 Y11.91
X38.67 Y11.858
X38.503 Y11.815
X38.335 Y11.783
X38.168 Y11.76
X38. Y11.749
X37.832 Y11.757
X37.665 Y11.775
X37.33 Y11.826
X37.198 Y11.851
X37.162 Y11.862
X36.994 Y11.927
X36.768 Y12.019
X36.659 Y12.077
X36.324 Y12.267
X36.178 Y12.354
X35.938 Y12.522
X35.701 Y12.689
X35.246 Y13.025
X35.15 Y13.095
X34.58 Y13.528
X33.929 Y14.03
X33.474 Y14.39
X32.875 Y14.868
X31.798 Y15.738
X31.235 Y16.209
X30.96 Y16.444
X30.452 Y16.88
X30.122 Y17.161
X29.619 Y17.604
X29.284 Y17.901
X28.563 Y18.556
X28.446 Y18.664
X28.024 Y19.059
X26.79 Y20.232
X26.434 Y20.58
X26.267 Y20.746
X25.134 Y21.909
X24.655 Y22.411
X24.186 Y22.914
X23.138 Y24.088
X22.989 Y24.255
X22.914 Y24.342
X22.244 Y25.149
X21.339 Y26.267
X21.207 Y26.434
X20.946 Y26.769
X20.824 Y26.937
X20.065 Y27.989
X19.617 Y28.613
X19.378 Y28.949
X19.266 Y29.116
X19.049 Y29.451
X18.305 Y30.625
X18.204 Y30.792
X18.003 Y31.128
X17.806 Y31.463
X17.708 Y31.63
X17.611 Y31.798
X16.879 Y33.139
X16.789 Y33.307
X16.712 Y33.455
X16.306 Y34.312
X16.151 Y34.648
X15.613 Y35.821
X15.46 Y36.156
X15.371 Y36.376
X15.191 Y36.827
X15.036 Y37.232
X15. Y37.33
X14.759 Y38.
X14.639 Y38.335
X14.585 Y38.503
X14.48 Y38.838
X14.43 Y39.006
X14.14 Y40.011
X13.996 Y40.514
X13.952 Y40.682
X13.863 Y41.055
X13.834 Y41.185
X13.731 Y41.688
X13.528 Y42.737
X13.505 Y42.861
X13.449 Y43.196
X13.423 Y43.364
X13.358 Y43.867
X13.261 Y44.872
X13.246 Y45.04
X13.203 Y45.543
X13.171 Y46.046
X13.17 Y46.213
X13.18 Y47.722
X13.192 Y48.249
X13.203 Y48.392
X13.233 Y48.728
X13.25 Y48.895
X13.329 Y49.566
X13.426 Y50.404
X13.448 Y50.571
X13.496 Y50.907
X13.522 Y51.074
X13.552 Y51.242
X13.623 Y51.577
X13.74 Y52.08
X13.829 Y52.415
X13.964 Y52.918
X14.101 Y53.421
X14.198 Y53.711
X14.214 Y53.756
X14.404 Y54.259
X14.539 Y54.594
X14.881 Y55.432
X15.09 Y55.935
X15.204 Y56.165
X15.371 Y56.495
X15.707 Y57.114
X15.798 Y57.276
X15.896 Y57.444
X15.995 Y57.612
X16.326 Y58.114
X16.712 Y58.683
X16.782 Y58.785
X16.88 Y58.92
X17.163 Y59.288
X17.383 Y59.568
X17.55 Y59.771
X18.556 Y60.846
X18.724 Y61.006
X19.035 Y61.299
X19.227 Y61.468
X19.562 Y61.755
X20.065 Y62.141
X20.284 Y62.305
X20.568 Y62.514
X20.735 Y62.631
X21.07 Y62.849
X21.238 Y62.956
X21.741 Y63.254
X22.244 Y63.522
X22.411 Y63.602
X22.866 Y63.813
X23.249 Y63.986
X23.417 Y64.059
X23.92 Y64.244
X24.423 Y64.41
X24.59 Y64.459
X25.285 Y64.652
X25.429 Y64.689
X25.596 Y64.726
X26.267 Y64.828
X26.434 Y64.854
G3 X26.605 Y65.385 I-0.059 J0.312 F513.
G1 X26.559 Y65.414 Z-1.595
X26.515 Y65.442 Z-1.581
X26.473 Y65.468 Z-1.558
X26.419 Y65.477 Z-1.518
X26.375 Y65.484 Z-1.468
X26.352 Y65.482 Z-1.43
X26.334 Y65.481 Z-1.39
X26.32 Y65.479 Z-1.337
X26.315 Y65.478 Z-1.283
G0 Z5.
X37.23 Y62.1
Z-0.765
G1 Z-1.082 F513.
X37.231 Y62.092 Z-1.153
X37.235 Y62.069 Z-1.22
X37.242 Y62.032 Z-1.28
X37.251 Y61.982 Z-1.331
X37.261 Y61.923 Z-1.369
X37.273 Y61.857 Z-1.392
X37.285 Y61.787 Z-1.4
G3 X37.695 Y60.878 I1.98 J0.347
G1 X37.766 Y60.796 F900.
X37.799 Y60.764
X37.832 Y60.738
G3 X38.211 Y60.801 I0.148 J0.281 F513.
G1 X38.613 Y61.227
X40.605 Y63.338 F900.
G2 X40.869 Y63.435 I0.231 J-0.218
G3 X40.879 Y63.434 I0.206 J1.999
X41.855 Y63.583 I0.195 J2. F513.
G1 X42.19 Y63.738 F900.
X42.358 Y63.814
X42.861 Y64.037
X43.068 Y64.115
X43.196 Y64.162
X43.364 Y64.222
X43.867 Y64.393
X44.034 Y64.445
X44.37 Y64.541
X44.537 Y64.586
X44.872 Y64.665
X45.04 Y64.702
X45.543 Y64.806
X45.619 Y64.819
X46.046 Y64.885
X46.213 Y64.906
X46.549 Y64.942
X46.716 Y64.958
X47.131 Y64.987
X47.219 Y64.992
X47.722 Y65.003
X48.225 Y65.
X48.392 Y64.992
X48.728 Y64.971
X48.895 Y64.957
X49.231 Y64.92
X49.398 Y64.901
X49.901 Y64.83
X50.404 Y64.735
X50.571 Y64.698
X50.907 Y64.62
X51.074 Y64.574
X51.912 Y64.313
X52.08 Y64.261
X52.415 Y64.13
X53.127 Y63.813
X53.589 Y63.611
X53.756 Y63.529
X54.259 Y63.249
X54.594 Y63.053
X54.762 Y62.951
X54.985 Y62.808
X55.265 Y62.626
X55.432 Y62.513
X55.768 Y62.271
X55.948 Y62.137
X56.371 Y61.802
X56.438 Y61.749
X56.964 Y61.299
X57.137 Y61.132
X57.48 Y60.796
X57.644 Y60.629
X57.971 Y60.293
X58.114 Y60.139
X58.411 Y59.791
X58.547 Y59.623
X58.952 Y59.119
X59.12 Y58.91
X59.213 Y58.785
X59.288 Y58.677
X59.665 Y58.114
X59.989 Y57.612
X60.126 Y57.377
X60.293 Y57.085
X60.371 Y56.941
X60.629 Y56.453
X60.796 Y56.125
X60.883 Y55.935
X61.303 Y54.93
X61.372 Y54.762
X61.505 Y54.427
X61.571 Y54.259
X61.753 Y53.756
X61.902 Y53.253
X61.97 Y53.007
X62.083 Y52.583
X62.212 Y52.08
X62.332 Y51.577
X62.437 Y51.074
X62.472 Y50.878
X62.524 Y50.571
X62.55 Y50.404
X62.619 Y49.901
X62.681 Y49.398
X62.732 Y48.895
X62.744 Y48.728
X62.762 Y48.392
X62.77 Y48.225
X62.787 Y47.722
X62.808 Y47.219
Y47.1
X62.797 Y46.716
X62.786 Y46.381
X62.774 Y46.046
X62.72 Y45.04
X62.708 Y44.872
X62.679 Y44.537
X62.664 Y44.37
X62.63 Y44.034
X62.612 Y43.867
X62.502 Y43.196
X62.247 Y41.688
X62.137 Y41.185
X62.058 Y40.85
X62.018 Y40.682
X61.97 Y40.496
X61.695 Y39.509
X61.549 Y39.006
X61.449 Y38.67
X61.398 Y38.503
X61.345 Y38.335
X61.165 Y37.832
X60.964 Y37.291
X60.629 Y36.418
X60.526 Y36.156
X60.126 Y35.261
X59.791 Y34.52
X59.285 Y33.474
X59.201 Y33.307
X59.115 Y33.139
X58.555 Y32.133
X58.365 Y31.798
X57.879 Y30.96
X57.779 Y30.788
X57.682 Y30.625
X57.246 Y29.954
X56.918 Y29.451
X56.438 Y28.737
X56.242 Y28.446
X55.885 Y27.943
X55.762 Y27.775
X55.263 Y27.105
X54.93 Y26.665
X54.594 Y26.226
X54.233 Y25.764
X54.091 Y25.589
X53.397 Y24.758
X53.253 Y24.586
X52.546 Y23.752
X52.399 Y23.585
X52.247 Y23.417
X51.318 Y22.411
X50.739 Y21.789
X50.37 Y21.406
X50.205 Y21.238
X49.398 Y20.436
X48.685 Y19.729
X48.56 Y19.606
X47.89 Y18.983
X47.554 Y18.673
X46.716 Y17.907
X46.381 Y17.609
X45.878 Y17.169
X45.343 Y16.712
X44.705 Y16.172
X44.146 Y15.707
X43.699 Y15.343
X42.861 Y14.672
X42.685 Y14.533
X41.817 Y13.863
X41.384 Y13.528
X40.85 Y13.126
X40.682 Y13.003
X40.478 Y12.857
X40.347 Y12.764
X40.179 Y12.651
X39.844 Y12.428
X39.719 Y12.354
X39.341 Y12.147
X39.173 Y12.072
X38.838 Y11.953
X38.67 Y11.901
X38.503 Y11.864
X38.335 Y11.829
X38.168 Y11.803
X38. Y11.79
X37.832 Y11.796
X37.665 Y11.808
X37.497 Y11.825
X37.33 Y11.862
X37.162 Y11.913
X36.827 Y12.04
X36.659 Y12.119
X36.242 Y12.354
X36.156 Y12.41
X35.759 Y12.689
X35.653 Y12.765
X35.15 Y13.137
X34.635 Y13.528
X34.145 Y13.906
X33.977 Y14.036
X32.515 Y15.204
X31.798 Y15.782
X31.288 Y16.209
X30.895 Y16.545
X30.112 Y17.215
X29.284 Y17.946
X28.446 Y18.71
X28.073 Y19.059
X27.105 Y19.978
X26.838 Y20.232
X26.267 Y20.795
X25.429 Y21.654
X25.261 Y21.827
X24.238 Y22.914
X24.082 Y23.082
X23.752 Y23.449
X23.249 Y24.012
X22.903 Y24.423
X22.244 Y25.215
X21.909 Y25.622
X21.657 Y25.931
X21.386 Y26.267
X21.238 Y26.452
X20.995 Y26.769
X20.51 Y27.44
X20.065 Y28.06
X19.394 Y29.
X19.092 Y29.451
X19.059 Y29.502
X18.556 Y30.295
X18.457 Y30.457
X18.256 Y30.792
X17.718 Y31.7
X17.661 Y31.798
X17.471 Y32.133
X17.377 Y32.301
X17.011 Y32.971
X16.88 Y33.214
X16.834 Y33.307
X16.209 Y34.627
X15.965 Y35.15
X15.504 Y36.156
X15.436 Y36.324
X15.204 Y36.903
X15.105 Y37.162
X15.036 Y37.345
X14.682 Y38.335
X14.626 Y38.503
X14.522 Y38.838
X14.471 Y39.006
X14.322 Y39.509
X14.129 Y40.179
X14.083 Y40.347
X14.03 Y40.537
X13.995 Y40.682
X13.916 Y41.017
X13.863 Y41.252
X13.767 Y41.688
X13.669 Y42.191
X13.574 Y42.693
X13.545 Y42.861
X13.467 Y43.364
X13.393 Y43.867
X13.329 Y44.537
X13.296 Y44.872
X13.282 Y45.04
X13.234 Y45.711
X13.211 Y46.046
X13.209 Y46.213
X13.208 Y46.549
X13.209 Y46.884
X13.212 Y47.219
X13.221 Y47.722
X13.233 Y48.225
X13.243 Y48.392
X13.269 Y48.728
X13.286 Y48.895
X13.366 Y49.566
X13.464 Y50.404
X13.486 Y50.571
X13.533 Y50.907
X13.56 Y51.074
X13.66 Y51.577
X13.776 Y52.08
X13.819 Y52.248
X14.03 Y53.028
X14.092 Y53.253
X14.143 Y53.421
X14.251 Y53.756
X14.438 Y54.259
X14.635 Y54.762
X14.868 Y55.337
X14.908 Y55.432
X15.13 Y55.935
X15.385 Y56.438
X15.56 Y56.773
X15.707 Y57.052
X15.737 Y57.109
X15.931 Y57.444
X16.031 Y57.612
X16.251 Y57.947
X16.377 Y58.134
X16.825 Y58.785
X16.946 Y58.952
X17.068 Y59.12
X17.194 Y59.288
X17.383 Y59.529
X17.55 Y59.725
X17.609 Y59.791
X18.556 Y60.802
X18.724 Y60.971
X18.891 Y61.135
X19.063 Y61.299
X19.227 Y61.442
X19.562 Y61.72
X20.105 Y62.137
X20.568 Y62.487
X20.735 Y62.605
X21.07 Y62.829
X21.238 Y62.939
X21.406 Y63.039
X21.741 Y63.234
X22.244 Y63.507
X22.411 Y63.588
X22.914 Y63.819
X23.269 Y63.981
X23.417 Y64.045
X23.92 Y64.231
X24.423 Y64.4
X24.59 Y64.448
X25.323 Y64.652
X25.429 Y64.68
X25.596 Y64.718
X25.931 Y64.774
G3 X26.179 Y65.149 I-0.064 J0.311 F513.
X25.804 Y65.397 I-0.311 J-0.064
X25.931 Y64.774 I0.064 J-0.311 F900.
X26.065 Y64.836 I-0.064 J0.311
G1 X26.48 Y65.165
G3 X26.086 Y65.663 I-0.197 J0.249
X26.151 Y65.125 I0.197 J-0.249
X26.161 Y65.121 I0.836 J1.828
X27.133 Y64.948 I0.827 J1.832 F513.
G1 X27.272 Y64.963 F900.
X27.608 Y64.993
X27.775 Y65.004
X28.11 Y65.01
X28.203 Y65.012
G3 X28.446 Y65.513 I-0.015 J0.317 F513.
G1 X28.404 Y65.548 Z-1.395
X28.364 Y65.582 Z-1.381
X28.326 Y65.614 Z-1.358
X28.28 Y65.625 Z-1.324
X28.241 Y65.634 Z-1.282
X28.209 Y65.641 Z-1.234
X28.187 Y65.646 Z-1.18
X28.176 Z-1.132
X28.172 Z-1.083
G0 Z5.
X37.202 Y62.136
Z-0.565
G1 Z-0.882 F513.
X37.203 Y62.128 Z-0.953
X37.207 Y62.105 Z-1.02
X37.214 Y62.067 Z-1.08
X37.222 Y62.018 Z-1.131
X37.233 Y61.958 Z-1.169
X37.244 Y61.892 Z-1.192
X37.256 Y61.823 Z-1.2
G3 X37.665 Y60.913 I1.98 J0.343
G1 X37.764 Y60.796 F900.
X37.798 Y60.763
X37.832 Y60.737
X37.874 Y60.713
X37.916 Y60.697
X37.958 Y60.687
X38. Y60.683
X38.042 Y60.684
X38.084 Y60.691
X38.126 Y60.705
X38.168 Y60.725
X38.21 Y60.754
X38.253 Y60.796
G3 X38.044 Y61.313 I-0.246 J0.201 F513.
G1 X38.007 Y61.315 Z-1.198
X37.953 Y61.301 Z-1.186
X37.902 Y61.288 Z-1.164
X37.856 Y61.276 Z-1.133
X37.822 Y61.25 Z-1.092
X37.794 Y61.228 Z-1.044
X37.774 Y61.212 Z-0.99
X37.765 Y61.202 Z-0.937
X37.762 Y61.198 Z-0.883
G0 Z5.
X45.986 Y65.424
Z-0.565
G1 Z-0.882 F513.
X45.992 Y65.42 Z-0.953
X46.013 Y65.408 Z-1.02
X46.045 Y65.389 Z-1.08
X46.089 Y65.363 Z-1.131
X46.141 Y65.333 Z-1.169
X46.199 Y65.299 Z-1.192
X46.26 Y65.264 Z-1.2
G3 X47.219 Y64.99 I1.013 J1.736
G1 X47.722 Y64.995 F900.
X48.225 Y64.991
X48.35 Y64.987
X48.728 Y64.966
X48.895 Y64.952
X49.398 Y64.891
X49.901 Y64.825
X50.069 Y64.792
X50.404 Y64.724
X50.571 Y64.686
X50.907 Y64.608
X51.074 Y64.563
X51.577 Y64.41
X52.08 Y64.249
X52.334 Y64.149
X52.415 Y64.114
X52.583 Y64.039
X53.253 Y63.747
X53.589 Y63.598
X53.756 Y63.511
X54.427 Y63.134
X54.594 Y63.04
X54.762 Y62.937
X54.959 Y62.808
X55.265 Y62.603
X55.454 Y62.472
X55.768 Y62.251
X55.935 Y62.129
X56.138 Y61.97
X56.438 Y61.72
X56.941 Y61.29
X57.109 Y61.132
X57.282 Y60.964
X57.452 Y60.796
X57.947 Y60.286
X58.098 Y60.126
X58.38 Y59.791
X58.787 Y59.288
X58.952 Y59.078
X59.12 Y58.865
X59.18 Y58.785
X59.632 Y58.114
X59.742 Y57.947
X59.958 Y57.61
X60.054 Y57.444
X60.293 Y57.017
X60.516 Y56.606
X60.604 Y56.438
X60.796 Y56.035
X61.328 Y54.762
X61.467 Y54.424
X61.533 Y54.259
X61.718 Y53.756
X61.863 Y53.253
X61.907 Y53.086
X62.296 Y51.577
X62.305 Y51.539
X62.402 Y51.074
X62.433 Y50.907
X62.486 Y50.571
X62.512 Y50.404
X62.585 Y49.901
X62.643 Y49.398
X62.694 Y48.895
X62.707 Y48.728
X62.726 Y48.392
X62.734 Y48.225
X62.749 Y47.722
X62.769 Y47.219
X62.767 Y47.051
X62.758 Y46.716
X62.751 Y46.549
X62.708 Y45.711
X62.673 Y45.04
X62.651 Y44.705
X62.64 Y44.537
X62.626 Y44.37
X62.589 Y44.034
X62.569 Y43.867
X62.202 Y41.688
X62.098 Y41.185
X62.057 Y41.017
X61.97 Y40.676
X61.927 Y40.514
X61.506 Y39.006
X61.457 Y38.838
X61.358 Y38.503
X61.299 Y38.323
X61.123 Y37.832
X60.545 Y36.324
X60.48 Y36.156
X60.267 Y35.653
X60.042 Y35.15
X59.958 Y34.971
X59.723 Y34.48
X59.156 Y33.307
X59.12 Y33.236
X58.952 Y32.921
X58.889 Y32.804
X58.609 Y32.301
X57.733 Y30.792
X57.635 Y30.625
X57.53 Y30.457
X57.423 Y30.29
X57.276 Y30.065
X56.941 Y29.558
X56.193 Y28.446
X55.842 Y27.943
X55.718 Y27.775
X55.432 Y27.392
X55.087 Y26.937
X54.427 Y26.073
X54.19 Y25.764
X54.091 Y25.643
X53.589 Y25.041
X52.496 Y23.752
X52.248 Y23.469
X51.735 Y22.914
X50.739 Y21.841
X50.483 Y21.573
X50.322 Y21.406
X50.236 Y21.318
X49.063 Y20.151
X48.638 Y19.729
X48.461 Y19.562
X47.379 Y18.556
X47.013 Y18.221
X46.716 Y17.95
X45.878 Y17.215
X45.492 Y16.88
X45.295 Y16.712
X44.698 Y16.209
X44.094 Y15.707
X43.682 Y15.371
X42.693 Y14.581
X42.358 Y14.322
X41.52 Y13.674
X41.328 Y13.528
X40.85 Y13.167
X40.514 Y12.924
X40.347 Y12.804
X40.011 Y12.581
X39.844 Y12.47
X39.676 Y12.37
X39.339 Y12.187
X39.173 Y12.108
X39.006 Y12.041
X38.838 Y11.992
X38.67 Y11.947
X38.503 Y11.907
X38.335 Y11.871
X38.233 Y11.851
X38. Y11.831
X37.832 Y11.834
X37.665 Y11.848
X37.497 Y11.871
X37.33 Y11.902
X37.162 Y11.957
X36.827 Y12.083
X36.659 Y12.155
X36.491 Y12.237
X36.304 Y12.354
X36.156 Y12.453
X35.818 Y12.689
X35.653 Y12.806
X35.318 Y13.054
X35.131 Y13.192
X34.648 Y13.56
X34.473 Y13.695
X34.044 Y14.03
X32.301 Y15.421
X31.798 Y15.826
X31.295 Y16.248
X30.946 Y16.545
X30.122 Y17.253
X29.404 Y17.886
X29.218 Y18.053
X28.481 Y18.724
X28.11 Y19.069
X27.413 Y19.729
X27.061 Y20.065
X26.937 Y20.184
X26.267 Y20.845
X25.764 Y21.357
X25.717 Y21.406
X25.24 Y21.909
X24.088 Y23.133
X23.92 Y23.315
X23.752 Y23.5
X23.527 Y23.752
X23.38 Y23.92
X23.237 Y24.088
X21.842 Y25.764
X21.406 Y26.299
X21.297 Y26.434
X21.169 Y26.602
X21.043 Y26.769
X20.68 Y27.272
X19.483 Y28.949
X19.367 Y29.116
X19.138 Y29.451
X19.059 Y29.568
X18.724 Y30.098
X17.616 Y31.966
X17.418 Y32.301
X17.143 Y32.804
X17.048 Y32.987
X16.88 Y33.319
X16.712 Y33.672
X16.013 Y35.15
X15.778 Y35.653
X15.539 Y36.176
X15.21 Y36.994
X15.146 Y37.162
X15.084 Y37.33
X14.701 Y38.4
X14.666 Y38.503
X14.533 Y38.939
X14.361 Y39.509
X14.198 Y40.071
X14.12 Y40.347
X14.079 Y40.514
X13.804 Y41.688
X13.695 Y42.244
X13.618 Y42.693
X13.59 Y42.861
X13.433 Y43.867
X13.398 Y44.202
X13.38 Y44.37
X13.36 Y44.597
X13.337 Y44.872
X13.324 Y45.04
X13.255 Y46.046
X13.25 Y46.213
X13.244 Y46.549
Y46.716
X13.25 Y47.219
X13.274 Y48.225
X13.283 Y48.392
X13.306 Y48.728
X13.322 Y48.895
X13.443 Y49.901
X13.502 Y50.404
X13.543 Y50.739
X13.567 Y50.907
X13.598 Y51.074
X13.697 Y51.577
X13.811 Y52.08
X13.863 Y52.277
X14.082 Y53.086
X14.13 Y53.253
X14.288 Y53.756
X14.663 Y54.762
X14.701 Y54.861
X14.868 Y55.272
X14.936 Y55.432
X15.172 Y55.935
X15.598 Y56.773
X15.707 Y56.987
X15.773 Y57.109
X16.042 Y57.572
X16.067 Y57.612
X16.291 Y57.947
X16.88 Y58.801
X17.103 Y59.12
X17.215 Y59.276
X17.383 Y59.49
X17.55 Y59.68
X17.65 Y59.791
X18.591 Y60.796
X18.753 Y60.964
X18.918 Y61.132
X19.059 Y61.27
X19.227 Y61.418
X19.562 Y61.684
X20.587 Y62.472
X20.735 Y62.579
X21.07 Y62.809
X21.238 Y62.921
X21.406 Y63.02
X21.741 Y63.214
X22.244 Y63.492
X22.411 Y63.573
X23.249 Y63.958
X23.301 Y63.981
X23.417 Y64.031
X23.92 Y64.217
X24.423 Y64.389
X24.59 Y64.438
X25.356 Y64.652
X25.429 Y64.672
X25.596 Y64.709
X26.099 Y64.798
X26.602 Y64.88
X26.862 Y64.914
X27.105 Y64.945
X27.272 Y64.96
X27.686 Y64.987
X27.775 Y64.991
X28.278 Y65.012
X28.781 Y65.
X28.99 Y64.987
X29.284 Y64.966
X29.451 Y64.952
X29.787 Y64.922
X29.954 Y64.904
X30.289 Y64.854
X30.457 Y64.827
X30.96 Y64.719
X31.463 Y64.603
X31.63 Y64.56
X31.906 Y64.484
G3 X32.279 Y64.898 I0.073 J0.309 F513.
G1 X32.249 Y64.943 Z-1.195
X32.22 Y64.987 Z-1.181
X32.193 Y65.028 Z-1.158
X32.153 Y65.051 Z-1.126
X32.119 Y65.07 Z-1.086
X32.092 Y65.085 Z-1.04
X32.071 Y65.097 Z-0.99
X32.058 Y65.1 Z-0.937
X32.053 Y65.102 Z-0.883
G0 Z5.
X37.204 Y62.135
Z-0.365
G1 Z-0.683 F513.
X37.206 Y62.127 Z-0.753
X37.21 Y62.104 Z-0.82
X37.216 Y62.067 Z-0.88
X37.225 Y62.017 Z-0.931
X37.235 Y61.958 Z-0.969
X37.246 Y61.892 Z-0.992
X37.258 Y61.822 Z-1.
G3 X37.665 Y60.911 I1.981 J0.339
G1 X37.763 Y60.796 F900.
X37.798 Y60.763
X37.832 Y60.736
X37.874 Y60.712
X37.916 Y60.696
X37.958 Y60.686
X38. Y60.682
X38.042 Y60.684
X38.084 Y60.691
X38.126 Y60.704
X38.168 Y60.724
X38.21 Y60.754
X38.253 Y60.796
X38.503 Y61.081
X38.707 Y61.299
X38.838 Y61.438
X39.206 Y61.802
G3 X39.279 Y62.111 I-0.231 J0.218 F513.
G2 X39.41 Y62.468 I0.304 J0.091
G1 X39.625 Y62.609
X41.661 Y63.936 F900.
G2 X41.893 Y63.983 I0.173 J-0.266
G3 X41.904 Y63.981 I0.372 J1.975
X42.889 Y64.047 I0.362 J1.977 F513.
G1 X43.029 Y64.098 F900.
X43.196 Y64.157
X43.867 Y64.384
X44.034 Y64.436
X44.37 Y64.535
X44.537 Y64.579
X45.543 Y64.803
X45.647 Y64.819
X46.046 Y64.872
X46.213 Y64.891
X46.549 Y64.927
X46.716 Y64.945
X47.175 Y64.987
X47.219 Y64.988
X47.89 Y64.985
X48.225 Y64.982
X48.392 Y64.975
X48.728 Y64.957
X48.895 Y64.942
X49.901 Y64.818
X50.404 Y64.712
X50.667 Y64.652
X50.907 Y64.595
X51.074 Y64.551
X51.41 Y64.453
X51.577 Y64.403
X52.08 Y64.236
X52.3 Y64.149
X52.415 Y64.1
X53.086 Y63.81
X53.253 Y63.736
X53.589 Y63.583
X54.427 Y63.114
X54.594 Y63.02
X54.762 Y62.923
X54.934 Y62.808
X55.432 Y62.463
X55.897 Y62.137
X56.111 Y61.97
X56.309 Y61.802
X56.941 Y61.261
X57.079 Y61.132
X57.276 Y60.94
X57.421 Y60.796
X58.069 Y60.126
X58.35 Y59.791
X58.785 Y59.252
X58.952 Y59.034
X59.142 Y58.785
X59.288 Y58.572
X59.71 Y57.947
X59.921 Y57.612
X59.958 Y57.548
X60.298 Y56.941
X60.484 Y56.606
X60.571 Y56.438
X60.796 Y55.928
X61.467 Y54.323
X61.492 Y54.259
X61.683 Y53.756
X61.818 Y53.253
X62.251 Y51.577
X62.364 Y51.074
X62.394 Y50.907
X62.499 Y50.236
X62.55 Y49.901
X62.604 Y49.398
X62.656 Y48.895
X62.668 Y48.728
X62.688 Y48.392
X62.697 Y48.225
X62.717 Y47.722
X62.73 Y47.219
X62.726 Y47.051
X62.713 Y46.716
X62.705 Y46.549
X62.598 Y44.537
X62.585 Y44.37
X62.545 Y44.034
X62.523 Y43.867
X62.156 Y41.688
X62.058 Y41.185
X62.017 Y41.017
X61.879 Y40.514
X61.411 Y38.838
X61.364 Y38.67
X61.299 Y38.449
X61.261 Y38.335
X61.074 Y37.832
X60.432 Y36.156
X60.234 Y35.653
X59.958 Y35.064
X59.12 Y33.333
X58.937 Y32.971
X58.848 Y32.804
X58.56 Y32.301
X57.587 Y30.625
X57.489 Y30.457
X57.444 Y30.387
X57.271 Y30.122
X56.103 Y28.387
X55.915 Y28.11
X55.8 Y27.943
X55.265 Y27.237
X54.141 Y25.764
X54.091 Y25.7
X53.924 Y25.498
X53.724 Y25.261
X52.583 Y23.915
X52.415 Y23.719
X52.248 Y23.525
X52.152 Y23.417
X50.739 Y21.895
X50.571 Y21.717
X50.274 Y21.406
X48.728 Y19.866
X48.588 Y19.729
X48.392 Y19.546
X46.967 Y18.221
X46.591 Y17.886
X45.375 Y16.821
X45.208 Y16.679
X44.537 Y16.119
X44.034 Y15.701
X43.631 Y15.371
X42.526 Y14.491
X41.493 Y13.695
X41.185 Y13.462
X40.826 Y13.192
X40.347 Y12.845
X40.114 Y12.689
X39.844 Y12.511
X39.676 Y12.408
X39.263 Y12.187
X39.173 Y12.15
X39.006 Y12.083
X38.776 Y12.019
X38.67 Y11.994
X38.335 Y11.919
X38.168 Y11.887
X38. Y11.873
X37.832
X37.665 Y11.882
X37.497 Y11.912
X37.33 Y11.949
X37.162 Y12.001
X36.827 Y12.128
X36.684 Y12.187
X36.491 Y12.28
X36.324 Y12.381
X36.156 Y12.494
X35.821 Y12.729
X35.64 Y12.857
X35.318 Y13.095
X35.15 Y13.22
X34.648 Y13.602
X34.48 Y13.732
X33.977 Y14.131
X31.966 Y15.736
X31.794 Y15.874
X31.195 Y16.377
X30.96 Y16.577
X30.219 Y17.215
X30.122 Y17.299
X29.451 Y17.89
X29.085 Y18.221
X28.446 Y18.803
X28.17 Y19.059
X27.44 Y19.749
X27.272 Y19.909
X27.105 Y20.071
X26.937 Y20.235
X26.259 Y20.903
X25.927 Y21.238
X25.093 Y22.123
X23.876 Y23.417
X23.725 Y23.585
X23.576 Y23.752
X23.417 Y23.938
X21.48 Y26.267
X21.344 Y26.434
X21.238 Y26.57
X21.07 Y26.799
X19.536 Y28.949
X19.182 Y29.451
X19.069 Y29.619
X18.764 Y30.122
X17.471 Y32.301
X17.374 Y32.469
X17.184 Y32.804
X17.099 Y32.971
X16.857 Y33.474
X15.747 Y35.821
X15.592 Y36.156
X15.523 Y36.324
X15.32 Y36.827
X15.204 Y37.12
X15.126 Y37.33
X14.766 Y38.335
X14.701 Y38.532
X14.656 Y38.67
X14.353 Y39.676
X14.253 Y40.011
X14.167 Y40.347
X14.125 Y40.514
X14.084 Y40.682
X13.848 Y41.688
X13.742 Y42.191
X13.714 Y42.358
X13.478 Y43.867
X13.417 Y44.37
X13.402 Y44.537
X13.298 Y46.046
X13.291 Y46.213
X13.28 Y46.549
Y46.716
X13.311 Y48.057
X13.315 Y48.225
X13.323 Y48.392
X13.343 Y48.728
X13.357 Y48.895
X13.56 Y50.571
X13.608 Y50.907
X13.635 Y51.074
X13.734 Y51.577
X13.847 Y52.08
X13.863 Y52.144
X14.119 Y53.086
X14.166 Y53.253
X14.325 Y53.756
X14.701 Y54.763
X14.764 Y54.93
X14.895 Y55.265
X14.964 Y55.432
X15.214 Y55.935
X15.724 Y56.941
X15.814 Y57.109
X16.042 Y57.509
X16.104 Y57.612
X17.215 Y59.225
X17.387 Y59.455
X17.691 Y59.791
X18.724 Y60.894
X18.949 Y61.132
X19.059 Y61.242
X19.227 Y61.39
X19.394 Y61.52
X20.633 Y62.472
X20.735 Y62.548
X21.098 Y62.808
X21.238 Y62.903
X21.741 Y63.194
X22.246 Y63.478
X22.411 Y63.559
X23.249 Y63.943
X23.332 Y63.981
X23.417 Y64.017
X23.77 Y64.149
X23.92 Y64.204
X24.423 Y64.378
X24.59 Y64.428
X25.429 Y64.662
X25.596 Y64.701
X26.273 Y64.819
X26.602 Y64.876
X26.769 Y64.899
X27.105 Y64.939
X27.272 Y64.953
X28.278 Y65.001
X28.781 Y64.998
X28.949 Y64.985
X29.787 Y64.91
X29.954 Y64.893
X30.289 Y64.85
X30.457 Y64.827
X31.463 Y64.594
X31.63 Y64.553
X31.966 Y64.466
X32.133 Y64.415
X33.139 Y64.04
X33.566 Y63.865
G3 X33.987 Y64.23 I0.11 J0.298 F513.
G1 X33.963 Y64.279 Z-0.995
X33.939 Y64.326 Z-0.981
X33.917 Y64.37 Z-0.958
X33.88 Y64.397 Z-0.926
X33.849 Y64.42 Z-0.886
X33.823 Y64.439 Z-0.84
X33.805 Y64.453 Z-0.79
X33.792 Y64.458 Z-0.737
X33.787 Y64.46 Z-0.683
G0 Z5.
X16.598 Y60.599
Z-0.165
G1 Z-0.482 F513.
X16.604 Y60.593 Z-0.553
X16.622 Y60.578 Z-0.62
X16.65 Y60.553 Z-0.68
X16.688 Y60.519 Z-0.731
X16.733 Y60.479 Z-0.769
X16.783 Y60.435 Z-0.792
X16.836 Y60.388 Z-0.8
G3 X17.65 Y59.811 I3.069 J3.467
G1 X17.692 Y59.79 F900.
X17.74 Y59.792
X17.78 Y59.817
X19.011 Y61.132
X19.059 Y61.176
X19.227 Y61.323
X19.401 Y61.467
X20.735 Y62.492
X21.169 Y62.808
X21.238 Y62.853
X21.741 Y63.144
X22.244 Y63.429
X22.34 Y63.478
X22.914 Y63.743
X23.249 Y63.897
X23.417 Y63.97
X23.92 Y64.158
X24.423 Y64.334
X24.59 Y64.384
X25.093 Y64.524
X25.561 Y64.652
X25.764 Y64.688
X26.602 Y64.833
X26.769 Y64.856
X27.105 Y64.896
X27.272 Y64.91
X28.278 Y64.958
X28.781 Y64.955
X28.949 Y64.942
X29.787 Y64.867
X29.954 Y64.85
X30.289 Y64.808
X30.457 Y64.784
X31.463 Y64.551
X31.63 Y64.509
X31.966 Y64.422
X32.133 Y64.37
X33.139 Y63.995
X33.307 Y63.926
X33.642 Y63.787
X33.81 Y63.706
X34.648 Y63.277
X34.815 Y63.19
X34.983 Y63.098
X35.15 Y63.002
X35.318 Y62.899
X35.821 Y62.57
X35.956 Y62.472
X36.392 Y62.137
X36.491 Y62.054
X36.591 Y61.97
X37.098 Y61.467
X37.162 Y61.402
X37.416 Y61.132
X37.497 Y61.044
X37.708 Y60.796
X37.77 Y60.726
X37.801 Y60.696
X37.832 Y60.672
X37.881 Y60.646
X37.929 Y60.629
X37.964 Y60.622
X38. Y60.618
X38.045 Y60.62
X38.09 Y60.629
X38.129 Y60.642
X38.168 Y60.661
X38.203 Y60.684
X38.238 Y60.716
X38.503 Y61.017
X38.838 Y61.375
X38.927 Y61.467
X39.435 Y61.97
X39.509 Y62.033
X39.634 Y62.137
X40.071 Y62.472
X40.179 Y62.55
X40.682 Y62.883
X40.85 Y62.986
X41.017 Y63.086
X41.185 Y63.182
X41.52 Y63.36
X41.742 Y63.478
X41.855 Y63.531
X42.837 Y63.981
X42.861 Y63.991
X43.196 Y64.112
X43.364 Y64.169
X43.867 Y64.34
X44.034 Y64.392
X44.37 Y64.491
X44.537 Y64.536
X45.543 Y64.761
X45.711 Y64.785
X46.046 Y64.829
X46.213 Y64.849
X46.549 Y64.885
X46.716 Y64.902
X47.051 Y64.933
X47.219 Y64.946
X48.057 Y64.941
X48.225 Y64.94
X48.392 Y64.933
X48.728 Y64.914
X48.895 Y64.899
X49.901 Y64.775
X50.404 Y64.669
X50.907 Y64.552
X51.074 Y64.508
X51.41 Y64.409
X51.577 Y64.358
X52.08 Y64.192
X52.248 Y64.127
X53.086 Y63.764
X53.421 Y63.616
X53.589 Y63.532
X53.756 Y63.44
X54.427 Y63.064
X54.762 Y62.872
X54.86 Y62.808
X55.581 Y62.305
X55.82 Y62.137
X55.935 Y62.053
X56.042 Y61.97
X56.103 Y61.919
X56.941 Y61.202
X57.018 Y61.132
X57.276 Y60.88
X57.52 Y60.629
X58.006 Y60.126
X58.114 Y60.005
X58.292 Y59.791
X58.698 Y59.288
X58.785 Y59.177
X59.12 Y58.731
X59.201 Y58.617
X59.653 Y57.947
X59.761 Y57.779
X59.866 Y57.612
X59.961 Y57.444
X60.461 Y56.552
X60.518 Y56.438
X60.737 Y55.935
X61.367 Y54.427
X61.436 Y54.259
X61.632 Y53.756
X61.849 Y52.918
X62.195 Y51.577
X62.312 Y51.074
X62.343 Y50.907
X62.474 Y50.069
X62.5 Y49.901
X62.57 Y49.231
X62.605 Y48.895
X62.618 Y48.728
X62.64 Y48.345
X62.646 Y48.225
X62.669 Y47.722
X62.679 Y47.219
X62.673 Y47.051
X62.649 Y46.549
X62.542 Y44.537
X62.53 Y44.37
X62.472 Y43.892
X62.101 Y41.688
X62.004 Y41.185
X61.97 Y41.046
X61.355 Y38.838
X61.259 Y38.503
X61.207 Y38.335
X60.952 Y37.665
X60.245 Y35.821
X60.179 Y35.653
X60.126 Y35.537
X59.86 Y34.983
X59.12 Y33.454
X58.88 Y32.971
X58.785 Y32.793
X57.526 Y30.625
X57.444 Y30.489
X57.208 Y30.122
X55.854 Y28.11
X55.736 Y27.943
X55.6 Y27.762
X54.076 Y25.764
X53.941 Y25.596
X52.918 Y24.389
X52.521 Y23.92
X52.232 Y23.585
X52.08 Y23.412
X50.571 Y21.788
X50.368 Y21.573
X50.236 Y21.437
X48.689 Y19.897
X48.56 Y19.772
X48.337 Y19.562
X47.051 Y18.366
X46.884 Y18.213
X46.516 Y17.886
X45.368 Y16.88
X45.17 Y16.712
X44.705 Y16.322
X43.965 Y15.707
X43.699 Y15.489
X43.531 Y15.354
X42.5 Y14.533
X41.632 Y13.863
X41.413 Y13.695
X40.85 Y13.27
X40.347 Y12.905
X40.276 Y12.857
X39.844 Y12.569
X39.772 Y12.522
X39.676 Y12.467
X39.509 Y12.374
X39.341 Y12.284
X39.173 Y12.205
X39.006 Y12.137
X38.838 Y12.091
X38.67 Y12.05
X38.335 Y11.974
X38.168 Y11.943
X38. Y11.924
X37.832
X37.665 Y11.936
X37.497 Y11.958
X37.259 Y12.019
X36.823 Y12.187
X36.659 Y12.259
X36.474 Y12.354
X36.324 Y12.438
X36.201 Y12.522
X35.723 Y12.857
X35.653 Y12.907
X35.15 Y13.281
X34.605 Y13.695
X34.312 Y13.928
X31.798 Y15.934
X31.27 Y16.377
X30.625 Y16.929
X30.457 Y17.073
X30.101 Y17.383
X29.451 Y17.956
X28.949 Y18.411
X28.422 Y18.891
X28.241 Y19.059
X27.355 Y19.897
X27.105 Y20.139
X26.267 Y20.965
X25.998 Y21.238
X23.92 Y23.446
X23.752 Y23.635
X23.501 Y23.92
X21.549 Y26.267
X21.276 Y26.602
X19.227 Y29.474
X19.129 Y29.619
X19.059 Y29.732
X17.437 Y32.469
X17.215 Y32.851
X17.157 Y32.971
X16.442 Y34.48
X15.649 Y36.156
X15.58 Y36.324
X15.444 Y36.659
X15.244 Y37.162
X15.204 Y37.266
X14.821 Y38.335
X14.766 Y38.503
X14.66 Y38.838
X14.306 Y40.011
X14.263 Y40.179
X14.179 Y40.514
X14.1 Y40.85
X13.903 Y41.688
X13.796 Y42.191
X13.768 Y42.358
X13.533 Y43.867
X13.511 Y44.034
X13.47 Y44.37
X13.455 Y44.537
X13.351 Y46.046
X13.344 Y46.213
X13.332 Y46.549
Y46.716
X13.367 Y48.225
X13.375 Y48.392
X13.393 Y48.728
X13.407 Y48.895
X13.589 Y50.404
X13.612 Y50.571
X13.66 Y50.907
X13.687 Y51.074
X13.785 Y51.577
X13.898 Y52.08
X13.942 Y52.248
X14.198 Y53.188
X14.218 Y53.253
X14.378 Y53.756
X14.753 Y54.762
X14.817 Y54.93
X14.947 Y55.265
X15.016 Y55.432
X15.371 Y56.134
X15.781 Y56.941
X15.874 Y57.115
X16.064 Y57.444
X16.164 Y57.612
X17.215 Y59.138
X17.32 Y59.288
X17.383 Y59.376
X17.604 Y59.623
X17.718 Y59.75
X17.78 Y59.817
G3 X17.588 Y60.34 I-0.239 J0.209 F513.
G1 X17.541 Y60.343 Z-0.797
X17.487 Y60.329 Z-0.782
X17.435 Y60.316 Z-0.758
X17.389 Y60.305 Z-0.725
X17.358 Y60.281 Z-0.686
X17.333 Y60.262 Z-0.64
X17.315 Y60.248 Z-0.59
X17.305 Y60.238 Z-0.537
X17.302 Y60.234 Z-0.483
G0 Z5.
X16.926 Y60.842
Z0.035
G1 Z-0.282 F513.
X16.931 Y60.835 Z-0.353
X16.944 Y60.816 Z-0.42
X16.965 Y60.785 Z-0.48
X16.993 Y60.743 Z-0.531
X17.027 Y60.693 Z-0.569
X17.064 Y60.637 Z-0.592
X17.104 Y60.579 Z-0.6
G3 X17.748 Y59.817 I3.837 J2.592
G1 X17.86 Y59.718 F900.
X17.885
X17.909 Y59.726
X17.928 Y59.742
X17.972 Y59.791
X18.914 Y60.796
X19.059 Y60.949
X19.243 Y61.132
X19.394 Y61.26
X19.562 Y61.391
X20.969 Y62.472
X21.07 Y62.548
X21.196 Y62.64
X21.238 Y62.667
X21.766 Y62.975
X22.244 Y63.25
X22.361 Y63.311
X22.914 Y63.569
X23.249 Y63.723
X23.417 Y63.798
X23.92 Y63.99
X24.255 Y64.113
X24.423 Y64.17
X24.59 Y64.219
X25.093 Y64.36
X25.54 Y64.484
X25.596 Y64.495
X26.099 Y64.586
X26.602 Y64.673
X26.769 Y64.696
X27.105 Y64.738
X27.272 Y64.751
X28.278 Y64.8
X28.781 Y64.796
X28.949 Y64.783
X29.954 Y64.693
X30.122 Y64.677
X30.289 Y64.654
X30.457 Y64.622
X31.463 Y64.389
X31.63 Y64.346
X31.966 Y64.254
X32.133 Y64.201
X33.139 Y63.826
X33.17 Y63.813
X33.642 Y63.61
X33.81 Y63.528
X34.648 Y63.099
X34.815 Y63.011
X35.318 Y62.712
X35.653 Y62.501
X35.693 Y62.472
X35.914 Y62.305
X36.349 Y61.97
X36.491 Y61.841
X36.659 Y61.68
X37.162 Y61.18
X37.209 Y61.132
X37.355 Y60.964
X37.5 Y60.796
X37.665 Y60.603
X37.79 Y60.461
X37.82 Y60.439
X37.85 Y60.419
X37.883 Y60.401
X37.916 Y60.386
G3 X38.002 Y60.817 I0.043 J0.215 F513.
X37.773 Y60.717 I-0.043 J-0.215
X37.79 Y60.461 I0.188 J-0.116
G1 X37.832 Y60.426 F900.
X37.874 Y60.403
X37.916 Y60.386
X37.958 Y60.376
X38. Y60.372
X38.042 Y60.374
X38.084 Y60.381
X38.126 Y60.394
X38.168 Y60.414
X38.199 Y60.434
X38.231 Y60.461
X38.373 Y60.629
X38.519 Y60.796
X38.672 Y60.964
X39.006 Y61.318
X39.173 Y61.487
X39.509 Y61.816
X39.676 Y61.97
X40.179 Y62.355
X40.347 Y62.482
X40.514 Y62.591
X40.682 Y62.697
X41.185 Y63.
X41.352 Y63.093
X41.755 Y63.311
X42.849 Y63.813
X43.364 Y64.001
X43.867 Y64.173
X44.034 Y64.226
X44.37 Y64.328
X44.537 Y64.374
X45.543 Y64.598
X45.711 Y64.625
X45.894 Y64.652
X46.046 Y64.672
X46.549 Y64.726
X46.716 Y64.743
X47.051 Y64.775
X47.219 Y64.788
X48.057 Y64.783
X48.225 Y64.781
X48.392 Y64.775
X48.728 Y64.755
X48.895 Y64.74
X49.901 Y64.615
X50.404 Y64.506
X50.739 Y64.428
X50.907 Y64.389
X51.074 Y64.344
X51.41 Y64.243
X51.577 Y64.192
X51.912 Y64.08
X52.08 Y64.023
X52.583 Y63.809
X53.086 Y63.591
X53.253 Y63.513
X53.658 Y63.311
X53.756 Y63.259
X54.261 Y62.975
X54.762 Y62.681
X54.826 Y62.64
X55.783 Y61.97
X55.935 Y61.852
X56.271 Y61.567
X56.777 Y61.132
X56.972 Y60.964
X57.138 Y60.796
X57.624 Y60.293
X57.947 Y59.947
X58.089 Y59.791
X58.617 Y59.136
X58.952 Y58.699
X59.01 Y58.617
X59.349 Y58.114
X59.683 Y57.612
X59.791 Y57.424
X60.293 Y56.529
X60.338 Y56.438
X60.565 Y55.935
X61.335 Y54.092
X61.466 Y53.756
X61.634 Y53.118
X62.032 Y51.577
X62.151 Y51.074
X62.183 Y50.907
X62.314 Y50.069
X62.34 Y49.901
X62.394 Y49.398
X62.446 Y48.895
X62.459 Y48.728
X62.488 Y48.225
X62.511 Y47.722
X62.521 Y47.219
X62.515 Y47.051
X62.49 Y46.549
X62.384 Y44.537
X62.371 Y44.37
X62.33 Y44.034
X62.308 Y43.867
X61.912 Y41.52
X61.882 Y41.352
X61.842 Y41.185
X61.797 Y41.017
X61.237 Y39.006
X61.141 Y38.67
X61.092 Y38.503
X61.039 Y38.335
X60.204 Y36.156
X60.006 Y35.653
X59.958 Y35.55
X58.952 Y33.471
X58.87 Y33.307
X58.698 Y32.971
X58.617 Y32.82
X57.441 Y30.792
X57.341 Y30.625
X57.017 Y30.122
X55.889 Y28.446
X55.768 Y28.269
X55.537 Y27.943
X55.411 Y27.775
X54.132 Y26.099
X53.871 Y25.764
X53.756 Y25.622
X52.415 Y24.041
X52.019 Y23.585
X51.912 Y23.465
X50.312 Y21.741
X50.236 Y21.663
X49.643 Y21.07
X48.633 Y20.065
X48.105 Y19.562
X47.023 Y18.556
X46.839 Y18.389
X46.381 Y17.978
X45.319 Y17.048
X45.04 Y16.807
X43.699 Y15.692
X43.509 Y15.539
X42.457 Y14.701
X42.358 Y14.623
X41.52 Y13.976
X41.352 Y13.848
X40.85 Y13.468
X40.347 Y13.101
X40.179 Y12.981
X39.995 Y12.857
X39.844 Y12.758
X39.734 Y12.689
X39.341 Y12.465
X39.173 Y12.386
X38.838 Y12.263
X38.67 Y12.212
X38.335 Y12.135
X38.168 Y12.108
X37.749 Y12.086
X37.707 Y12.094
X37.259 Y12.187
X36.743 Y12.388
X36.701 Y12.407
X36.659 Y12.43
X36.235 Y12.689
X35.989 Y12.862
X35.821 Y12.981
X35.653 Y13.104
X35.15 Y13.48
X34.648 Y13.864
X34.437 Y14.03
X32.301 Y15.735
X31.798 Y16.139
X31.295 Y16.563
X30.792 Y16.993
X30.341 Y17.383
X29.58 Y18.053
X29.025 Y18.556
X28.473 Y19.059
X27.407 Y20.065
X27.236 Y20.232
X26.267 Y21.187
X26.216 Y21.238
X25.742 Y21.741
X24.088 Y23.499
X24.009 Y23.585
X23.712 Y23.92
X23.585 Y24.067
X21.893 Y26.099
X21.741 Y26.284
X21.353 Y26.769
X21.231 Y26.937
X19.394 Y29.511
X19.323 Y29.619
X19.113 Y29.954
X19.059 Y30.043
X17.422 Y32.804
X17.383 Y32.873
X17.093 Y33.474
X15.824 Y36.156
X15.749 Y36.324
X15.539 Y36.847
X15.371 Y37.268
X14.989 Y38.335
X14.934 Y38.503
X14.827 Y38.838
X14.774 Y39.006
X14.471 Y40.011
X14.385 Y40.347
X14.342 Y40.514
X14.302 Y40.682
X14.066 Y41.688
X13.957 Y42.191
X13.928 Y42.358
X13.693 Y43.867
X13.629 Y44.37
X13.614 Y44.537
X13.51 Y46.046
X13.503 Y46.213
X13.49 Y46.549
Y46.716
X13.528 Y48.293
X13.552 Y48.728
X13.567 Y48.895
X13.749 Y50.404
X13.771 Y50.571
X13.82 Y50.907
X13.848 Y51.074
X13.946 Y51.577
X14.062 Y52.08
X14.106 Y52.248
X14.366 Y53.202
X14.547 Y53.756
X14.922 Y54.762
X14.987 Y54.93
X15.121 Y55.265
X15.192 Y55.432
X15.959 Y56.941
X16.042 Y57.096
X16.248 Y57.444
X16.356 Y57.612
X17.395 Y59.12
X17.524 Y59.288
X17.909 Y59.721
X17.928 Y59.742
G3 X17.728 Y60.262 I-0.242 J0.206 F513.
G1 X17.686 Y60.265 Z-0.597
X17.632 Y60.251 Z-0.584
X17.581 Y60.238 Z-0.561
X17.534 Y60.226 Z-0.529
X17.502 Y60.201 Z-0.489
X17.476 Y60.181 Z-0.442
X17.457 Y60.167 Z-0.39
X17.447 Y60.156 Z-0.337
X17.444 Y60.153 Z-0.283
G0 Z5.
X19.736 Y62.391
Z0.235
G1 Z-0.083 F513.
X19.743 Y62.386 Z-0.153
X19.762 Y62.372 Z-0.22
X19.792 Y62.35 Z-0.28
X19.833 Y62.32 Z-0.331
X19.882 Y62.285 Z-0.369
X19.936 Y62.245 Z-0.392
X19.993 Y62.204 Z-0.4
X20.316 Y61.969
X20.407 Y61.85 F900.
X20.551 Y61.809
X20.7 Y61.791
X20.877 Y61.784
X21.096 Y61.793
X21.372 Y61.828
X21.841 Y61.924
X22.55 Y62.131
X23.243 Y62.384
X23.935 Y62.64
X24.635 Y62.872
X25.344 Y63.075
X26.063 Y63.241
X26.791 Y63.361
X27.525 Y63.44
X28.262 Y63.465
X29. Y63.448
X29.734 Y63.375
X30.462 Y63.257
X31.181 Y63.088
X31.888 Y62.877
X32.579 Y62.621
X33.256 Y62.326
X33.916 Y61.997
X34.552 Y61.622
X35.152 Y61.194
X35.716 Y60.717
X36.244 Y60.202
X36.475 Y60.006
X36.667 Y59.868
X36.839 Y59.764
X36.998 Y59.685
X37.148 Y59.625
X37.292 Y59.58
X37.438 Y59.547
X37.587 Y59.527
X37.737 Y59.521
X37.886 Y59.53
X38.034 Y59.554
X38.198 Y59.597
X38.404 Y59.67
X38.661 Y59.784
X39.024 Y59.981
X39.642 Y60.384
X40.237 Y60.821
X40.841 Y61.244
X41.463 Y61.641
X42.107 Y62.001
X42.767 Y62.331
X43.445 Y62.621
X44.138 Y62.873
X44.846 Y63.083
X45.565 Y63.246
X46.293 Y63.368
X47.028 Y63.437
X47.765 Y63.462
X48.502 Y63.436
X49.237 Y63.362
X49.964 Y63.241
X50.683 Y63.072
X51.386 Y62.85
X52.076 Y62.588
X52.748 Y62.285
X53.404 Y61.947
X54.038 Y61.568
X54.65 Y61.156
X55.238 Y60.711
X55.801 Y60.234
X56.339 Y59.729
X56.848 Y59.195
X57.333 Y58.639
X57.787 Y58.057
X58.214 Y57.456
X58.612 Y56.834
X58.974 Y56.192
X59.301 Y55.53
X59.608 Y54.859
X59.903 Y54.183
X60.15 Y53.488
X60.369 Y52.783
X60.571 Y52.073
X60.75 Y51.358
X60.9 Y50.635
X61.017 Y49.907
X61.107 Y49.175
X61.171 Y48.44
X61.201 Y47.702
X61.199 Y46.965
X61.18 Y46.227
X61.151 Y45.49
X61.094 Y44.754
X61.006 Y44.022
X60.902 Y43.291
X60.789 Y42.562
X60.644 Y41.839
X60.474 Y41.121
X60.291 Y40.406
X60.099 Y39.694
X59.877 Y38.99
X59.635 Y38.293
X59.382 Y37.6
X59.122 Y36.909
X58.833 Y36.231
X58.528 Y35.558
X58.216 Y34.89
X57.893 Y34.226
X57.549 Y33.574
X57.192 Y32.928
X56.829 Y32.286
X56.453 Y31.651
X56.062 Y31.025
X55.661 Y30.406
X55.254 Y29.791
X54.836 Y29.183
X54.404 Y28.584
X53.965 Y27.992
X53.521 Y27.402
X53.066 Y26.821
X52.601 Y26.249
X52.13 Y25.681
X51.653 Y25.117
X51.167 Y24.563
X50.673 Y24.014
X50.176 Y23.47
X49.671 Y22.931
X49.158 Y22.401
X48.64 Y21.875
X48.118 Y21.354
X47.589 Y20.84
X47.054 Y20.332
X46.515 Y19.828
X45.971 Y19.33
X45.421 Y18.838
X44.868 Y18.349
X44.309 Y17.868
X43.746 Y17.391
X43.178 Y16.92
X42.606 Y16.454
X42.03 Y15.993
X41.45 Y15.536
X40.867 Y15.085
X40.278 Y14.64
X39.677 Y14.213
X39.034 Y13.85
X38.674 Y13.769
X37.937 Y13.736
X37.224 Y13.925
X36.555 Y14.236
X35.921 Y14.615
X35.313 Y15.032
X34.719 Y15.47
X34.133 Y15.919
X33.552 Y16.373
X32.976 Y16.834
X32.407 Y17.303
X31.842 Y17.778
X31.283 Y18.259
X30.728 Y18.745
X30.177 Y19.236
X29.631 Y19.733
X29.09 Y20.234
X28.553 Y20.741
X28.022 Y21.253
X27.498 Y21.772
X26.982 Y22.299
X26.471 Y22.831
X25.962 Y23.366
X25.457 Y23.903
X24.962 Y24.451
X24.478 Y25.007
X23.999 Y25.569
X23.524 Y26.133
X23.053 Y26.701
X22.596 Y27.28
X22.152 Y27.87
X21.715 Y28.464
X21.282 Y29.062
X20.854 Y29.662
X20.445 Y30.277
X20.052 Y30.901
X19.667 Y31.53
X19.286 Y32.162
X18.909 Y32.797
X18.559 Y33.446
X18.225 Y34.104
X17.9 Y34.766
X17.579 Y35.431
X17.263 Y36.097
X16.966 Y36.773
X16.689 Y37.457
X16.427 Y38.146
X16.185 Y38.844
X15.957 Y39.545
X15.751 Y40.254
X15.563 Y40.967
X15.389 Y41.684
X15.243 Y42.407
X15.112 Y43.133
X15.001 Y43.863
X14.919 Y44.596
X14.852 Y45.331
X14.811 Y46.067
X14.797 Y46.805
X14.8 Y47.543
X14.834 Y48.28
X14.893 Y49.015
X14.969 Y49.749
X15.072 Y50.48
X15.208 Y51.205
X15.371 Y51.925
X15.565 Y52.636
X15.789 Y53.339
X16.035 Y54.035
X16.32 Y54.716
X16.629 Y55.386
X16.961 Y56.044
X17.333 Y56.682
X17.727 Y57.306
X18.144 Y57.914
X18.599 Y58.495
X19.078 Y59.057
X19.573 Y59.603
X20.187 Y60.013
X20.874 Y60.282
X21.577 Y60.505
X22.282 Y60.723
X22.981 Y60.959
X23.678 Y61.203
X24.377 Y61.438
X25.083 Y61.653
X25.797 Y61.836
X26.521 Y61.98
X27.252 Y62.078
X27.988 Y62.127
X28.726 Y62.122
X29.462 Y62.06
X30.19 Y61.944
X30.908 Y61.775
X31.613 Y61.557
X32.302 Y61.293
X32.972 Y60.983
X33.615 Y60.621
X34.222 Y60.202
X34.796 Y59.738
X35.315 Y59.328
X35.694 Y59.076
X36.013 Y58.898
X36.31 Y58.763
X36.586 Y58.663
X36.845 Y58.592
X37.097 Y58.545
X37.35 Y58.518
X37.613 Y58.511
X37.894 Y58.526
X38.203 Y58.568
X38.519 Y58.637
X38.914 Y58.758
X39.356 Y58.932
X40.019 Y59.258
X40.653 Y59.635
X41.278 Y60.026
X41.91 Y60.406
X42.555 Y60.765
X43.217 Y61.091
X43.896 Y61.379
X44.592 Y61.624
X45.303 Y61.823
X46.025 Y61.974
X46.756 Y62.073
X47.493 Y62.119
X48.23 Y62.111
X48.965 Y62.047
X49.693 Y61.927
X50.41 Y61.752
X51.112 Y61.526
X51.798 Y61.254
X52.465 Y60.937
X53.109 Y60.578
X53.73 Y60.18
X54.324 Y59.742
X54.891 Y59.27
X55.429 Y58.765
X55.937 Y58.23
X56.416 Y57.669
X56.864 Y57.082
X57.278 Y56.472
X57.657 Y55.839
X58.005 Y55.188
X58.329 Y54.525
X58.619 Y53.847
X58.875 Y53.155
X59.105 Y52.454
X59.309 Y51.745
X59.484 Y51.028
X59.627 Y50.304
X59.741 Y49.575
X59.824 Y48.842
X59.874 Y48.106
X59.895 Y47.369
X59.894 Y46.631
X59.87 Y45.893
X59.82 Y45.157
X59.746 Y44.423
X59.655 Y43.691
X59.539 Y42.962
X59.399 Y42.238
X59.238 Y41.518
X59.061 Y40.801
X58.862 Y40.091
X58.641 Y39.387
X58.405 Y38.688
X58.154 Y37.994
X57.883 Y37.308
X57.594 Y36.629
X57.293 Y35.956
X56.977 Y35.289
X56.645 Y34.63
X56.3 Y33.978
X55.943 Y33.332
X55.574 Y32.693
X55.191 Y32.062
X54.798 Y31.438
X54.396 Y30.82
X53.981 Y30.209
X53.556 Y29.606
X53.123 Y29.009
X52.681 Y28.418
X52.229 Y27.835
X51.768 Y27.259
X51.301 Y26.688
X50.825 Y26.124
X50.342 Y25.566
X49.852 Y25.015
X49.355 Y24.469
X48.851 Y23.93
X48.341 Y23.397
X47.825 Y22.87
X47.303 Y22.349
X46.775 Y21.833
X46.242 Y21.323
X45.703 Y20.819
X45.159 Y20.321
X44.611 Y19.827
X44.057 Y19.339
X43.498 Y18.857
X42.935 Y18.381
X42.368 Y17.909
X41.796 Y17.443
X41.22 Y16.981
X40.64 Y16.525
X40.055 Y16.076
X39.454 Y15.648
X39.11 Y15.516
X38.385 Y15.378
X37.653 Y15.472
X36.957 Y15.716
X36.3 Y16.052
X35.673 Y16.441
X35.067 Y16.862
X34.474 Y17.301
X33.892 Y17.754
X33.318 Y18.218
X32.751 Y18.69
X32.189 Y19.168
X31.633 Y19.653
X31.081 Y20.143
X30.535 Y20.639
X29.993 Y21.14
X29.457 Y21.647
X28.927 Y22.16
X28.403 Y22.68
X27.886 Y23.206
X27.373 Y23.736
X26.865 Y24.271
X26.364 Y24.812
X25.871 Y25.362
X25.386 Y25.917
X24.905 Y26.478
X24.431 Y27.043
X23.968 Y27.617
X23.514 Y28.199
X23.07 Y28.788
X22.631 Y29.381
X22.201 Y29.981
X21.785 Y30.59
X21.382 Y31.208
X20.988 Y31.832
X20.601 Y32.46
X20.227 Y33.096
X19.868 Y33.741
X19.524 Y34.393
X19.191 Y35.051
X18.864 Y35.713
X18.55 Y36.381
X18.251 Y37.055
X17.968 Y37.737
X17.703 Y38.425
X17.455 Y39.12
X17.227 Y39.822
X17.018 Y40.529
X16.827 Y41.242
X16.658 Y41.96
X16.509 Y42.683
X16.382 Y43.41
X16.277 Y44.14
X16.195 Y44.873
X16.138 Y45.609
X16.105 Y46.346
X16.097 Y47.084
X16.116 Y47.821
X16.16 Y48.558
X16.227 Y49.292
X16.324 Y50.024
X16.45 Y50.751
X16.608 Y51.472
X16.798 Y52.185
X17.017 Y52.889
X17.27 Y53.582
X17.553 Y54.263
X17.867 Y54.931
X18.214 Y55.583
X18.589 Y56.218
X18.995 Y56.834
X19.434 Y57.427
X19.903 Y57.996
X20.471 Y58.467
X21.111 Y58.835
X21.785 Y59.135
X22.471 Y59.405
X23.163 Y59.661
X23.858 Y59.909
X24.558 Y60.142
X25.265 Y60.354
X25.981 Y60.533
X26.706 Y60.669
X27.439 Y60.756
X28.176 Y60.787
X28.913 Y60.76
X29.646 Y60.672
X30.369 Y60.525
X31.077 Y60.32
X31.767 Y60.058
X32.432 Y59.737
X33.064 Y59.357
X33.672 Y58.939
X34.276 Y58.516
X34.852 Y58.156
X35.314 Y57.915
X35.743 Y57.735
X36.153 Y57.599
X36.548 Y57.503
X36.943 Y57.44
X37.343 Y57.409
X37.747 Y57.41
X38.176 Y57.446
X38.637 Y57.522
X39.18 Y57.657
X39.724 Y57.84
X40.403 Y58.13
X41.058 Y58.469
X41.702 Y58.829
X42.345 Y59.191
X42.997 Y59.537
X43.662 Y59.855
X44.345 Y60.135
X45.044 Y60.371
X45.759 Y60.556
X46.485 Y60.687
X47.219 Y60.76
X47.957 Y60.773
X48.692 Y60.719
X49.421 Y60.602
X50.137 Y60.425
X50.837 Y60.192
X51.517 Y59.906
X52.175 Y59.571
X52.806 Y59.189
X53.408 Y58.762
X53.979 Y58.295
X54.518 Y57.792
X55.024 Y57.255
X55.497 Y56.688
X55.934 Y56.094
X56.334 Y55.474
X56.702 Y54.835
X57.037 Y54.177
X57.336 Y53.503
X57.603 Y52.815
X57.838 Y52.115
X58.042 Y51.406
X58.214 Y50.689
X58.354 Y49.964
X58.461 Y49.234
X58.534 Y48.5
X58.576 Y47.764
X58.592 Y47.026
X58.581 Y46.288
X58.543 Y45.551
X58.481 Y44.816
X58.396 Y44.083
X58.286 Y43.354
X58.153 Y42.628
X57.999 Y41.907
X57.822 Y41.19
X57.623 Y40.48
X57.406 Y39.775
X57.17 Y39.075
X56.915 Y38.383
X56.643 Y37.697
X56.354 Y37.018
X56.05 Y36.346
X55.73 Y35.682
X55.395 Y35.024
X55.047 Y34.373
X54.685 Y33.73
X54.311 Y33.094
X53.925 Y32.465
X53.528 Y31.844
X53.119 Y31.229
X52.7 Y30.622
X52.272 Y30.022
X51.833 Y29.428
X51.385 Y28.842
X50.929 Y28.262
X50.464 Y27.689
X49.991 Y27.123
X49.51 Y26.563
X49.022 Y26.01
X48.527 Y25.463
X48.025 Y24.922
X47.517 Y24.388
X47.002 Y23.859
X46.481 Y23.337
X45.954 Y22.82
X45.422 Y22.309
X44.884 Y21.804
X44.341 Y21.305
X43.792 Y20.811
X43.239 Y20.323
X42.681 Y19.841
X42.118 Y19.364
X41.55 Y18.892
X40.979 Y18.426
X40.403 Y17.965
X39.82 Y17.511
X39.504 Y17.322
X39.16 Y17.189
X38.437 Y17.039
X37.704 Y17.123
X37.005 Y17.357
X36.343 Y17.684
X35.713 Y18.067
X35.106 Y18.487
X34.515 Y18.929
X33.937 Y19.387
X33.367 Y19.856
X32.805 Y20.334
X32.249 Y20.819
X31.699 Y21.311
X31.155 Y21.809
X30.616 Y22.312
X30.083 Y22.823
X29.556 Y23.34
X29.035 Y23.862
X28.52 Y24.39
X28.01 Y24.923
X27.507 Y25.463
X27.011 Y26.01
X26.523 Y26.562
X26.04 Y27.12
X25.565 Y27.685
X25.1 Y28.258
X24.644 Y28.838
X24.196 Y29.424
X23.756 Y30.016
X23.327 Y30.616
X22.91 Y31.225
X22.503 Y31.841
X22.107 Y32.463
X21.721 Y33.092
X21.35 Y33.73
X20.992 Y34.375
X20.646 Y35.027
X20.311 Y35.684
X19.987 Y36.347
X19.677 Y37.016
X19.383 Y37.693
X19.106 Y38.377
X18.847 Y39.068
X18.606 Y39.765
X18.385 Y40.469
X18.184 Y41.179
X18.004 Y41.895
X17.846 Y42.615
X17.71 Y43.34
X17.598 Y44.07
X17.51 Y44.802
X17.446 Y45.537
X17.41 Y46.274
X17.4 Y47.012
X17.417 Y47.749
X17.461 Y48.486
X17.534 Y49.22
X17.638 Y49.951
X17.774 Y50.676
X17.943 Y51.394
X18.146 Y52.103
X18.382 Y52.802
X18.652 Y53.489
X18.956 Y54.161
X19.294 Y54.817
X19.666 Y55.454
X20.073 Y56.069
X20.534 Y56.646
X21.083 Y57.139
X21.698 Y57.546
X22.351 Y57.89
X23.024 Y58.193
X23.709 Y58.468
X24.402 Y58.72
X25.104 Y58.947
X25.816 Y59.141
X26.537 Y59.294
X27.268 Y59.397
X28.005 Y59.439
X28.742 Y59.415
X29.474 Y59.324
X30.195 Y59.166
X30.897 Y58.94
X31.573 Y58.644
X32.221 Y58.291
X32.85 Y57.905
X33.476 Y57.515
X34.116 Y57.148
X34.742 Y56.844
X35.322 Y56.619
X35.86 Y56.458
X36.384 Y56.346
X36.911 Y56.277
X37.449 Y56.25
X38.009 Y56.267
X38.581 Y56.331
X39.179 Y56.446
X39.861 Y56.636
X40.554 Y56.891
X41.227 Y57.191
X41.887 Y57.521
X42.541 Y57.863
X43.198 Y58.2
X43.864 Y58.517
X44.545 Y58.801
X45.242 Y59.041
X45.956 Y59.227
X46.684 Y59.352
X47.419 Y59.411
X48.157 Y59.398
X48.89 Y59.315
X49.611 Y59.16
X50.315 Y58.937
X50.996 Y58.654
X51.65 Y58.312
X52.274 Y57.918
X52.864 Y57.476
X53.419 Y56.99
X53.937 Y56.464
X54.415 Y55.902
X54.854 Y55.309
X55.254 Y54.689
X55.617 Y54.047
X55.943 Y53.385
X56.232 Y52.706
X56.485 Y52.013
X56.704 Y51.308
X56.888 Y50.594
X57.035 Y49.871
X57.147 Y49.141
X57.223 Y48.408
X57.268 Y47.671
X57.283 Y46.933
X57.269 Y46.196
X57.228 Y45.459
X57.16 Y44.724
X57.067 Y43.993
X56.948 Y43.264
X56.806 Y42.54
X56.64 Y41.821
X56.452 Y41.108
X56.243 Y40.4
X56.014 Y39.699
X55.765 Y39.004
X55.498 Y38.317
X55.213 Y37.636
X54.911 Y36.963
X54.593 Y36.297
X54.26 Y35.639
X53.913 Y34.988
X53.551 Y34.345
X53.177 Y33.709
X52.79 Y33.08
X52.392 Y32.459
X51.982 Y31.846
X51.562 Y31.24
X51.131 Y30.641
X50.69 Y30.049
X50.241 Y29.464
X49.782 Y28.886
X49.315 Y28.315
X48.839 Y27.751
X48.356 Y27.193
X47.866 Y26.642
X47.368 Y26.097
X46.863 Y25.559
X46.352 Y25.027
X45.834 Y24.501
X45.311 Y23.982
X44.781 Y23.468
X44.246 Y22.96
X43.705 Y22.458
X43.159 Y21.962
X42.608 Y21.472
X42.051 Y20.987
X41.49 Y20.508
X40.925 Y20.034
X40.354 Y19.566
X39.779 Y19.104
X39.453 Y18.932
X38.753 Y18.697
X38.015 Y18.705
X37.3 Y18.886
X36.624 Y19.181
X35.983 Y19.547
X35.37 Y19.958
X34.777 Y20.397
X34.199 Y20.855
X33.632 Y21.327
X33.073 Y21.808
X32.521 Y22.298
X31.976 Y22.796
X31.437 Y23.3
X30.905 Y23.811
X30.379 Y24.328
X29.859 Y24.851
X29.344 Y25.38
X28.836 Y25.915
X28.335 Y26.457
X27.841 Y27.005
X27.354 Y27.559
X26.875 Y28.12
X26.404 Y28.688
X25.942 Y29.263
X25.488 Y29.845
X25.044 Y30.434
X24.61 Y31.031
X24.187 Y31.635
X23.775 Y32.247
X23.374 Y32.866
X22.984 Y33.493
X22.608 Y34.128
X22.245 Y34.77
X21.894 Y35.419
X21.555 Y36.074
X21.229 Y36.736
X20.917 Y37.405
X20.621 Y38.081
X20.343 Y38.764
X20.083 Y39.455
X19.843 Y40.152
X19.623 Y40.856
X19.424 Y41.567
X19.248 Y42.283
X19.094 Y43.005
X18.965 Y43.731
X18.86 Y44.462
X18.782 Y45.196
X18.731 Y45.932
X18.708 Y46.669
X18.713 Y47.407
X18.747 Y48.144
X18.812 Y48.879
X18.911 Y49.61
X19.045 Y50.336
X19.214 Y51.054
X19.42 Y51.762
X19.662 Y52.459
X19.942 Y53.142
X20.258 Y53.809
X20.612 Y54.456
X21.015 Y55.074
X21.504 Y55.627
X22.069 Y56.101
X22.686 Y56.505
X23.337 Y56.852
X24.009 Y57.157
X24.696 Y57.427
X25.396 Y57.659
X26.109 Y57.849
X26.833 Y57.989
X27.567 Y58.067
X28.305 Y58.076
X29.04 Y58.008
X29.762 Y57.858
X30.463 Y57.628
X31.139 Y57.331
X31.793 Y56.991
X32.438 Y56.633
X33.086 Y56.279
X33.746 Y55.949
X34.424 Y55.658
X35.108 Y55.421
X35.771 Y55.25
X36.426 Y55.136
X37.085 Y55.075
X37.75 Y55.067
X38.429 Y55.114
X39.15 Y55.222
X39.869 Y55.39
X40.573 Y55.61
X41.262 Y55.875
X41.937 Y56.173
X42.602 Y56.492
X43.265 Y56.816
X43.933 Y57.13
X44.612 Y57.419
X45.306 Y57.668
X46.017 Y57.864
X46.744 Y57.992
X47.48 Y58.043
X48.217 Y58.013
X48.947 Y57.902
X49.659 Y57.71
X50.347 Y57.442
X51.003 Y57.105
X51.624 Y56.707
X52.206 Y56.254
X52.747 Y55.752
X53.243 Y55.206
X53.695 Y54.622
X54.102 Y54.007
X54.467 Y53.366
X54.79 Y52.702
X55.073 Y52.021
X55.316 Y51.325
X55.52 Y50.616
X55.685 Y49.896
X55.811 Y49.169
X55.899 Y48.437
X55.952 Y47.701
X55.972 Y46.963
X55.96 Y46.226
X55.918 Y45.489
X55.848 Y44.755
X55.751 Y44.023
X55.628 Y43.296
X55.479 Y42.573
X55.306 Y41.856
X55.11 Y41.145
X54.892 Y40.44
X54.653 Y39.742
X54.394 Y39.051
X54.117 Y38.367
X53.821 Y37.691
X53.508 Y37.023
X53.18 Y36.362
X52.836 Y35.709
X52.477 Y35.065
X52.105 Y34.427
X51.72 Y33.798
X51.322 Y33.177
X50.913 Y32.563
X50.493 Y31.956
X50.062 Y31.358
X49.621 Y30.766
X49.17 Y30.182
X48.711 Y29.604
X48.242 Y29.034
X47.766 Y28.471
X47.281 Y27.915
X46.789 Y27.365
X46.29 Y26.822
X45.784 Y26.285
X45.271 Y25.755
X44.751 Y25.231
X44.226 Y24.713
X43.694 Y24.201
X43.157 Y23.696
X42.614 Y23.196
X42.066 Y22.702
X41.512 Y22.214
X40.954 Y21.732
X40.391 Y21.255
X39.823 Y20.784
X39.502 Y20.602
X38.81 Y20.347
X38.072 Y20.341
X37.355 Y20.517
X36.678 Y20.81
X36.038 Y21.177
X35.428 Y21.591
X34.838 Y22.035
X34.265 Y22.499
X33.703 Y22.977
X33.151 Y23.467
X32.606 Y23.965
X32.07 Y24.471
X31.539 Y24.984
X31.016 Y25.504
X30.498 Y26.03
X29.988 Y26.562
X29.484 Y27.102
X28.987 Y27.647
X28.498 Y28.199
X28.016 Y28.758
X27.543 Y29.324
X27.078 Y29.897
X26.622 Y30.477
X26.176 Y31.065
X25.741 Y31.661
X25.316 Y32.264
X24.902 Y32.875
X24.5 Y33.493
X24.111 Y34.12
X23.734 Y34.755
X23.371 Y35.397
X23.02 Y36.046
X22.682 Y36.701
X22.358 Y37.365
X22.05 Y38.035
X21.759 Y38.713
X21.486 Y39.398
X21.233 Y40.092
X21.001 Y40.792
X20.79 Y41.499
X20.602 Y42.212
X20.438 Y42.932
X20.298 Y43.656
X20.185 Y44.385
X20.099 Y45.118
X20.042 Y45.854
X20.015 Y46.591
X20.019 Y47.329
X20.055 Y48.066
X20.126 Y48.8
X20.233 Y49.53
X20.378 Y50.254
X20.562 Y50.968
X20.785 Y51.671
X21.048 Y52.361
X21.353 Y53.033
X21.714 Y53.676
X22.157 Y54.266
X22.683 Y54.784
X23.273 Y55.227
X23.906 Y55.605
X24.569 Y55.928
X25.254 Y56.203
X25.957 Y56.427
X26.676 Y56.593
X27.407 Y56.691
X28.145 Y56.704
X28.879 Y56.625
X29.597 Y56.455
X30.292 Y56.209
X30.967 Y55.911
X31.629 Y55.586
X32.29 Y55.257
X32.956 Y54.94
X33.634 Y54.649
X34.326 Y54.394
X35.034 Y54.184
X35.754 Y54.024
X36.484 Y53.917
X37.22 Y53.867
X37.958 Y53.872
X38.693 Y53.932
X39.422 Y54.045
X40.141 Y54.21
X40.848 Y54.421
X41.542 Y54.672
X42.225 Y54.953
X42.898 Y55.254
X43.568 Y55.563
X44.242 Y55.864
X44.925 Y56.143
X45.624 Y56.378
X46.342 Y56.55
X47.073 Y56.645
X47.811 Y56.652
X48.543 Y56.559
X49.256 Y56.37
X49.94 Y56.093
X50.586 Y55.737
X51.188 Y55.31
X51.739 Y54.819
X52.239 Y54.277
X52.688 Y53.692
X53.088 Y53.071
X53.439 Y52.422
X53.743 Y51.75
X54.002 Y51.059
X54.214 Y50.353
X54.383 Y49.634
X54.509 Y48.907
X54.594 Y48.175
X54.642 Y47.438
X54.654 Y46.701
X54.633 Y45.963
X54.58 Y45.227
X54.497 Y44.494
X54.385 Y43.765
X54.245 Y43.04
X54.08 Y42.321
X53.889 Y41.608
X53.675 Y40.902
X53.439 Y40.204
X53.181 Y39.512
X52.904 Y38.828
X52.608 Y38.153
X52.294 Y37.485
X51.963 Y36.825
X51.616 Y36.174
X51.255 Y35.531
X50.88 Y34.896
X50.491 Y34.268
X50.09 Y33.649
X49.677 Y33.038
X49.252 Y32.435
X48.817 Y31.839
X48.372 Y31.25
X47.917 Y30.669
X47.453 Y30.096
X46.98 Y29.529
X46.499 Y28.97
X46.01 Y28.417
X45.514 Y27.871
X45.01 Y27.332
X44.499 Y26.8
X43.982 Y26.274
X43.458 Y25.754
X42.928 Y25.241
X42.392 Y24.734
X41.851 Y24.233
X41.304 Y23.737
X40.751 Y23.248
X40.194 Y22.765
X39.622 Y22.3
X39.283 Y22.154
X38.565 Y21.981
X37.83 Y22.045
X37.127 Y22.269
X36.466 Y22.596
X35.841 Y22.987
X35.243 Y23.42
X34.666 Y23.88
X34.103 Y24.357
X33.553 Y24.849
X33.012 Y25.351
X32.48 Y25.861
