(1)
(CONTOUR PASS)
(T2  D=1.587 CR=0.794 - ZMIN=-8.55 - BALL END MILL)
G0 G90 G94 G17
G21
G53 Z0.

(CONTOUR1)
M5
M9
T2
S12000 M3
G55
M9
G0 X14.743 Y45.323
Z15.
Z0.078
G1 Z-1.2 F700.
G2 X14.914 Y45.178 I0.013 J-0.158
G1 X14.933 Y44.933 F900.
X14.941 Y44.848
X14.985 Y44.425
X14.995 Y44.341
X15.047 Y43.918
X15.059 Y43.834
X15.121 Y43.411
X15.134 Y43.326
X15.205 Y42.904
X15.219 Y42.819
X15.299 Y42.396
X15.316 Y42.312
X15.404 Y41.889
X15.421 Y41.812
X15.506 Y41.439
X15.519 Y41.382
X15.602 Y41.044
X15.623 Y40.959
X15.712 Y40.621
X15.734 Y40.536
X15.758 Y40.452
X15.844 Y40.143
X15.852 Y40.114
X15.952 Y39.775
X15.977 Y39.691
X16.083 Y39.353
X16.098 Y39.306
X16.193 Y39.014
X16.221 Y38.93
X16.307 Y38.676
X16.336 Y38.592
X16.426 Y38.338
X16.436 Y38.31
X16.456 Y38.254
X16.52 Y38.078
X16.549 Y38.
X16.645 Y37.746
X16.677 Y37.662
X16.743 Y37.493
X16.774 Y37.414
X16.844 Y37.239
X16.859 Y37.202
X16.912 Y37.07
X16.943 Y36.995
X16.982 Y36.901
X17.017 Y36.816
X17.366 Y36.003
X17.381 Y35.971
X17.73 Y35.21
X17.77 Y35.125
X18.141 Y34.364
X18.185 Y34.28
X18.55 Y33.575
X18.579 Y33.519
X18.997 Y32.758
X19.045 Y32.673
X19.436 Y31.997
X19.48 Y31.923
X19.903 Y31.228
X19.95 Y31.152
X20.41 Y30.432
X20.437 Y30.391
X20.918 Y29.673
X20.948 Y29.63
X21.425 Y28.947
X21.481 Y28.869
X21.932 Y28.25
X21.975 Y28.192
X22.017 Y28.137
X22.488 Y27.516
X22.524 Y27.468
X22.554 Y27.432
X23.032 Y26.825
X23.087 Y26.755
X23.116 Y26.72
X23.641 Y26.079
X23.708 Y25.998
X24.216 Y25.4
X24.286 Y25.318
X24.808 Y24.722
X24.88 Y24.641
X25.414 Y24.05
X25.484 Y23.974
X25.992 Y23.428
X26.043 Y23.373
X26.608 Y22.781
X26.668 Y22.72
X27.176 Y22.203
X27.188 Y22.19
X27.26 Y22.118
X27.697 Y21.682
X27.767 Y21.613
X28.303 Y21.09
X28.359 Y21.037
X28.835 Y20.583
X28.867 Y20.553
X29.377 Y20.076
X29.459 Y20.
X29.882 Y19.612
X29.93 Y19.569
X30.304 Y19.23
X30.389 Y19.154
X30.812 Y18.779
X30.875 Y18.723
X31.261 Y18.385
X31.319 Y18.334
X31.488 Y18.188
X31.554 Y18.131
X31.657 Y18.042
X31.742 Y17.97
X31.849 Y17.878
X31.911 Y17.825
X32.048 Y17.709
X32.08 Y17.681
X32.249 Y17.538
X32.334 Y17.466
X32.419 Y17.395
X32.448 Y17.37
X32.548 Y17.286
X32.588 Y17.253
X32.672 Y17.182
X32.75 Y17.117
X33.011 Y16.9
X33.055 Y16.863
X33.365 Y16.61
X33.433 Y16.554
X34.025 Y16.078
X34.1 Y16.018
X34.786 Y15.476
X34.851 Y15.426
X35.125 Y15.213
X35.177 Y15.172
X35.463 Y14.952
X35.506 Y14.919
X35.632 Y14.822
X35.717 Y14.758
X35.801 Y14.693
X35.838 Y14.665
X35.95 Y14.58
X35.97 Y14.565
X36.062 Y14.496
X36.139 Y14.437
X36.174 Y14.411
X36.224 Y14.374
X36.309 Y14.311
X36.393 Y14.248
X36.516 Y14.158
X36.562 Y14.124
X36.731 Y14.001
X36.749 Y13.989
X36.901 Y13.881
X36.985 Y13.823
X36.991 Y13.819
X37.07 Y13.765
X37.154 Y13.709
X37.239 Y13.656
X37.248 Y13.65
X37.323 Y13.605
X37.402 Y13.566
X37.408 Y13.563
X37.492 Y13.524
X37.577 Y13.495
X37.62 Y13.481
X37.662 Y13.47
X37.746 Y13.455
X37.831 Y13.442
X37.915 Y13.439
X38. Y13.44
X38.042 Y13.442
X38.084 Y13.448
X38.169 Y13.462
X38.254 Y13.48
X38.338 Y13.505
X38.423 Y13.533
X38.507 Y13.568
X38.592 Y13.604
X38.676 Y13.647
X38.683 Y13.65
X38.761 Y13.69
X38.84 Y13.735
X38.93 Y13.788
X38.983 Y13.819
X39.115 Y13.904
X39.184 Y13.948
X39.367 Y14.073
X39.437 Y14.122
X39.606 Y14.242
X39.691 Y14.303
X39.776 Y14.365
X39.839 Y14.411
X39.86 Y14.427
X39.945 Y14.49
X40.066 Y14.58
X40.114 Y14.616
X40.199 Y14.68
X40.283 Y14.744
X40.368 Y14.808
X40.402 Y14.834
X40.537 Y14.936
X40.621 Y15.001
X40.791 Y15.13
X40.845 Y15.172
X40.955 Y15.257
X41.044 Y15.325
X41.284 Y15.51
X41.298 Y15.521
X41.552 Y15.719
X41.609 Y15.764
X41.824 Y15.933
X41.89 Y15.985
X42.145 Y16.187
X42.228 Y16.253
X42.462 Y16.44
X42.482 Y16.456
X42.776 Y16.694
X42.82 Y16.73
X43.087 Y16.948
X43.158 Y17.006
X43.496 Y17.286
X43.581 Y17.357
X43.835 Y17.569
X43.9 Y17.624
X44.2 Y17.878
X44.258 Y17.927
X44.596 Y18.217
X44.68 Y18.29
X44.984 Y18.554
X45.019 Y18.584
X45.368 Y18.892
X45.442 Y18.957
X45.78 Y19.26
X45.842 Y19.315
X46.214 Y19.653
X46.287 Y19.72
X46.625 Y20.032
X46.673 Y20.076
X47.048 Y20.428
X47.124 Y20.499
X47.479 Y20.837
X47.556 Y20.911
X47.916 Y21.26
X47.979 Y21.321
X48.345 Y21.682
X48.401 Y21.738
X48.824 Y22.163
X48.851 Y22.19
X49.264 Y22.612
X49.332 Y22.683
X49.669 Y23.035
X49.75 Y23.12
X50.146 Y23.542
X50.177 Y23.575
X51.023 Y24.506
X51.069 Y24.557
X51.877 Y25.487
X51.951 Y25.571
X51.953 Y25.574
X52.799 Y26.596
X52.859 Y26.671
X53.222 Y27.126
X53.262 Y27.178
X53.655 Y27.685
X53.72 Y27.77
X54.101 Y28.277
X54.152 Y28.346
X54.49 Y28.809
X54.533 Y28.869
X54.913 Y29.405
X54.952 Y29.461
X55.336 Y30.021
X55.356 Y30.052
X55.692 Y30.56
X55.748 Y30.644
X56.097 Y31.191
X56.125 Y31.236
X56.438 Y31.743
X56.49 Y31.828
X56.84 Y32.42
X56.858 Y32.45
X57.177 Y33.012
X57.196 Y33.045
X57.224 Y33.096
X57.501 Y33.603
X57.534 Y33.666
X57.546 Y33.688
X57.854 Y34.28
X57.873 Y34.316
X58.149 Y34.872
X58.19 Y34.956
X58.469 Y35.548
X58.508 Y35.633
X58.735 Y36.14
X58.772 Y36.224
X59.022 Y36.816
X59.057 Y36.899
X59.292 Y37.493
X59.31 Y37.539
X59.544 Y38.169
X59.564 Y38.225
X59.778 Y38.845
X59.805 Y38.93
X59.994 Y39.522
X60.019 Y39.606
X60.192 Y40.198
X60.215 Y40.283
X60.372 Y40.874
X60.393 Y40.959
X60.534 Y41.551
X60.553 Y41.635
X60.678 Y42.227
X60.695 Y42.312
X60.803 Y42.904
X60.818 Y42.988
X60.917 Y43.627
X60.923 Y43.665
X60.934 Y43.749
X61.008 Y44.341
X61.017 Y44.425
X61.075 Y45.017
X61.082 Y45.102
X61.122 Y45.694
X61.128 Y45.778
X61.131 Y45.863
X61.154 Y46.455
X61.156 Y46.539
X61.161 Y47.131
Y47.215
X61.16 Y47.3
X61.159 Y47.385
X61.157 Y47.469
X61.156 Y47.554
X61.154 Y47.638
X61.151 Y47.723
X61.148 Y47.807
X61.145 Y47.892
X61.142 Y47.976
X61.138 Y48.061
X61.13 Y48.23
X61.124 Y48.315
X61.119 Y48.399
X61.114 Y48.484
X61.102 Y48.653
X61.095 Y48.737
X61.081 Y48.906
X61.073 Y48.991
X61.057 Y49.16
X61.048 Y49.245
X61.03 Y49.414
X61.019 Y49.498
X60.999 Y49.667
X60.987 Y49.752
X60.928 Y50.175
X60.917 Y50.248
X60.915 Y50.259
X60.828 Y50.766
X60.813 Y50.851
X60.693 Y51.443
X60.673 Y51.527
X60.552 Y52.035
X60.531 Y52.119
X60.368 Y52.711
X60.342 Y52.796
X60.183 Y53.303
X60.156 Y53.386
X59.976 Y53.895
X59.946 Y53.979
X59.712 Y54.571
X59.675 Y54.656
X59.452 Y55.163
X59.412 Y55.247
X59.166 Y55.755
X59.141 Y55.802
X58.895 Y56.262
X58.85 Y56.347
X58.803 Y56.427
X58.549 Y56.859
X58.501 Y56.938
X58.174 Y57.446
X58.126 Y57.515
X57.788 Y57.995
X57.756 Y58.037
X57.43 Y58.46
X57.365 Y58.542
X57.006 Y58.968
X56.942 Y59.042
X56.52 Y59.499
X56.459 Y59.559
X56.097 Y59.917
X56.03 Y59.982
X55.559 Y60.405
X55.505 Y60.45
X55.082 Y60.795
X55.041 Y60.828
X54.997 Y60.86
X54.575 Y61.172
X54.49 Y61.233
X53.983 Y61.57
X53.953 Y61.588
X53.475 Y61.872
X53.391 Y61.922
X52.883 Y62.19
X52.799 Y62.233
X52.291 Y62.468
X52.207 Y62.506
X51.699 Y62.711
X51.615 Y62.745
X51.541 Y62.772
X51.446 Y62.807
X51.361 Y62.836
X51.277 Y62.866
X51.192 Y62.894
X51.023 Y62.949
X50.938 Y62.974
X50.854 Y62.999
X50.769 Y63.024
X50.6 Y63.071
X50.515 Y63.093
X50.346 Y63.135
X50.262 Y63.155
X50.085 Y63.195
X50.008 Y63.211
X49.754 Y63.261
X49.67 Y63.276
X49.501 Y63.304
X49.416 Y63.317
X49.162 Y63.353
X49.078 Y63.362
X48.57 Y63.411
X48.486 Y63.418
X48.401 Y63.421
X47.894 Y63.44
X47.809 Y63.441
X47.302 Y63.43
X47.217 Y63.428
X47.133 Y63.422
X46.625 Y63.382
X46.541 Y63.374
X45.949 Y63.293
X45.876 Y63.279
X45.357 Y63.179
X45.272 Y63.161
X44.737 Y63.026
X44.68 Y63.011
X44.596 Y62.985
X44.089 Y62.828
X44.004 Y62.798
X43.497 Y62.61
X43.477 Y62.603
X43.412 Y62.576
X42.905 Y62.358
X42.885 Y62.349
X42.82 Y62.318
X42.367 Y62.096
X42.313 Y62.069
X42.228 Y62.023
X41.805 Y61.79
X41.75 Y61.758
X41.552 Y61.64
X41.467 Y61.589
X41.202 Y61.419
X41.129 Y61.37
X40.875 Y61.189
X40.843 Y61.166
X40.791 Y61.124
X40.706 Y61.058
X40.631 Y60.997
X40.531 Y60.912
X40.452 Y60.843
X40.341 Y60.743
X40.283 Y60.688
X40.165 Y60.574
X40.114 Y60.522
X39.999 Y60.405
X39.945 Y60.348
X39.84 Y60.236
X39.776 Y60.165
X39.691 Y60.071
X39.612 Y59.982
X39.437 Y59.78
X39.394 Y59.728
X39.251 Y59.559
X39.184 Y59.479
X39.015 Y59.274
X38.971 Y59.221
X38.013 Y58.051
X38.011 Y58.052
X37.054 Y59.221
X36.985 Y59.305
X36.845 Y59.475
X36.816 Y59.51
X36.632 Y59.728
X36.562 Y59.81
X36.478 Y59.908
X36.414 Y59.982
X36.263 Y60.151
X36.224 Y60.194
X36.107 Y60.32
X36.055 Y60.376
X36.027 Y60.405
X35.886 Y60.549
X35.861 Y60.574
X35.717 Y60.713
X35.684 Y60.743
X35.547 Y60.867
X35.495 Y60.912
X35.378 Y61.011
X35.294 Y61.079
X35.209 Y61.146
X35.183 Y61.166
X35.125 Y61.208
X34.947 Y61.335
X34.871 Y61.389
X34.824 Y61.419
X34.56 Y61.588
X34.533 Y61.605
X34.275 Y61.758
X34.194 Y61.803
X33.602 Y62.127
X33.518 Y62.17
X33.264 Y62.295
X33.18 Y62.335
X32.926 Y62.452
X32.841 Y62.488
X32.588 Y62.596
X32.571 Y62.603
X32.503 Y62.63
X32.249 Y62.729
X32.165 Y62.76
X31.893 Y62.857
X31.827 Y62.879
X31.573 Y62.96
X31.488 Y62.986
X31.235 Y63.059
X31.15 Y63.083
X31.066 Y63.104
X30.812 Y63.167
X30.727 Y63.186
X30.474 Y63.24
X30.389 Y63.257
X30.135 Y63.302
X30.051 Y63.317
X29.966 Y63.329
X29.712 Y63.366
X29.628 Y63.376
X29.374 Y63.403
X29.29 Y63.411
X28.951 Y63.436
X28.867 Y63.439
X28.611 Y63.448
X28.529 Y63.45
X28.275 Y63.451
X28.19
X28.121 Y63.448
X27.852 Y63.44
X27.767 Y63.435
X27.514 Y63.418
X27.429 Y63.411
X27.176 Y63.386
X27.091 Y63.377
X26.837 Y63.344
X26.753 Y63.332
X26.499 Y63.291
X26.432 Y63.279
X26.245 Y63.244
X26.161 Y63.228
X26.076 Y63.209
X25.907 Y63.173
X25.822 Y63.153
X25.648 Y63.11
X25.569 Y63.091
X25.315 Y63.022
X25.231 Y62.997
X25.061 Y62.947
X25.042 Y62.941
X24.892 Y62.893
X24.808 Y62.866
X24.78 Y62.857
X24.639 Y62.809
X24.554 Y62.779
X24.385 Y62.718
X24.304 Y62.688
X24.216 Y62.654
X24.131 Y62.621
X24.047 Y62.588
X23.962 Y62.553
X23.49 Y62.349
X23.455 Y62.334
X23.37 Y62.293
X22.968 Y62.096
X22.947 Y62.086
X22.863 Y62.04
X22.502 Y61.842
X22.44 Y61.807
X22.358 Y61.758
X22.017 Y61.55
X21.943 Y61.504
X21.51 Y61.213
X21.443 Y61.166
X21.087 Y60.904
X21.002 Y60.84
X20.664 Y60.568
X20.579 Y60.5
X20.568 Y60.489
X20.181 Y60.151
X20.157 Y60.13
X20.09 Y60.067
X19.818 Y59.809
X19.734 Y59.728
X19.396 Y59.38
X19.324 Y59.306
X18.973 Y58.915
X18.946 Y58.883
X18.634 Y58.509
X18.594 Y58.46
X18.55 Y58.403
X18.268 Y58.037
X18.212 Y57.961
X17.958 Y57.606
X17.905 Y57.53
X17.62 Y57.099
X17.572 Y57.023
X17.366 Y56.687
X17.313 Y56.6
X17.281 Y56.545
X17.073 Y56.177
X17.028 Y56.095
X16.804 Y55.67
X16.774 Y55.609
X16.598 Y55.247
X16.558 Y55.163
X16.368 Y54.74
X16.351 Y54.702
X16.182 Y54.296
X16.158 Y54.233
X16.027 Y53.895
X16.013 Y53.857
X15.996 Y53.81
X15.876 Y53.472
X15.847 Y53.387
X15.736 Y53.049
X15.71 Y52.965
X15.632 Y52.711
X15.607 Y52.626
X15.536 Y52.373
X15.513 Y52.288
X15.506 Y52.262
X15.425 Y51.95
X15.421 Y51.934
X15.364 Y51.696
X15.344 Y51.612
X15.289 Y51.358
X15.271 Y51.274
X15.237 Y51.105
X15.22 Y51.02
X15.188 Y50.851
X15.173 Y50.766
X15.158 Y50.682
X15.143 Y50.597
X15.076 Y50.175
X15.063 Y50.09
X15.051 Y50.006
X14.995 Y49.583
X14.986 Y49.498
X14.94 Y49.076
X14.932 Y48.991
X14.897 Y48.568
X14.891 Y48.484
X14.866 Y48.061
X14.862 Y47.976
X14.847 Y47.554
X14.845 Y47.469
X14.84 Y47.046
Y46.962
X14.845 Y46.539
X14.846 Y46.455
X14.861 Y46.032
X14.864 Y45.947
X14.868 Y45.863
X14.893 Y45.44
X14.899 Y45.355
X14.914 Y45.178
X14.927 Y45.001
X14.942 Y44.827 Z-1.201
X14.958 Y44.65 Z-1.203
X14.973 Y44.473 Z-1.206
X14.99 Y44.3 Z-1.209
X15.008 Y44.123 Z-1.213
X15.025 Y43.946 Z-1.217
X15.044 Y43.772 Z-1.222
X15.065 Y43.596 Z-1.227
X15.085 Y43.419 Z-1.232
X15.106 Y43.245 Z-1.238
X15.13 Y43.069 Z-1.245
X15.153 Y42.893 Z-1.251
X15.179 Y42.719 Z-1.257
X15.207 Y42.543 Z-1.263
X15.234 Y42.368 Z-1.269
X15.264 Y42.194 Z-1.275
X15.295 Y42.019 Z-1.282
X15.327 Y41.845 Z-1.288
X15.361 Y41.671 Z-1.294
X15.395 Y41.497 Z-1.3
X15.431 Y41.324 Z-1.306
X15.468 Y41.15 Z-1.313
X15.506 Y40.976 Z-1.319
X15.546 Y40.804 Z-1.325
X15.587 Y40.631 Z-1.331
X15.628 Y40.459 Z-1.337
X15.672 Y40.287 Z-1.344
X15.715 Y40.115 Z-1.35
X15.761 Y39.943 Z-1.356
X15.808 Y39.771 Z-1.362
X15.856 Y39.601 Z-1.368
X15.905 Y39.43 Z-1.374
X15.955 Y39.26 Z-1.379
X16.007 Y39.09 Z-1.384
X16.06 Y38.92 Z-1.388
X16.115 Y38.751 Z-1.391
X16.171 Y38.582 Z-1.395
X16.228 Y38.414 Z-1.397
X16.287 Y38.246 Z-1.399
X16.347 Y38.079 Z-1.4
X16.4 Y37.936
X16.407 Y37.915
X16.471 Y37.746
X16.503 Y37.662
X16.569 Y37.493
X16.602 Y37.408
X16.689 Y37.187
X16.703 Y37.154
X16.774 Y36.979
X16.806 Y36.901
X16.841 Y36.816
X16.859 Y36.774
X17.203 Y35.971
X17.241 Y35.886
X17.59 Y35.125
X17.62 Y35.062
X18.002 Y34.28
X18.043 Y34.201
X18.396 Y33.519
X18.441 Y33.434
X18.858 Y32.673
X18.888 Y32.62
X19.311 Y31.889
X19.348 Y31.828
X19.759 Y31.152
X19.812 Y31.067
X20.244 Y30.391
X20.299 Y30.306
X20.751 Y29.63
X20.809 Y29.545
X21.282 Y28.869
X21.341 Y28.786
X21.835 Y28.108
X21.848 Y28.091
X22.355 Y27.423
X22.413 Y27.347
X22.947 Y26.671
X23.016 Y26.586
X23.5 Y25.994
X23.539 Y25.947
X23.571 Y25.91
X24.072 Y25.318
X24.131 Y25.248
X24.663 Y24.641
X24.723 Y24.573
X24.737 Y24.557
X25.272 Y23.965
X25.315 Y23.917
X25.349 Y23.881
X25.899 Y23.289
X25.907 Y23.281
X26.465 Y22.697
X26.499 Y22.661
X27.044 Y22.105
X27.091 Y22.057
X27.637 Y21.513
X27.683 Y21.468
X28.19 Y20.974
X28.245 Y20.921
X28.698 Y20.49
X28.777 Y20.414
X29.229 Y19.991
X29.29 Y19.935
X29.781 Y19.484
X29.797 Y19.47
X30.249 Y19.061
X30.304 Y19.012
X30.727 Y18.637
X30.812 Y18.562
X31.15 Y18.266
X31.208 Y18.216
X31.319 Y18.12
X31.403 Y18.047
X31.573 Y17.901
X31.6 Y17.878
X31.742 Y17.756
X31.797 Y17.709
X31.911 Y17.612
X31.996 Y17.54
X32.096 Y17.455
X32.165 Y17.397
X32.296 Y17.286
X32.334 Y17.254
X32.419 Y17.183
X32.497 Y17.117
X32.598 Y17.032
X32.672 Y16.97
X32.926 Y16.76
X33.006 Y16.694
X33.264 Y16.482
X33.316 Y16.44
X33.946 Y15.933
X34.025 Y15.87
X34.702 Y15.336
X34.786 Y15.27
X35.04 Y15.073
X35.125 Y15.007
X35.378 Y14.812
X35.46 Y14.749
X35.547 Y14.682
X35.57 Y14.665
X35.681 Y14.58
X35.717 Y14.553
X35.801 Y14.489
X35.886 Y14.425
X35.97 Y14.361
X36.016 Y14.327
X36.055 Y14.298
X36.129 Y14.242
X36.224 Y14.171
X36.242 Y14.158
X36.393 Y14.046
X36.472 Y13.989
X36.589 Y13.904
X36.647 Y13.862
X36.707 Y13.819
X36.816 Y13.742
X36.827 Y13.735
X36.95 Y13.65
X36.985 Y13.627
X37.077 Y13.566
X37.154 Y13.517
X37.214 Y13.481
X37.239 Y13.466
X37.323 Y13.423
X37.379 Y13.397
X37.408 Y13.383
X37.492 Y13.352
X37.577 Y13.325
X37.621 Y13.312
X37.662 Y13.304
X37.746 Y13.29
X37.831 Y13.279
X37.915 Y13.277
X38.
X38.042 Y13.279
X38.084 Y13.284
X38.169 Y13.297
X38.253 Y13.312
X38.254
X38.338 Y13.336
X38.423 Y13.361
X38.465 Y13.375
X38.507 Y13.392
X38.592 Y13.427
X38.676 Y13.465
X38.761 Y13.508
X38.846 Y13.551
X38.872 Y13.566
X39.017 Y13.65
X39.099 Y13.701
X39.184 Y13.755
X39.268 Y13.809
X39.437 Y13.924
X39.522 Y13.983
X39.691 Y14.103
X39.767 Y14.158
X39.86 Y14.225
X39.883 Y14.242
X39.998 Y14.327
X40.029 Y14.35
X40.111 Y14.411
X40.199 Y14.477
X40.283 Y14.54
X40.337 Y14.58
X40.452 Y14.668
X40.537 Y14.732
X40.671 Y14.834
X40.892 Y15.003
X40.96 Y15.055
X41.129 Y15.185
X41.213 Y15.251
X41.382 Y15.381
X41.44 Y15.426
X41.657 Y15.595
X41.721 Y15.645
X41.89 Y15.778
X41.974 Y15.845
X42.228 Y16.046
X42.299 Y16.102
X42.566 Y16.316
X42.616 Y16.356
X42.905 Y16.589
X42.929 Y16.61
X43.243 Y16.866
X43.327 Y16.936
X43.581 Y17.145
X43.649 Y17.201
X43.952 Y17.455
X44.004 Y17.499
X44.152 Y17.624
X44.342 Y17.785
X44.68 Y18.075
X44.746 Y18.131
X45.103 Y18.442
X45.134 Y18.47
X45.518 Y18.808
X45.526 Y18.815
X45.896 Y19.146
X45.949 Y19.193
X46.287 Y19.5
X46.362 Y19.569
X46.729 Y19.907
X46.795 Y19.967
X47.181 Y20.33
X47.217 Y20.364
X47.625 Y20.752
X47.64 Y20.767
X48.063 Y21.176
X48.148 Y21.26
X48.491 Y21.598
X48.57 Y21.678
X48.912 Y22.021
X48.993 Y22.103
X49.332 Y22.449
X49.408 Y22.528
X49.732 Y22.866
X49.839 Y22.978
X49.893 Y23.035
X50.262 Y23.428
X50.29 Y23.458
X50.346 Y23.52
X51.135 Y24.388
X51.192 Y24.451
X52.038 Y25.424
X52.092 Y25.487
X52.931 Y26.501
X52.968 Y26.547
X53.335 Y27.009
X53.391 Y27.078
X53.814 Y27.625
X53.859 Y27.685
X54.241 Y28.192
X54.303 Y28.277
X54.549 Y28.615
X54.659 Y28.765
X54.673 Y28.784
X55.031 Y29.292
X55.082 Y29.363
X55.438 Y29.883
X55.495 Y29.968
X55.843 Y30.493
X55.886 Y30.56
X56.211 Y31.067
X56.264 Y31.152
X56.604 Y31.704
X56.628 Y31.743
X56.979 Y32.335
X57.027 Y32.419
X57.316 Y32.927
X57.363 Y33.012
X57.639 Y33.519
X57.685 Y33.603
X57.993 Y34.195
X58.036 Y34.28
X58.295 Y34.802
X58.33 Y34.872
X58.609 Y35.463
X58.634 Y35.516
X58.913 Y36.14
X58.949 Y36.224
X59.163 Y36.732
X59.198 Y36.816
X59.433 Y37.408
X59.466 Y37.493
X59.686 Y38.084
X59.716 Y38.169
X59.921 Y38.761
X59.949 Y38.845
X60.138 Y39.437
X60.156 Y39.495
X60.164 Y39.522
X60.337 Y40.114
X60.361 Y40.198
X60.518 Y40.79
X60.54 Y40.874
X60.681 Y41.466
X60.701 Y41.551
X60.719 Y41.635
X60.844 Y42.227
X60.86 Y42.312
X60.968 Y42.904
X60.982 Y42.988
X61.074 Y43.58
X61.086 Y43.661
X61.171 Y44.33
X61.172 Y44.341
X61.18 Y44.425
X61.238 Y45.017
X61.245 Y45.102
X61.285 Y45.694
X61.291 Y45.778
X61.317 Y46.455
X61.318 Y46.539
X61.323 Y47.131
Y47.215
X61.322 Y47.3
X61.321 Y47.385
X61.32 Y47.469
X61.318 Y47.554
X61.316 Y47.638
X61.314 Y47.723
X61.311 Y47.807
X61.308 Y47.892
X61.304 Y47.976
X61.301 Y48.061
X61.292 Y48.23
X61.287 Y48.315
X61.282 Y48.399
X61.277 Y48.484
X61.265 Y48.653
X61.258 Y48.737
X61.244 Y48.906
X61.236 Y48.991
X61.22 Y49.16
X61.211 Y49.245
X61.193 Y49.414
X61.183 Y49.498
X61.163 Y49.667
X61.152 Y49.752
X61.08 Y50.259
X61.065 Y50.344
X60.978 Y50.851
X60.962 Y50.936
X60.858 Y51.443
X60.84 Y51.527
X60.699 Y52.119
X60.676 Y52.204
X60.537 Y52.711
X60.512 Y52.796
X60.325 Y53.393
X60.298 Y53.472
X60.118 Y53.979
X60.087 Y54.064
X59.886 Y54.571
X59.853 Y54.656
X59.63 Y55.163
X59.592 Y55.247
X59.564 Y55.307
X59.31 Y55.829
X59.305 Y55.839
X59.26 Y55.924
X59.034 Y56.347
X58.989 Y56.431
X58.972 Y56.46
X58.691 Y56.938
X58.64 Y57.023
X58.313 Y57.53
X58.295 Y57.557
X58.255 Y57.615
X57.957 Y58.037
X57.896 Y58.122
X57.534 Y58.591
X57.504 Y58.629
X57.45 Y58.694
X57.112 Y59.095
X57.076 Y59.137
X57.027 Y59.189
X56.685 Y59.559
X56.605 Y59.644
X56.177 Y60.067
X56.097 Y60.14
X55.674 Y60.52
X55.61 Y60.574
X55.167 Y60.935
X55.086 Y60.997
X54.627 Y61.335
X54.575 Y61.371
X54.067 Y61.708
X53.986 Y61.758
X53.56 Y62.011
X53.475 Y62.061
X53.409 Y62.096
X52.928 Y62.349
X52.883 Y62.372
X52.799 Y62.412
X52.376 Y62.608
X52.291 Y62.647
X52.207 Y62.682
X51.699 Y62.886
X51.615 Y62.918
X51.53 Y62.949
X51.446 Y62.979
X51.31 Y63.026
X51.277 Y63.037
X51.107 Y63.092
X51.049 Y63.11
X50.854 Y63.169
X50.769 Y63.193
X50.6 Y63.239
X50.515 Y63.26
X50.346 Y63.303
X50.262 Y63.322
X50.073 Y63.364
X50.008 Y63.377
X49.839 Y63.41
X49.754 Y63.426
X49.501 Y63.469
X49.416 Y63.481
X49.162 Y63.517
X49.078 Y63.525
X48.57 Y63.574
X48.486 Y63.581
X47.894 Y63.603
X47.809
X47.471 Y63.596
X47.217 Y63.591
X47.133 Y63.585
X46.625 Y63.545
X46.541 Y63.537
X46.509 Y63.533
X45.949 Y63.457
X45.895 Y63.448
X45.864 Y63.443
X45.357 Y63.344
X45.272 Y63.328
X45.188 Y63.307
X44.68 Y63.179
X44.596 Y63.155
X44.089 Y62.998
X44.004 Y62.971
X43.924 Y62.941
X43.465 Y62.772
X43.412 Y62.752
X43.327 Y62.716
X42.867 Y62.518
X42.82 Y62.498
X42.735 Y62.457
X42.313 Y62.25
X42.228 Y62.208
X42.178 Y62.18
X41.717 Y61.927
X41.636 Y61.879
X41.432 Y61.758
X41.382 Y61.728
X41.129 Y61.566
X41.044 Y61.509
X40.791 Y61.328
X40.706 Y61.264
X40.58 Y61.166
X40.537 Y61.129
X40.452 Y61.058
X40.38 Y60.997
X40.283 Y60.909
X40.199 Y60.832
X40.106 Y60.743
X40.029 Y60.668
X39.937 Y60.574
X39.86 Y60.495
X39.691 Y60.314
X39.621 Y60.236
X39.522 Y60.125
X39.471 Y60.067
X39.324 Y59.898
X39.268 Y59.832
X39.099 Y59.631
X39.04 Y59.559
X38.9 Y59.39
X38.846 Y59.324
X38.013 Y58.307
X38.01 Y58.309
X37.195 Y59.306
X37.154 Y59.355
X36.985 Y59.56
X36.915 Y59.644
X36.773 Y59.813
X36.731 Y59.863
X36.555 Y60.067
X36.48 Y60.151
X36.393 Y60.249
X36.329 Y60.32
X36.224 Y60.433
X36.171 Y60.489
X36.139 Y60.522
X36.006 Y60.658
X35.97 Y60.694
X35.832 Y60.828
X35.801 Y60.856
X35.646 Y60.997
X35.632 Y61.009
X35.547 Y61.081
X35.463 Y61.152
X35.446 Y61.166
X35.339 Y61.25
X35.294 Y61.286
X35.226 Y61.335
X34.99 Y61.504
X34.956 Y61.528
X34.871 Y61.582
X34.702 Y61.69
X34.617 Y61.743
X34.364 Y61.894
X34.307 Y61.927
X33.687 Y62.266
X33.602 Y62.309
X33.349 Y62.435
X33.264 Y62.474
X33.011 Y62.591
X32.985 Y62.603
X32.926 Y62.628
X32.672 Y62.737
X32.588 Y62.771
X32.334 Y62.87
X32.249 Y62.902
X31.996 Y62.993
X31.911 Y63.022
X31.573 Y63.131
X31.488 Y63.155
X31.235 Y63.228
X31.15 Y63.25
X30.896 Y63.313
X30.812 Y63.334
X30.474 Y63.406
X30.389 Y63.422
X30.135 Y63.467
X30.051 Y63.481
X29.797 Y63.518
X29.712 Y63.53
X29.685 Y63.533
X29.374 Y63.566
X29.29 Y63.574
X29.036 Y63.592
X28.951 Y63.598
X28.867 Y63.602
X28.613 Y63.611
X28.529 Y63.613
X28.275
X28.19
X28.106 Y63.61
X27.852 Y63.602
X27.767 Y63.598
X27.514 Y63.581
X27.429 Y63.574
X27.176 Y63.549
X27.091 Y63.541
X26.837 Y63.508
X26.753 Y63.496
X26.455 Y63.448
X26.414 Y63.441
X26.161 Y63.393
X26.076 Y63.376
X25.907 Y63.339
X25.822 Y63.32
X25.738 Y63.3
X25.569 Y63.258
X25.484 Y63.236
X25.315 Y63.19
X25.231 Y63.166
X25.041 Y63.11
X24.977 Y63.091
X24.773 Y63.026
X24.723 Y63.009
X24.554 Y62.951
X24.525 Y62.941
X24.385 Y62.891
X24.3 Y62.86
X24.131 Y62.796
X24.071 Y62.772
X23.962 Y62.729
X23.877 Y62.694
X23.455 Y62.511
X23.37 Y62.473
X22.944 Y62.265
X22.863 Y62.225
X22.782 Y62.18
X22.44 Y61.993
X22.355 Y61.946
X22.323 Y61.927
X21.906 Y61.673
X21.848 Y61.636
X21.425 Y61.352
X21.399 Y61.335
X21.341 Y61.292
X20.939 Y60.997
X20.918 Y60.98
X20.495 Y60.64
X20.418 Y60.574
X20.072 Y60.272
X20.032 Y60.236
X19.649 Y59.872
X19.59 Y59.813
X19.261 Y59.475
X19.226 Y59.439
X19.182 Y59.39
X18.878 Y59.052
X18.805 Y58.968
X18.523 Y58.629
X18.465 Y58.56
X18.454 Y58.545
X18.127 Y58.121
X18.067 Y58.037
X17.825 Y57.699
X17.789 Y57.649
X17.766 Y57.615
X17.486 Y57.192
X17.451 Y57.136
X17.197 Y56.722
X17.174 Y56.685
X17.126 Y56.6
X16.934 Y56.262
X16.887 Y56.177
X16.665 Y55.755
X16.623 Y55.67
X16.436 Y55.285
X16.418 Y55.247
X16.228 Y54.825
X16.191 Y54.74
X16.05 Y54.402
X16.016 Y54.317
X15.886 Y53.979
X15.854 Y53.895
X15.733 Y53.557
X15.704 Y53.472
X15.59 Y53.127
X15.565 Y53.049
X15.463 Y52.711
X15.439 Y52.626
X15.368 Y52.373
X15.345 Y52.288
X15.279 Y52.035
X15.258 Y51.95
X15.197 Y51.696
X15.178 Y51.612
X15.141 Y51.443
X15.122 Y51.358
X15.071 Y51.105
X15.055 Y51.02
X15.023 Y50.851
X15.008 Y50.766
X14.993 Y50.682
X14.979 Y50.597
X14.912 Y50.175
X14.899 Y50.09
X14.843 Y49.667
X14.831 Y49.583
X14.795 Y49.245
X14.777 Y49.076
X14.769 Y48.991
X14.734 Y48.568
X14.729 Y48.484
X14.704 Y48.061
X14.7 Y47.976
X14.685 Y47.554
X14.683 Y47.469
X14.678 Y47.046
X14.677 Y46.962
X14.682 Y46.539
X14.683 Y46.455
X14.701 Y45.947
X14.706 Y45.863
X14.73 Y45.44
X14.736 Y45.355
X14.744 Y45.255
X14.77 Y44.933
X14.778 Y44.848
X14.821 Y44.425
X14.829 Y44.356
X14.884 Y43.918
X14.895 Y43.834
X14.956 Y43.411
X14.969 Y43.326
X15.04 Y42.904
X15.054 Y42.819
X15.134 Y42.396
X15.15 Y42.312
X15.238 Y41.889
X15.252 Y41.824
X15.336 Y41.45
X15.352 Y41.382
X15.373 Y41.297
X15.456 Y40.959
X15.477 Y40.874
X15.566 Y40.536
X15.589 Y40.452
X15.683 Y40.114
X15.708 Y40.029
X15.808 Y39.691
X15.834 Y39.606
X15.928 Y39.302
X15.939 Y39.268
X16.049 Y38.93
X16.078 Y38.845
X16.164 Y38.592
X16.182 Y38.54
X16.267 Y38.301
X16.283 Y38.254
X16.376 Y38.
X16.4 Y37.936
X16.462 Y37.77
X16.525 Y37.604 Z-1.402
X16.588 Y37.438 Z-1.403
X16.652 Y37.273 Z-1.406
X16.716 Y37.108 Z-1.409
X16.781 Y36.943 Z-1.413
X16.846 Y36.778 Z-1.417
X16.914 Y36.614 Z-1.422
X16.981 Y36.45 Z-1.427
X17.049 Y36.286 Z-1.433
X17.116 Y36.121 Z-1.439
X17.183 Y35.957 Z-1.445
X17.253 Y35.795 Z-1.451
X17.325 Y35.632 Z-1.457
X17.396 Y35.469 Z-1.463
X17.468 Y35.307 Z-1.47
X17.539 Y35.144 Z-1.476
X17.613 Y34.983 Z-1.482
X17.689 Y34.823 Z-1.488
X17.764 Y34.662 Z-1.494
X17.84 Y34.501 Z-1.501
X17.916 Y34.34 Z-1.507
X17.993 Y34.181 Z-1.513
X18.073 Y34.022 Z-1.519
X18.152 Y33.863 Z-1.525
X18.232 Y33.705 Z-1.532
X18.312 Y33.546 Z-1.538
X18.393 Y33.388 Z-1.544
X18.476 Y33.231 Z-1.55
X18.56 Y33.074 Z-1.556
X18.644 Y32.918 Z-1.563
X18.728 Y32.761 Z-1.569
X18.812 Y32.605 Z-1.574
X18.9 Y32.45 Z-1.579
X18.988 Y32.296 Z-1.584
X19.076 Y32.141 Z-1.588
X19.164 Y31.987 Z-1.592
X19.252 Y31.833 Z-1.595
X19.344 Y31.681 Z-1.597
X19.436 Y31.529 Z-1.599
X19.528 Y31.377 Z-1.6
X19.6 Y31.258
X19.717 Y31.067
X19.734 Y31.039
X20.202 Y30.306
X20.241 Y30.247
X20.711 Y29.545
X20.749 Y29.49
X21.183 Y28.869
X21.242 Y28.784
X21.256 Y28.766
X21.763 Y28.07
X21.798 Y28.023
X22.312 Y27.347
X22.355 Y27.291
X22.863 Y26.648
X22.912 Y26.586
X23.465 Y25.91
X23.537 Y25.825
X24.047 Y25.223
X24.111 Y25.149
X24.639 Y24.547
X24.705 Y24.472
X25.24 Y23.881
X25.315 Y23.799
X25.822 Y23.253
X25.869 Y23.204
X26.414 Y22.633
X26.434 Y22.612
X26.499 Y22.546
X27.014 Y22.021
X27.091 Y21.944
X27.523 Y21.513
X27.598 Y21.438
X28.129 Y20.921
X28.19 Y20.862
X28.66 Y20.414
X28.698 Y20.378
X29.205 Y19.904
X29.29 Y19.826
X29.712 Y19.438
X29.754 Y19.4
X30.22 Y18.98
X30.223 Y18.977
X30.643 Y18.604
X30.699 Y18.554
X31.085 Y18.216
X31.15 Y18.16
X31.319 Y18.013
X31.378 Y17.962
X31.488 Y17.867
X31.573 Y17.795
X31.673 Y17.709
X31.742 Y17.65
X31.911 Y17.506
X31.971 Y17.455
X32.08 Y17.363
X32.165 Y17.291
X32.249 Y17.22
X32.271 Y17.201
X32.419 Y17.078
X32.473 Y17.032
X32.573 Y16.948
X32.588 Y16.936
X32.879 Y16.694
X32.926 Y16.655
X33.188 Y16.44
X33.264 Y16.379
X33.923 Y15.849
X33.941 Y15.834
X34.025 Y15.767
X34.617 Y15.3
X34.672 Y15.257
X34.998 Y15.003
X35.04 Y14.971
X35.327 Y14.749
X35.378 Y14.71
X35.463 Y14.646
X35.547 Y14.581
X35.659 Y14.496
X35.717 Y14.452
X35.801 Y14.388
X35.883 Y14.327
X35.97 Y14.261
X36.055 Y14.197
X36.108 Y14.158
X36.139 Y14.134
X36.221 Y14.073
X36.393 Y13.946
X36.451 Y13.904
X36.568 Y13.819
X36.647 Y13.763
X36.731 Y13.704
X36.808 Y13.65
X36.901 Y13.587
X36.931 Y13.566
X36.985 Y13.53
X37.059 Y13.481
X37.07 Y13.474
X37.154 Y13.423
X37.198 Y13.397
X37.239 Y13.375
X37.323 Y13.334
X37.37 Y13.312
X37.408 Y13.296
X37.492 Y13.268
X37.577 Y13.241
X37.63 Y13.228
X37.662 Y13.222
X37.746 Y13.208
X37.831 Y13.198
X37.915 Y13.196
X38. Y13.197
X38.042 Y13.199
X38.084 Y13.203
X38.169 Y13.216
X38.241 Y13.228
X38.254 Y13.23
X38.296 Y13.24
X38.338 Y13.252
X38.423 Y13.277
X38.507 Y13.305
X38.525 Y13.312
X38.592 Y13.34
X38.676 Y13.375
X38.721 Y13.397
X38.846 Y13.46
X38.886 Y13.481
X38.93 Y13.507
X39.032 Y13.566
X39.099 Y13.605
X39.268 Y13.713
X39.302 Y13.735
X39.353 Y13.769
X39.522 Y13.884
X39.55 Y13.904
X39.776 Y14.064
X39.788 Y14.073
X39.86 Y14.126
X39.904 Y14.158
X39.945 Y14.188
X40.029 Y14.25
X40.114 Y14.313
X40.199 Y14.376
X40.246 Y14.411
X40.368 Y14.503
X40.452 Y14.567
X40.537 Y14.631
X40.581 Y14.665
X40.706 Y14.76
X40.791 Y14.824
X40.914 Y14.919
X40.96 Y14.954
X41.134 Y15.088
X41.213 Y15.149
X41.382 Y15.28
X41.462 Y15.341
X41.679 Y15.51
X41.721 Y15.543
X42.002 Y15.764
X42.059 Y15.809
X42.216 Y15.933
X42.313 Y16.01
X42.566 Y16.213
X42.639 Y16.271
X42.953 Y16.525
X42.989 Y16.554
X43.264 Y16.779
X43.327 Y16.831
X43.581 Y17.041
X43.666 Y17.111
X44.004 Y17.394
X44.077 Y17.455
X44.376 Y17.709
X44.427 Y17.752
X44.771 Y18.047
X44.85 Y18.115
X45.16 Y18.385
X45.188 Y18.409
X45.544 Y18.723
X45.611 Y18.782
X45.949 Y19.085
X46.017 Y19.146
X46.389 Y19.484
X46.456 Y19.546
X46.795 Y19.858
X46.848 Y19.907
X47.217 Y20.253
X47.298 Y20.33
X47.653 Y20.668
X47.725 Y20.736
X48.09 Y21.09
X48.148 Y21.146
X48.52 Y21.513
X48.57 Y21.563
X48.993 Y21.988
X49.025 Y22.021
X49.438 Y22.443
X49.501 Y22.508
X49.844 Y22.866
X49.924 Y22.95
X50.321 Y23.373
X50.346 Y23.4
X50.399 Y23.458
X51.192 Y24.33
X51.244 Y24.388
X51.277 Y24.425
X52.126 Y25.402
X52.196 Y25.487
X52.968 Y26.42
X53.035 Y26.501
X53.438 Y27.009
X53.475 Y27.056
X53.831 Y27.516
X53.896 Y27.601
X54.278 Y28.108
X54.321 Y28.165
X54.711 Y28.7
X54.744 Y28.745
X55.13 Y29.292
X55.167 Y29.344
X55.536 Y29.883
X55.589 Y29.964
X55.928 Y30.475
X55.982 Y30.56
X56.306 Y31.067
X56.35 Y31.138
X56.671 Y31.659
X56.689 Y31.687
X56.722 Y31.743
X57.027 Y32.258
X57.072 Y32.335
X57.365 Y32.851
X57.409 Y32.927
X57.45 Y33.003
X57.731 Y33.519
X57.776 Y33.603
X58.042 Y34.114
X58.084 Y34.195
X58.38 Y34.791
X58.419 Y34.872
X58.698 Y35.463
X58.718 Y35.508
X58.972 Y36.075
X59. Y36.14
X59.25 Y36.732
X59.285 Y36.816
X59.52 Y37.408
X59.552 Y37.493
X59.772 Y38.084
X59.802 Y38.169
X60.006 Y38.761
X60.033 Y38.845
X60.222 Y39.437
X60.24 Y39.497
X60.421 Y40.114
X60.444 Y40.198
X60.601 Y40.79
X60.623 Y40.874
X60.764 Y41.466
X60.784 Y41.551
X60.917 Y42.184
X60.926 Y42.227
X60.942 Y42.312
X61.05 Y42.904
X61.064 Y42.988
X61.156 Y43.58
X61.168 Y43.665
X61.242 Y44.256
X61.253 Y44.341
X61.255 Y44.363
X61.319 Y45.017
X61.326 Y45.102
X61.366 Y45.694
X61.371 Y45.778
X61.397 Y46.455
X61.399 Y46.539
X61.404 Y47.131
Y47.215
X61.403 Y47.3
X61.402 Y47.385
X61.4 Y47.469
X61.399 Y47.554
X61.397 Y47.638
X61.394 Y47.723
X61.391 Y47.807
X61.388 Y47.892
X61.385 Y47.976
X61.381 Y48.061
X61.373 Y48.23
X61.368 Y48.315
X61.363 Y48.399
X61.357 Y48.484
X61.345 Y48.653
X61.34 Y48.725
X61.325 Y48.906
X61.317 Y48.991
X61.301 Y49.16
X61.292 Y49.245
X61.274 Y49.414
X61.264 Y49.498
X61.244 Y49.667
X61.233 Y49.752
X61.161 Y50.259
X61.147 Y50.344
X61.06 Y50.851
X61.044 Y50.936
X60.941 Y51.443
X60.923 Y51.527
X60.782 Y52.119
X60.76 Y52.204
X60.62 Y52.711
X60.597 Y52.796
X60.579 Y52.853
X60.41 Y53.393
X60.383 Y53.472
X60.204 Y53.979
X60.174 Y54.064
X60.156 Y54.109
X59.94 Y54.656
X59.903 Y54.74
X59.681 Y55.247
X59.649 Y55.317
X59.395 Y55.839
X59.352 Y55.924
X59.08 Y56.431
X59.057 Y56.475
X59.033 Y56.516
X58.734 Y57.023
X58.718 Y57.05
X58.681 Y57.107
X58.38 Y57.575
X58.354 Y57.615
X58.295 Y57.697
X57.996 Y58.122
X57.957 Y58.174
X57.606 Y58.629
X57.538 Y58.714
X57.181 Y59.137
X57.112 Y59.217
X56.717 Y59.644
X56.689 Y59.674
X56.634 Y59.728
X56.266 Y60.092
X56.205 Y60.151
X56.181 Y60.173
X55.735 Y60.574
X55.674 Y60.626
X55.219 Y60.997
X55.167 Y61.037
X54.744 Y61.349
X54.659 Y61.411
X54.648 Y61.419
X54.575 Y61.468
X54.139 Y61.758
X54.067 Y61.803
X53.56 Y62.105
X53.475 Y62.152
X52.968 Y62.42
X52.941 Y62.434
X52.883 Y62.461
X52.376 Y62.697
X52.291 Y62.734
X51.779 Y62.941
X51.699 Y62.973
X51.615 Y63.004
X51.53 Y63.035
X51.446 Y63.064
X51.312 Y63.11
X51.277 Y63.122
X51.107 Y63.177
X51.048 Y63.195
X50.938 Y63.228
X50.854 Y63.253
X50.685 Y63.299
X50.6 Y63.322
X50.431 Y63.365
X50.346 Y63.386
X50.093 Y63.442
X50.062 Y63.448
X49.839 Y63.492
X49.754 Y63.508
X49.501 Y63.55
X49.416 Y63.563
X49.247 Y63.586
X49.162 Y63.598
X49.078 Y63.606
X48.57 Y63.655
X48.486 Y63.661
X47.894 Y63.683
X47.809 Y63.684
X47.217 Y63.671
X47.133 Y63.666
X46.625 Y63.625
X46.541 Y63.618
X46.534
X46.456 Y63.607
X45.914 Y63.533
X45.864 Y63.525
X45.272 Y63.41
X45.188 Y63.39
X44.68 Y63.262
X44.596 Y63.24
X44.089 Y63.082
X44.004 Y63.056
X43.92 Y63.026
X43.412 Y62.838
X43.327 Y62.804
X42.82 Y62.586
X42.735 Y62.547
X42.228 Y62.298
X42.164 Y62.265
X41.704 Y62.011
X41.636 Y61.973
X41.382 Y61.822
X41.298 Y61.769
X41.044 Y61.607
X41.017 Y61.588
X40.78 Y61.419
X40.706 Y61.366
X40.665 Y61.335
X40.537 Y61.234
X40.455 Y61.166
X40.354 Y61.081
X40.283 Y61.018
X40.199 Y60.941
X40.166 Y60.912
X40.114 Y60.862
X40.029 Y60.781
X39.99 Y60.743
X39.945 Y60.697
X39.824 Y60.574
X39.776 Y60.523
X39.666 Y60.405
X39.607 Y60.341
X39.437 Y60.151
X39.364 Y60.067
X39.268 Y59.956
X39.218 Y59.898
X39.076 Y59.728
X39.015 Y59.655
X38.796 Y59.39
X38.761 Y59.348
X38.013 Y58.434
X38.01 Y58.436
X37.239 Y59.379
X37.23 Y59.39
X37.021 Y59.644
X36.985 Y59.686
X36.816 Y59.888
X36.808 Y59.898
X36.735 Y59.982
X36.647 Y60.084
X36.588 Y60.151
X36.438 Y60.32
X36.393 Y60.369
X36.281 Y60.489
X36.224 Y60.551
X36.055 Y60.724
X36.035 Y60.743
X35.886 Y60.887
X35.86 Y60.912
X35.801 Y60.965
X35.717 Y61.041
X35.672 Y61.081
X35.547 Y61.186
X35.469 Y61.25
X35.362 Y61.335
X35.294 Y61.385
X35.04 Y61.567
X35.01 Y61.588
X34.956 Y61.624
X34.702 Y61.786
X34.617 Y61.837
X34.448 Y61.937
X34.364 Y61.988
X34.321 Y62.011
X33.772 Y62.312
X33.702 Y62.349
X33.687 Y62.357
X33.433 Y62.483
X33.361 Y62.518
X33.349 Y62.524
X33.095 Y62.641
X33.011 Y62.68
X32.993 Y62.688
X32.794 Y62.772
X32.672 Y62.824
X32.59 Y62.857
X32.334 Y62.957
X32.249 Y62.988
X31.996 Y63.078
X31.911 Y63.107
X31.637 Y63.195
X31.573 Y63.215
X31.235 Y63.311
X31.15 Y63.333
X30.896 Y63.396
X30.812 Y63.416
X30.558 Y63.471
X30.474 Y63.489
X30.389 Y63.504
X30.135 Y63.549
X30.051 Y63.563
X29.797 Y63.599
X29.712 Y63.611
X29.652 Y63.618
X29.374 Y63.647
X29.29 Y63.655
X29.036 Y63.673
X28.951 Y63.679
X28.867 Y63.682
X28.613 Y63.692
X28.529 Y63.693
X28.275 Y63.694
X28.19
X28.106 Y63.691
X27.852 Y63.683
X27.767 Y63.678
X27.514 Y63.662
X27.429 Y63.655
X27.176 Y63.63
X27.091 Y63.622
X27.058 Y63.618
X26.837 Y63.589
X26.753 Y63.578
X26.668 Y63.564
X26.473 Y63.533
X26.414 Y63.523
X26.161 Y63.475
X26.076 Y63.458
X25.822 Y63.403
X25.738 Y63.383
X25.569 Y63.341
X25.484 Y63.32
X25.315 Y63.274
X25.231 Y63.25
X25.043 Y63.195
X24.977 Y63.175
X24.892 Y63.148
X24.773 Y63.11
X24.723 Y63.094
X24.523 Y63.026
X24.469 Y63.007
X24.288 Y62.941
X24.216 Y62.914
X24.131 Y62.882
X24.066 Y62.857
X23.962 Y62.816
X23.877 Y62.782
X23.464 Y62.603
X23.37 Y62.562
X23.286 Y62.522
X22.863 Y62.315
X22.778 Y62.27
X22.355 Y62.039
X22.307 Y62.011
X21.848 Y61.732
X21.763 Y61.676
X21.381 Y61.419
X21.341 Y61.392
X21.263 Y61.335
X20.918 Y61.081
X20.833 Y61.016
X20.494 Y60.743
X20.41 Y60.675
X20.005 Y60.32
X19.988 Y60.304
X19.915 Y60.236
X19.649 Y59.983
X19.565 Y59.903
X19.56 Y59.898
X19.226 Y59.555
X19.15 Y59.475
X18.804 Y59.09
X18.77 Y59.052
X18.418 Y58.629
X18.381 Y58.582
X18.091 Y58.207
X18.043 Y58.142
X17.726 Y57.699
X17.704 Y57.667
X17.446 Y57.277
X17.391 Y57.192
X17.112 Y56.738
X17.082 Y56.685
X16.842 Y56.262
X16.796 Y56.177
X16.605 Y55.813
X16.575 Y55.755
X16.533 Y55.67
X16.369 Y55.332
X16.351 Y55.295
X16.329 Y55.247
X16.177 Y54.909
X16.139 Y54.825
X16.104 Y54.74
X15.963 Y54.402
X15.93 Y54.317
X15.8 Y53.979
X15.768 Y53.895
X15.648 Y53.557
X15.619 Y53.472
X15.506 Y53.128
X15.481 Y53.049
X15.404 Y52.796
X15.379 Y52.711
X15.284 Y52.373
X15.262 Y52.288
X15.196 Y52.035
X15.175 Y51.95
X15.115 Y51.696
X15.096 Y51.612
X15.058 Y51.443
X15.04 Y51.358
X14.998 Y51.151
X14.989 Y51.105
X14.973 Y51.02
X14.957 Y50.936
X14.941 Y50.851
X14.911 Y50.682
X14.897 Y50.597
X14.829 Y50.168
X14.818 Y50.09
X14.761 Y49.667
X14.75 Y49.583
X14.705 Y49.16
X14.696 Y49.076
X14.689 Y48.991
X14.653 Y48.568
X14.648 Y48.484
X14.623 Y48.061
X14.619 Y47.976
X14.604 Y47.554
X14.602 Y47.469
X14.597 Y47.046
Y46.962
X14.602 Y46.539
X14.603 Y46.455
X14.606 Y46.37
X14.62 Y45.947
X14.625 Y45.863
X14.649 Y45.44
X14.656 Y45.355
X14.69 Y44.933
X14.697 Y44.848
X14.744 Y44.387
X14.75 Y44.341
X14.802 Y43.918
X14.813 Y43.834
X14.875 Y43.411
X14.887 Y43.326
X14.902 Y43.242
X14.944 Y42.988
X14.972 Y42.819
X14.988 Y42.735
X15.052 Y42.396
X15.068 Y42.312
X15.156 Y41.889
X15.167 Y41.833
X15.174 Y41.804
X15.269 Y41.382
X15.29 Y41.297
X15.373 Y40.959
X15.394 Y40.874
X15.483 Y40.536
X15.505 Y40.452
X15.6 Y40.114
X15.624 Y40.029
X15.724 Y39.691
X15.749 Y39.606
X15.854 Y39.268
X15.882 Y39.184
X15.965 Y38.93
X15.993 Y38.845
X16.079 Y38.592
X16.098 Y38.538
X16.198 Y38.254
X16.229 Y38.169
X16.29 Y38.
X16.321 Y37.915
X16.417 Y37.662
X16.436 Y37.613
X16.52 Y37.395
X16.549 Y37.324
X16.616 Y37.154
X16.65 Y37.07
X16.689 Y36.973
X16.719 Y36.901
X16.774 Y36.767
X16.789 Y36.732
X17.116 Y35.971
X17.152 Y35.886
X17.501 Y35.125
X17.535 Y35.052
X17.912 Y34.28
X17.955 Y34.195
X18.349 Y33.434
X18.381 Y33.376
X18.766 Y32.673
X18.804 Y32.606
X19.226 Y31.874
X19.253 Y31.828
X19.305 Y31.743
X19.6 Y31.258
X19.692 Y31.107
X19.786 Y30.956 Z-1.602
X19.882 Y30.806 Z-1.603
X19.977 Y30.656 Z-1.606
X20.072 Y30.506 Z-1.609
X20.167 Y30.356 Z-1.613
X20.263 Y30.207 Z-1.617
X20.361 Y30.059 Z-1.622
X20.459 Y29.911 Z-1.627
X20.556 Y29.762 Z-1.633
X20.654 Y29.614 Z-1.639
X20.753 Y29.467 Z-1.645
X21.156 Y28.882 Z-1.67
X21.258 Y28.736 Z-1.676
X21.673 Y28.159 Z-1.701
X21.777 Y28.016 Z-1.707
X21.883 Y27.874 Z-1.713
X22.203 Y27.447 Z-1.732
X22.309 Y27.305 Z-1.738
X22.418 Y27.165 Z-1.744
X22.746 Y26.744 Z-1.763
X22.855 Y26.604 Z-1.769
X22.966 Y26.465 Z-1.774
X23.078 Y26.327 Z-1.779
X23.19 Y26.189 Z-1.784
X23.302 Y26.051 Z-1.788
X23.414 Y25.914 Z-1.792
X23.528 Y25.777 Z-1.795
X23.642 Y25.641 Z-1.797
X23.757 Y25.505 Z-1.799
X23.872 Y25.37 Z-1.8
X23.959 Y25.266
X23.987 Y25.233
X24.047 Y25.165
X24.135 Y25.064
X24.579 Y24.557
X24.639 Y24.489
X24.654 Y24.472
X25.112 Y23.965
X25.146 Y23.927
X25.266 Y23.796
X25.315 Y23.743
X25.737 Y23.289
X25.817 Y23.204
X25.898 Y23.12
X26.414 Y22.579
X26.464 Y22.528
X26.878 Y22.105
X26.922 Y22.061
X27.046 Y21.936
X27.091 Y21.891
X27.514 Y21.47
X27.555 Y21.429
X28.021 Y20.975
X28.106 Y20.893
X28.164 Y20.837
X28.613 Y20.408
X28.697 Y20.33
X28.782 Y20.25
X29.205 Y19.854
X29.24 Y19.822
X29.628 Y19.466
X29.7 Y19.4
X29.712 Y19.389
X29.794 Y19.315
X30.169 Y18.977
X30.22 Y18.931
X30.558 Y18.631
X30.643 Y18.556
X30.727 Y18.481
X31.066 Y18.185
X31.127 Y18.131
X31.235 Y18.038
X31.319 Y17.965
X31.404 Y17.892
X31.519 Y17.793
X31.573 Y17.747
X31.716 Y17.624
X31.742 Y17.602
X31.827 Y17.53
X31.911 Y17.458
X32.015 Y17.37
X32.08 Y17.315
X32.165 Y17.244
X32.215 Y17.201
X32.316 Y17.117
X32.334 Y17.101
X32.419 Y17.031
X32.503 Y16.959
X32.517 Y16.948
X32.588 Y16.889
X32.757 Y16.748
X32.822 Y16.694
X32.926 Y16.608
X33.027 Y16.525
X33.095 Y16.47
X33.264 Y16.332
X33.339 Y16.271
X33.602 Y16.059
X33.654 Y16.018
X33.772 Y15.923
X33.856 Y15.855
X33.971 Y15.764
X34.025 Y15.721
X34.11 Y15.654
X34.184 Y15.595
X34.399 Y15.426
X34.448 Y15.387
X34.617 Y15.254
X34.702 Y15.188
X34.786 Y15.122
X34.831 Y15.088
X35.049 Y14.919
X35.158 Y14.834
X35.209 Y14.795
X35.378 Y14.665
X35.463 Y14.6
X35.489 Y14.58
X35.547 Y14.536
X35.6 Y14.496
X35.712 Y14.411
X35.801 Y14.344
X35.823 Y14.327
X35.886 Y14.28
X35.936 Y14.242
X35.97 Y14.216
X36.055 Y14.153
X36.139 Y14.09
X36.162 Y14.073
X36.224 Y14.027
X36.276 Y13.989
X36.309 Y13.965
X36.393 Y13.903
X36.478 Y13.841
X36.562 Y13.78
X36.626 Y13.735
X36.647 Y13.72
X36.731 Y13.66
X36.745 Y13.65
X36.816 Y13.601
X36.867 Y13.566
X36.901 Y13.543
X36.985 Y13.486
X36.993 Y13.481
X37.07 Y13.431
X37.128 Y13.397
X37.154 Y13.381
X37.239 Y13.332
X37.279 Y13.312
X37.323 Y13.291
X37.408 Y13.255
X37.483 Y13.228
X37.492 Y13.224
X37.577 Y13.199
X37.662 Y13.181
X37.746 Y13.167
X37.788 Y13.16
X37.831 Y13.156
X37.915 Y13.155
X38. Y13.157
X38.084 Y13.16
X38.169 Y13.172
X38.254 Y13.189
X38.338 Y13.209
X38.406 Y13.228
X38.423 Y13.233
X38.507 Y13.262
X38.592 Y13.295
X38.632 Y13.312
X38.676 Y13.331
X38.761 Y13.372
X38.81 Y13.397
X38.846 Y13.415
X38.93 Y13.461
X38.965 Y13.481
X39.015 Y13.51
X39.099 Y13.56
X39.108 Y13.566
X39.184 Y13.614
X39.241 Y13.65
X39.268 Y13.668
X39.353 Y13.724
X39.37 Y13.735
X39.437 Y13.781
X39.493 Y13.819
X39.522 Y13.839
X39.607 Y13.899
X39.614 Y13.904
X39.691 Y13.959
X39.733 Y13.989
X39.776 Y14.019
X39.85 Y14.073
X39.86 Y14.081
X39.945 Y14.143
X40.029 Y14.205
X40.08 Y14.242
X40.114 Y14.268
X40.199 Y14.331
X40.283 Y14.394
X40.306 Y14.411
X40.368 Y14.458
X40.452 Y14.522
X40.53 Y14.58
X40.537 Y14.586
X40.621 Y14.65
X40.706 Y14.714
X40.752 Y14.749
X40.862 Y14.834
X40.96 Y14.908
X41.044 Y14.973
X41.213 Y15.103
X41.298 Y15.169
X41.302 Y15.172
X41.382 Y15.235
X41.52 Y15.341
X41.552 Y15.366
X41.737 Y15.51
X41.805 Y15.563
X41.974 Y15.696
X42.059 Y15.763
X42.274 Y15.933
X42.313 Y15.964
X42.397 Y16.032
X42.482 Y16.1
X42.696 Y16.271
X42.735 Y16.303
X42.989 Y16.508
X43.01 Y16.525
X43.243 Y16.715
X43.32 Y16.779
X43.581 Y16.994
X43.627 Y17.032
X43.75 Y17.135
X43.83 Y17.201
X44.032 Y17.37
X44.089 Y17.418
X44.342 Y17.633
X44.427 Y17.705
X44.727 Y17.962
X44.765 Y17.995
X44.85 Y18.068
X44.923 Y18.131
X45.215 Y18.385
X45.272 Y18.436
X45.526 Y18.659
X45.598 Y18.723
X45.882 Y18.977
X45.949 Y19.037
X46.071 Y19.146
X46.118 Y19.189
X46.372 Y19.419
X46.443 Y19.484
X46.795 Y19.808
X46.81 Y19.822
X46.901 Y19.907
X46.964 Y19.966
X47.302 Y20.283
X47.352 Y20.33
X47.64 Y20.605
X47.706 Y20.668
X48.055 Y21.006
X48.148 Y21.095
X48.229 Y21.175
X48.572 Y21.513
X48.655 Y21.596
X48.909 Y21.851
X48.993 Y21.936
X49.077 Y22.021
X49.16 Y22.105
X49.49 Y22.443
X49.501 Y22.454
X49.839 Y22.807
X49.895 Y22.866
X50.008 Y22.985
X50.055 Y23.035
X50.372 Y23.373
X50.431 Y23.436
X51.142 Y24.219
X51.192 Y24.274
X51.295 Y24.388
X51.361 Y24.463
X52.038 Y25.242
X52.103 Y25.318
X52.207 Y25.439
X52.247 Y25.487
X52.947 Y26.332
X52.968 Y26.358
X53.084 Y26.501
X53.137 Y26.567
X53.421 Y26.924
X53.475 Y26.993
X53.488 Y27.009
X53.554 Y27.093
X53.898 Y27.538
X53.945 Y27.601
X53.983 Y27.65
X54.327 Y28.108
X54.389 Y28.192
X54.405 Y28.215
X54.744 Y28.678
X54.759 Y28.7
X54.82 Y28.784
X55.119 Y29.207
X55.167 Y29.275
X55.236 Y29.376
X55.526 Y29.799
X55.583 Y29.883
X55.639 Y29.968
X55.928 Y30.403
X55.975 Y30.475
X56.029 Y30.56
X56.299 Y30.982
X56.35 Y31.063
X56.405 Y31.152
X56.435 Y31.2
X56.718 Y31.659
X56.768 Y31.743
X57.069 Y32.251
X57.112 Y32.325
X57.166 Y32.42
X57.406 Y32.843
X57.45 Y32.92
X57.5 Y33.012
X57.776 Y33.519
X57.788 Y33.54
X57.865 Y33.688
X58.085 Y34.111
X58.126 Y34.191
X58.38 Y34.701
X58.422 Y34.787
X58.463 Y34.872
X58.663 Y35.294
X58.703 Y35.379
X58.742 Y35.463
X58.78 Y35.548
X58.972 Y35.977
X59.007 Y36.055
X59.057 Y36.169
X59.08 Y36.224
X59.258 Y36.647
X59.294 Y36.732
X59.328 Y36.816
X59.362 Y36.901
X59.53 Y37.324
X59.563 Y37.408
X59.564 Y37.41
X59.595 Y37.493
X59.626 Y37.577
X59.815 Y38.084
X59.818 Y38.093
X59.844 Y38.169
X59.987 Y38.582
X60.019 Y38.676
X60.048 Y38.761
X60.071 Y38.831
X60.238 Y39.353
X60.24 Y39.361
X60.264 Y39.437
X60.29 Y39.522
X60.439 Y40.029
X60.463 Y40.114
X60.487 Y40.198
X60.494 Y40.227
X60.621 Y40.705
X60.643 Y40.79
X60.665 Y40.874
X60.685 Y40.959
X60.806 Y41.466
X60.825 Y41.551
X60.832 Y41.585
X60.843 Y41.635
X60.95 Y42.143
X60.967 Y42.227
X60.983 Y42.312
X60.999 Y42.396
X61.091 Y42.904
X61.105 Y42.988
X61.184 Y43.495
X61.197 Y43.58
X61.209 Y43.665
X61.273 Y44.172
X61.284 Y44.256
X61.294 Y44.341
X61.303 Y44.425
X61.352 Y44.933
X61.36 Y45.017
X61.367 Y45.102
X61.373 Y45.186
X61.407 Y45.694
X61.411 Y45.778
X61.415 Y45.863
X61.435 Y46.37
X61.438 Y46.455
X61.439 Y46.539
X61.442 Y46.962
X61.443 Y47.046
X61.444 Y47.131
Y47.215
X61.441 Y47.3
X61.44 Y47.385
X61.436 Y47.638
X61.434 Y47.723
X61.431 Y47.807
X61.428 Y47.892
X61.424 Y47.988
X61.421 Y48.061
X61.417 Y48.146
X61.412 Y48.23
X61.407 Y48.315
X61.402 Y48.399
X61.397 Y48.484
X61.391 Y48.568
X61.385 Y48.653
X61.378 Y48.737
X61.364 Y48.906
X61.356 Y48.991
X61.348 Y49.076
X61.34 Y49.16
X61.331 Y49.245
X61.322 Y49.329
X61.313 Y49.414
X61.303 Y49.498
X61.283 Y49.667
X61.272 Y49.752
X61.212 Y50.175
X61.2 Y50.259
X61.186 Y50.344
X61.114 Y50.766
X61.099 Y50.851
X61.083 Y50.936
X61.066 Y51.02
X60.98 Y51.443
X60.961 Y51.527
X60.942 Y51.612
X60.821 Y52.119
X60.798 Y52.204
X60.775 Y52.288
X60.663 Y52.694
X60.635 Y52.796
X60.609 Y52.88
X60.476 Y53.303
X60.45 Y53.387
X60.422 Y53.472
X60.24 Y53.986
X60.212 Y54.064
X60.179 Y54.148
X60.012 Y54.571
X59.987 Y54.635
X59.978 Y54.656
X59.942 Y54.74
X59.905 Y54.825
X59.719 Y55.247
X59.68 Y55.332
X59.649 Y55.397
X59.433 Y55.839
X59.395 Y55.916
X59.141 Y56.39
X59.119 Y56.431
X59.072 Y56.516
X59.057 Y56.542
X59.022 Y56.6
X58.774 Y57.023
X58.721 Y57.107
X58.448 Y57.53
X58.393 Y57.615
X58.38 Y57.633
X58.334 Y57.699
X58.036 Y58.122
X57.972 Y58.207
X57.646 Y58.629
X57.619 Y58.664
X57.579 Y58.714
X57.534 Y58.766
X57.222 Y59.137
X57.196 Y59.167
X57.148 Y59.221
X57.112 Y59.261
X56.757 Y59.644
X56.689 Y59.716
X56.676 Y59.728
X56.333 Y60.067
X56.266 Y60.133
X56.247 Y60.151
X56.181 Y60.211
X55.778 Y60.574
X55.759 Y60.591
X55.678 Y60.658
X55.251 Y61.007
X55.167 Y61.072
X54.744 Y61.384
X54.695 Y61.419
X54.659 Y61.445
X54.575 Y61.501
X54.152 Y61.782
X54.067 Y61.835
X53.628 Y62.096
X53.56 Y62.136
X53.479 Y62.18
X52.998 Y62.434
X52.968 Y62.45
X52.883 Y62.491
X52.376 Y62.726
X52.291 Y62.763
X51.784 Y62.967
X51.699 Y63.001
X51.53 Y63.062
X51.446 Y63.091
X51.361 Y63.121
X51.277 Y63.149
X51.134 Y63.195
X51.107 Y63.203
X51.023 Y63.229
X50.938 Y63.254
X50.854 Y63.279
X50.685 Y63.326
X50.6 Y63.348
X50.431 Y63.391
X50.346 Y63.411
X50.179 Y63.448
X50.093 Y63.468
X50.008 Y63.484
X49.839 Y63.518
X49.754 Y63.533
X49.585 Y63.561
X49.501 Y63.575
X49.416 Y63.588
X49.201 Y63.618
X49.162 Y63.623
X49.078 Y63.631
X48.57 Y63.679
X48.486 Y63.686
X48.401 Y63.689
X47.894 Y63.708
X47.809
X47.64 Y63.705
X47.217 Y63.695
X47.133 Y63.69
X46.625 Y63.65
X46.541 Y63.643
X46.456 Y63.632
X45.949 Y63.562
X45.864 Y63.549
X45.781 Y63.533
X45.272 Y63.434
X45.188 Y63.415
X44.651 Y63.279
X44.596 Y63.265
X44.511 Y63.239
X44.004 Y63.081
X43.919 Y63.051
X43.393 Y62.857
X43.327 Y62.83
X42.798 Y62.603
X42.735 Y62.574
X42.228 Y62.325
X42.144 Y62.281
X41.721 Y62.048
X41.654 Y62.011
X41.636 Y62.001
X41.369 Y61.842
X41.298 Y61.798
X41.044 Y61.636
X40.975 Y61.588
X40.706 Y61.396
X40.626 Y61.335
X40.519 Y61.25
X40.452 Y61.195
X40.368 Y61.124
X40.318 Y61.081
X40.199 Y60.974
X40.131 Y60.912
X40.029 Y60.814
X39.956 Y60.743
X39.86 Y60.645
X39.791 Y60.574
X39.776 Y60.558
X39.633 Y60.405
X39.607 Y60.376
X39.556 Y60.32
X39.437 Y60.187
X39.405 Y60.151
X39.259 Y59.982
X39.187 Y59.898
X39.015 Y59.693
X38.974 Y59.644
X38.835 Y59.475
X38.765 Y59.39
X38.013 Y58.473
X38.011
X37.261 Y59.39
X37.239 Y59.417
X37.052 Y59.644
X36.985 Y59.724
X36.839 Y59.898
X36.816 Y59.925
X36.647 Y60.121
X36.62 Y60.151
X36.47 Y60.32
X36.393 Y60.404
X36.309 Y60.495
X36.235 Y60.574
X36.07 Y60.743
X36.055 Y60.758
X35.895 Y60.912
X35.886 Y60.921
X35.802 Y60.997
X35.708 Y61.081
X35.632 Y61.146
X35.547 Y61.217
X35.507 Y61.25
X35.378 Y61.352
X35.294 Y61.415
X35.04 Y61.597
X34.956 Y61.652
X34.791 Y61.758
X34.702 Y61.815
X34.656 Y61.842
X34.448 Y61.965
X34.371 Y62.011
X34.364 Y62.015
X34.279 Y62.061
X33.753 Y62.349
X33.687 Y62.384
X33.415 Y62.518
X33.349 Y62.551
X33.052 Y62.688
X33.011 Y62.706
X32.757 Y62.814
X32.672 Y62.85
X32.656 Y62.857
X32.334 Y62.983
X32.249 Y63.013
X31.977 Y63.11
X31.911 Y63.132
X31.657 Y63.213
X31.573 Y63.24
X31.235 Y63.336
X31.15 Y63.358
X30.896 Y63.421
X30.812 Y63.441
X30.558 Y63.495
X30.474 Y63.513
X30.389 Y63.529
X30.135 Y63.574
X30.051 Y63.587
X29.797 Y63.624
X29.712 Y63.635
X29.628 Y63.645
X29.374 Y63.672
X29.29 Y63.679
X29.121 Y63.691
X28.971 Y63.702
X28.951 Y63.703
X28.867 Y63.707
X28.613 Y63.716
X28.529 Y63.718
X28.275
X28.19
X28.106 Y63.716
X27.852 Y63.707
X27.767 Y63.703
X27.514 Y63.686
X27.429 Y63.68
X27.345 Y63.672
X27.176 Y63.655
X27.091 Y63.647
X27.006 Y63.636
X26.837 Y63.614
X26.753 Y63.603
X26.668 Y63.589
X26.499 Y63.562
X26.414 Y63.549
X26.332 Y63.533
X26.161 Y63.501
X26.076 Y63.484
X25.992 Y63.465
X25.822 Y63.428
X25.738 Y63.408
X25.557 Y63.364
X25.484 Y63.346
X25.315 Y63.3
X25.24 Y63.279
X25.231 Y63.277
X25.146 Y63.252
X24.977 Y63.202
X24.954 Y63.195
X24.892 Y63.175
X24.808 Y63.148
X24.723 Y63.121
X24.692 Y63.11
X24.639 Y63.092
X24.554 Y63.063
X24.469 Y63.034
X24.3 Y62.973
X24.216 Y62.941
X24.131 Y62.909
X24.047 Y62.877
X23.962 Y62.843
X23.877 Y62.81
X23.793 Y62.774
X23.37 Y62.591
X23.286 Y62.551
X22.863 Y62.345
X22.778 Y62.301
X22.355 Y62.07
X22.271 Y62.021
X21.848 Y61.764
X21.837 Y61.758
X21.763 Y61.71
X21.425 Y61.483
X21.341 Y61.426
X21.331 Y61.419
X21.256 Y61.365
X20.918 Y61.116
X20.87 Y61.081
X20.833 Y61.052
X20.764 Y60.997
X20.448 Y60.743
X20.41 Y60.712
X20.347 Y60.658
X19.988 Y60.343
X19.962 Y60.32
X19.903 Y60.265
X19.565 Y59.944
X19.518 Y59.898
X19.48 Y59.859
X19.311 Y59.685
X19.142 Y59.511
X19.109 Y59.475
X18.804 Y59.136
X18.729 Y59.052
X18.448 Y58.714
X18.381 Y58.633
X18.378 Y58.629
X18.312 Y58.545
X18.116 Y58.291
X18.051 Y58.207
X18.043 Y58.196
X17.988 Y58.122
X17.746 Y57.784
X17.704 Y57.725
X17.687 Y57.699
X17.63 Y57.615
X17.406 Y57.277
X17.366 Y57.215
X17.352 Y57.192
X17.299 Y57.107
X17.092 Y56.769
X17.043 Y56.685
X17.028 Y56.659
X16.803 Y56.262
X16.774 Y56.209
X16.58 Y55.839
X16.536 Y55.755
X16.52 Y55.723
X16.351 Y55.375
X16.33 Y55.332
X16.291 Y55.247
X16.138 Y54.909
X16.101 Y54.825
X16.098 Y54.816
X16.065 Y54.74
X15.924 Y54.402
X15.891 Y54.317
X15.859 Y54.233
X15.759 Y53.974
X15.73 Y53.895
X15.639 Y53.641
X15.609 Y53.557
X15.59 Y53.501
X15.58 Y53.472
X15.552 Y53.387
X15.469 Y53.134
X15.443 Y53.049
X15.34 Y52.711
X15.336 Y52.699
X15.316 Y52.626
X15.252 Y52.397
X15.245 Y52.373
X15.223 Y52.288
X15.157 Y52.035
X15.136 Y51.95
X15.083 Y51.726
X15.076 Y51.696
X15.057 Y51.612
X15.02 Y51.443
X15.001 Y51.358
X14.967 Y51.189
X14.95 Y51.105
X14.918 Y50.936
X14.914 Y50.911
X14.888 Y50.766
X14.872 Y50.682
X14.858 Y50.597
X14.844 Y50.513
X14.791 Y50.175
X14.778 Y50.09
X14.733 Y49.752
X14.722 Y49.667
X14.711 Y49.583
X14.702 Y49.498
X14.665 Y49.16
X14.66 Y49.111
X14.656 Y49.076
X14.649 Y48.991
X14.62 Y48.653
X14.614 Y48.568
X14.608 Y48.484
X14.588 Y48.146
X14.583 Y48.061
X14.579 Y47.976
X14.576 Y47.892
X14.564 Y47.554
X14.562 Y47.469
X14.561 Y47.385
X14.557 Y47.046
Y46.962
Y46.877
X14.561 Y46.539
X14.562 Y46.455
X14.565 Y46.37
X14.575 Y46.075
X14.58 Y45.947
X14.584 Y45.863
X14.609 Y45.44
X14.615 Y45.355
X14.631 Y45.155
X14.642 Y45.017
X14.649 Y44.933
X14.656 Y44.848
X14.691 Y44.51
X14.699 Y44.425
X14.708 Y44.341
X14.719 Y44.256
X14.761 Y43.918
X14.772 Y43.834
X14.784 Y43.749
X14.833 Y43.411
X14.846 Y43.326
X14.86 Y43.242
X14.916 Y42.904
X14.931 Y42.819
X14.946 Y42.735
X15.01 Y42.396
X15.026 Y42.312
X15.043 Y42.227
X15.113 Y41.889
X15.131 Y41.804
X15.208 Y41.466
X15.227 Y41.382
X15.247 Y41.297
X15.33 Y40.959
X15.336 Y40.934
X15.351 Y40.874
X15.373 Y40.79
X15.44 Y40.536
X15.463 Y40.452
X15.486 Y40.367
X15.557 Y40.114
X15.581 Y40.029
X15.675 Y39.712
X15.681 Y39.691
X15.706 Y39.606
X15.785 Y39.353
X15.812 Y39.268
X15.839 Y39.184
X15.928 Y38.909
X15.95 Y38.845
X16.013 Y38.659
X16.036 Y38.592
X16.065 Y38.507
X16.155 Y38.254
X16.182 Y38.178
X16.185 Y38.169
X16.216 Y38.084
X16.278 Y37.915
X16.31 Y37.831
X16.373 Y37.662
X16.406 Y37.577
X16.436 Y37.5
X16.471 Y37.408
X16.505 Y37.324
X16.572 Y37.154
X16.605 Y37.073
X16.64 Y36.985
X16.675 Y36.901
X16.689 Y36.866
X16.71 Y36.816
X16.744 Y36.732
X16.774 Y36.662
X16.78 Y36.647
X16.817 Y36.563
X17.071 Y35.971
X17.108 Y35.886
X17.112 Y35.876
X17.146 Y35.802
X17.456 Y35.125
X17.496 Y35.041
X17.535 Y34.959
X17.825 Y34.364
X17.867 Y34.28
X17.873 Y34.266
X17.909 Y34.195
X17.953 Y34.111
X18.259 Y33.519
X18.296 Y33.448
X18.349 Y33.35
X18.381 Y33.291
X18.673 Y32.758
X18.719 Y32.674
X18.767 Y32.589
X18.804 Y32.525
X18.816 Y32.504
X18.864 Y32.42
X19.158 Y31.913
X19.207 Y31.828
X19.258 Y31.743
X19.309 Y31.659
X19.566 Y31.237
X19.649 Y31.1
X19.67 Y31.067
X19.723 Y30.982
X20.101 Y30.391
X20.155 Y30.306
X20.157 Y30.303
X20.21 Y30.222
X20.241 Y30.175
X20.267 Y30.137
X20.664 Y29.543
X20.722 Y29.461
X20.781 Y29.376
X20.833 Y29.301
X21.195 Y28.784
X21.255 Y28.7
X21.563 Y28.277
X21.679 Y28.119
X21.687 Y28.108
X21.763 Y28.005
X21.813 Y27.939
X22.262 Y27.347
X22.271 Y27.336
X22.328 Y27.262
X22.395 Y27.178
X22.44 Y27.121
X22.863 Y26.585
X22.931 Y26.501
X23.346 Y25.994
X23.37 Y25.965
X23.486 Y25.825
X23.539 Y25.762
X23.959 Y25.266
X24.075 Y25.132
X24.192 Y24.998 Z-1.802
X24.309 Y24.864 Z-1.803
X24.425 Y24.73 Z-1.806
X24.542 Y24.596 Z-1.809
X24.659 Y24.463 Z-1.813
X24.777 Y24.331 Z-1.817
X24.896 Y24.198 Z-1.822
X25.014 Y24.066 Z-1.827
X25.132 Y23.933 Z-1.833
X25.252 Y23.802 Z-1.839
X25.371 Y23.67 Z-1.845
X25.732 Y23.278 Z-1.864
X25.853 Y23.148 Z-1.87
X26.097 Y22.89 Z-1.882
X26.341 Y22.631 Z-1.895
X26.463 Y22.503 Z-1.901
X26.834 Y22.12 Z-1.919
X26.958 Y21.993 Z-1.926
X27.083 Y21.866 Z-1.932
X27.208 Y21.74 Z-1.938
X27.458 Y21.488 Z-1.95
X27.584 Y21.362 Z-1.957
X27.71 Y21.238 Z-1.963
X27.837 Y21.113 Z-1.969
X27.964 Y20.989 Z-1.974
X28.091 Y20.864 Z-1.979
X28.218 Y20.74 Z-1.984
X28.346 Y20.617 Z-1.988
X28.474 Y20.494 Z-1.992
X28.603 Y20.372 Z-1.995
X28.733 Y20.25 Z-1.997
X28.862 Y20.129 Z-1.999
X28.992 Y20.007 Z-2.
X29.09 Y19.915
X29.205 Y19.808
X29.281 Y19.738
X29.557 Y19.484
X29.628 Y19.42
X29.837 Y19.23
X29.882 Y19.19
X30.135 Y18.961
X30.212 Y18.892
X30.474 Y18.66
X30.498 Y18.639
X30.727 Y18.436
X30.785 Y18.385
X30.978 Y18.216
X31.066 Y18.14
X31.173 Y18.047
X31.235 Y17.994
X31.369 Y17.878
X31.467 Y17.793
X31.573 Y17.702
X31.664 Y17.624
X31.742 Y17.557
X31.827 Y17.485
X31.862 Y17.455
X31.962 Y17.37
X32.062 Y17.286
X32.08 Y17.271
X32.163 Y17.201
X32.264 Y17.117
X32.334 Y17.057
X32.419 Y16.986
X32.463 Y16.948
X32.503 Y16.915
X32.565 Y16.863
X32.926 Y16.564
X32.973 Y16.525
X33.095 Y16.426
X33.18 Y16.357
X33.349 Y16.219
X33.389 Y16.187
X33.599 Y16.018
X33.687 Y15.947
X34.023 Y15.679
X34.11 Y15.611
X34.236 Y15.51
X34.279 Y15.477
X34.344 Y15.426
X34.448 Y15.344
X34.667 Y15.172
X34.702 Y15.145
X34.776 Y15.088
X34.871 Y15.014
X35.04 Y14.883
X35.103 Y14.834
X35.209 Y14.753
X35.294 Y14.688
X35.463 Y14.558
X35.545 Y14.496
X35.632 Y14.43
X35.801 Y14.302
X35.88 Y14.242
X35.97 Y14.175
X35.993 Y14.158
X36.055 Y14.112
X36.107 Y14.073
X36.221 Y13.989
X36.224 Y13.986
X36.309 Y13.924
X36.336 Y13.904
X36.393 Y13.862
X36.452 Y13.819
X36.478 Y13.801
X36.562 Y13.74
X36.687 Y13.65
X36.731 Y13.619
X36.816 Y13.56
X36.901 Y13.502
X36.931 Y13.481
X36.985 Y13.445
X37.058 Y13.397
X37.07 Y13.39
X37.154 Y13.34
X37.202 Y13.312
X37.239 Y13.291
X37.281 Y13.27
X37.323 Y13.25
X37.378 Y13.228
X37.408 Y13.215
X37.492 Y13.183
X37.535 Y13.17
X37.577 Y13.159
X37.656 Y13.143
X37.662 Y13.142
X37.746 Y13.126
X37.788 Y13.119
X37.831 Y13.116
X37.915 Y13.115
X38. Y13.116
X38.084 Y13.12
X38.127 Y13.124
X38.169 Y13.131
X38.227 Y13.143
X38.254 Y13.149
X38.338 Y13.168
X38.423 Y13.191
X38.507 Y13.221
X38.527 Y13.228
X38.592 Y13.253
X38.676 Y13.29
X38.724 Y13.312
X38.761 Y13.33
X38.846 Y13.373
X38.889 Y13.397
X38.93 Y13.419
X39.015 Y13.468
X39.037 Y13.481
X39.099 Y13.518
X39.175 Y13.566
X39.184 Y13.571
X39.268 Y13.626
X39.306 Y13.65
X39.353 Y13.682
X39.432 Y13.735
X39.522 Y13.797
X39.555 Y13.819
X39.607 Y13.856
X39.691 Y13.916
X39.776 Y13.977
X39.86 Y14.038
X39.908 Y14.073
X39.945 Y14.1
X40.029 Y14.163
X40.114 Y14.225
X40.136 Y14.242
X40.199 Y14.289
X40.283 Y14.352
X40.362 Y14.411
X40.474 Y14.496
X40.537 Y14.544
X40.585 Y14.58
X40.706 Y14.672
X40.791 Y14.737
X40.918 Y14.834
X40.96 Y14.866
X41.028 Y14.919
X41.129 Y14.996
X41.248 Y15.088
X41.298 Y15.126
X41.467 Y15.258
X41.552 Y15.324
X41.636 Y15.389
X41.683 Y15.426
X41.805 Y15.521
X41.89 Y15.587
X42.007 Y15.679
X42.059 Y15.72
X42.144 Y15.787
X42.221 Y15.849
X42.642 Y16.187
X42.82 Y16.329
X42.853 Y16.356
X43.062 Y16.525
X43.074 Y16.534
X43.269 Y16.694
X43.327 Y16.742
X43.497 Y16.881
X43.576 Y16.948
X43.881 Y17.201
X43.919 Y17.233
X44.089 Y17.375
X44.173 Y17.446
X44.384 Y17.624
X44.427 Y17.661
X44.596 Y17.806
X44.679 Y17.878
X45.019 Y18.171
X45.071 Y18.216
X45.272 Y18.391
X45.357 Y18.465
X45.526 Y18.614
X45.554 Y18.639
X45.78 Y18.841
X45.837 Y18.892
X46.118 Y19.144
X46.203 Y19.22
X46.456 Y19.45
X46.493 Y19.484
X46.71 Y19.684
X46.768 Y19.738
X47.048 Y19.999
X47.131 Y20.076
X47.387 Y20.315
X47.402 Y20.33
X47.668 Y20.583
X47.725 Y20.638
X47.93 Y20.837
X47.979 Y20.884
X48.317 Y21.212
X48.365 Y21.26
X48.57 Y21.462
X48.622 Y21.513
X48.875 Y21.767
X48.909 Y21.801
X49.247 Y22.143
X49.292 Y22.19
X49.54 Y22.443
X49.585 Y22.49
X49.702 Y22.612
X49.839 Y22.755
X50.184 Y23.12
X50.262 Y23.203
X50.431 Y23.383
X50.5 Y23.458
X51.038 Y24.05
X51.107 Y24.126
X51.361 Y24.408
X51.419 Y24.472
X51.953 Y25.087
X52.006 Y25.149
X52.296 Y25.487
X52.367 Y25.571
X52.856 Y26.163
X52.883 Y26.196
X53.2 Y26.586
X53.222 Y26.613
X53.475 Y26.932
X53.536 Y27.009
X53.644 Y27.148
X53.898 Y27.476
X53.929 Y27.516
X54.067 Y27.699
X54.12 Y27.77
X54.321 Y28.036
X54.374 Y28.108
X54.498 Y28.277
X54.56 Y28.362
X54.745 Y28.615
X54.806 Y28.7
X54.926 Y28.869
X55.167 Y29.208
X55.225 Y29.292
X55.336 Y29.453
X55.341 Y29.461
X55.589 Y29.824
X55.629 Y29.883
X55.742 Y30.052
X55.966 Y30.391
X56.012 Y30.462
X56.129 Y30.644
X56.181 Y30.726
X56.35 Y30.991
X56.398 Y31.067
X56.52 Y31.264
X56.711 Y31.574
X56.763 Y31.659
X56.913 Y31.913
X57.114 Y32.251
X57.162 Y32.335
X57.258 Y32.504
X57.451 Y32.843
X57.498 Y32.927
X57.59 Y33.096
X57.619 Y33.149
X57.821 Y33.519
X57.865 Y33.603
X57.953 Y33.773
X58.129 Y34.111
X58.172 Y34.195
X58.34 Y34.533
X58.38 Y34.614
X58.465 Y34.787
X58.507 Y34.872
X58.666 Y35.21
X58.706 Y35.294
X58.803 Y35.503
X58.823 Y35.548
X58.975 Y35.886
X59.012 Y35.971
X59.123 Y36.224
X59.141 Y36.268
X59.301 Y36.647
X59.31 Y36.669
X59.404 Y36.901
X59.438 Y36.985
X59.572 Y37.324
X59.605 Y37.408
X59.668 Y37.577
X59.7 Y37.662
X59.825 Y38.
X59.857 Y38.084
X59.886 Y38.169
X60.002 Y38.507
X60.09 Y38.761
X60.118 Y38.845
X60.24 Y39.23
X60.252 Y39.268
X60.325 Y39.5
X60.332 Y39.522
X60.357 Y39.606
X60.456 Y39.944
X60.48 Y40.029
X60.527 Y40.198
X60.551 Y40.283
X60.64 Y40.621
X60.663 Y40.705
X60.726 Y40.959
X60.747 Y41.044
X60.832 Y41.403
X60.847 Y41.466
X60.902 Y41.72
X60.917 Y41.79
X60.991 Y42.143
X61.002 Y42.193
X61.055 Y42.481
X61.132 Y42.904
X61.146 Y42.988
X61.198 Y43.326
X61.211 Y43.411
X61.25 Y43.665
X61.255 Y43.707
X61.303 Y44.087
X61.314 Y44.172
X61.343 Y44.425
X61.352 Y44.51
X61.385 Y44.848
X61.392 Y44.933
X61.413 Y45.186
X61.419 Y45.271
X61.442 Y45.609
X61.447 Y45.694
X61.459 Y45.947
X61.462 Y46.032
X61.475 Y46.37
X61.477 Y46.455
X61.48 Y46.793
Y46.877
X61.483 Y47.131
Y47.215
X61.476 Y47.469
X61.475 Y47.554
X61.472 Y47.723
X61.47 Y47.807
X61.467 Y47.892
X61.464 Y47.976
X61.46 Y48.061
X61.456 Y48.146
X61.451 Y48.23
X61.445 Y48.315
X61.429 Y48.568
X61.424 Y48.632
X61.423 Y48.653
X61.417 Y48.737
X61.41 Y48.822
X61.402 Y48.906
X61.394 Y48.991
X61.386 Y49.076
X61.36 Y49.329
X61.351 Y49.414
X61.341 Y49.498
X61.34 Y49.512
X61.321 Y49.667
X61.309 Y49.752
X61.273 Y50.006
X61.261 Y50.09
X61.237 Y50.259
X61.224 Y50.344
X61.166 Y50.682
X61.151 Y50.766
X61.12 Y50.936
X61.104 Y51.02
X61.035 Y51.358
X61.017 Y51.443
X60.978 Y51.612
X60.959 Y51.696
X60.878 Y52.035
X60.858 Y52.119
X60.834 Y52.204
X60.788 Y52.373
X60.765 Y52.457
X60.718 Y52.626
X60.672 Y52.796
X60.663 Y52.824
X60.54 Y53.218
X60.512 Y53.303
X60.458 Y53.472
X60.429 Y53.557
X60.309 Y53.895
X60.278 Y53.979
X60.215 Y54.148
X60.182 Y54.233
X60.071 Y54.514
X60.049 Y54.571
X60.013 Y54.656
X59.941 Y54.825
X59.904 Y54.909
X59.793 Y55.163
X59.755 Y55.247
X59.649 Y55.469
X59.633 Y55.501
X59.469 Y55.839
X59.426 Y55.924
X59.245 Y56.262
X59.226 Y56.297
X59.141 Y56.453
X59.107 Y56.516
X59.057 Y56.6
X59.008 Y56.685
X58.858 Y56.938
X58.808 Y57.023
X58.755 Y57.107
X58.718 Y57.166
X58.538 Y57.446
X58.483 Y57.53
X58.427 Y57.615
X58.38 Y57.682
X58.368 Y57.699
X58.308 Y57.784
X58.126 Y58.042
X58.069 Y58.122
X58.042 Y58.158
X58.006 Y58.207
X57.957 Y58.27
X57.745 Y58.545
X57.704 Y58.598
X57.679 Y58.629
X57.619 Y58.704
X57.611 Y58.714
X57.54 Y58.798
X57.281 Y59.106
X57.254 Y59.137
X57.196 Y59.203
X57.18 Y59.221
X57.102 Y59.306
X56.867 Y59.559
X56.789 Y59.644
X56.773 Y59.66
X56.707 Y59.728
X56.689 Y59.747
X56.622 Y59.813
X56.45 Y59.982
X56.365 Y60.067
X56.35 Y60.08
X56.277 Y60.151
X56.266 Y60.162
X56.181 Y60.239
X56.097 Y60.315
X55.843 Y60.543
X55.808 Y60.574
X55.759 Y60.617
X55.709 Y60.658
X55.674 Y60.687
X55.605 Y60.743
X55.294 Y60.997
X55.251 Y61.03
X55.185 Y61.081
X55.167 Y61.095
X54.828 Y61.345
X54.744 Y61.406
X54.725 Y61.419
X54.659 Y61.465
X54.602 Y61.504
X54.575 Y61.522
X54.22 Y61.758
X54.152 Y61.801
X54.087 Y61.842
X54.067 Y61.854
X53.729 Y62.055
X53.66 Y62.096
X53.644 Y62.105
X53.56 Y62.154
X53.512 Y62.18
X53.475 Y62.2
X53.391 Y62.245
X53.137 Y62.379
X53.052 Y62.423
X52.968 Y62.466
X52.883 Y62.507
X52.858 Y62.518
X52.799 Y62.546
X52.46 Y62.703
X52.376 Y62.742
X52.305 Y62.772
X52.291 Y62.778
X52.207 Y62.812
X51.869 Y62.948
X51.784 Y62.982
X51.699 Y63.014
X51.615 Y63.045
X51.53 Y63.075
X51.427 Y63.11
X51.361 Y63.133
X51.277 Y63.161
X51.171 Y63.195
X51.107 Y63.215
X51.023 Y63.24
X50.938 Y63.266
X50.769 Y63.312
X50.685 Y63.335
X50.6 Y63.358
X50.431 Y63.401
X50.346 Y63.42
X50.22 Y63.448
X50.177 Y63.458
X50.093 Y63.476
X50.008 Y63.493
X49.839 Y63.526
X49.802 Y63.533
X49.67 Y63.555
X49.585 Y63.569
X49.501 Y63.582
X49.416 Y63.595
X49.247 Y63.619
X49.162 Y63.63
X48.74 Y63.67
X48.57 Y63.686
X48.486 Y63.692
X48.401 Y63.695
X48.317 Y63.698
X47.894 Y63.714
X47.809 Y63.713
X47.725 Y63.711
X47.64 Y63.71
X47.294 Y63.702
X47.217 Y63.7
X47.133 Y63.694
X47.048 Y63.687
X46.625 Y63.654
X46.541 Y63.646
X46.456 Y63.635
X46.372 Y63.623
X45.949 Y63.566
X45.864 Y63.552
X45.767 Y63.533
X45.695 Y63.519
X45.331 Y63.448
X45.272 Y63.437
X45.188 Y63.417
X45.103 Y63.395
X44.68 Y63.289
X44.643 Y63.279
X44.596 Y63.266
X44.511 Y63.24
X44.427 Y63.214
X44.089 Y63.109
X44.004 Y63.082
X43.919 Y63.052
X43.848 Y63.026
X43.412 Y62.865
X43.39 Y62.857
X43.327 Y62.83
X43.243 Y62.794
X42.82 Y62.613
X42.797 Y62.603
X42.735 Y62.574
X42.651 Y62.533
X42.228 Y62.325
X42.144 Y62.281
X41.721 Y62.048
X41.654 Y62.011
X41.636 Y62.001
X41.369 Y61.842
X41.298 Y61.798
X41.044 Y61.636
X40.975 Y61.588
X40.706 Y61.396
X40.626 Y61.335
X40.519 Y61.25
X40.452 Y61.195
X40.368 Y61.124
X40.318 Y61.081
X40.199 Y60.974
X40.131 Y60.912
X40.029 Y60.814
X39.956 Y60.743
X39.86 Y60.645
X39.791 Y60.574
X39.776 Y60.558
X39.633 Y60.405
X39.607 Y60.376
X39.556 Y60.32
X39.437 Y60.187
X39.405 Y60.151
X39.259 Y59.982
X39.187 Y59.898
X39.015 Y59.693
X38.974 Y59.644
X38.835 Y59.475
X38.765 Y59.39
X38.013 Y58.473
X38.011
X37.261 Y59.39
X37.239 Y59.417
X37.052 Y59.644
X36.985 Y59.724
X36.839 Y59.898
X36.816 Y59.925
X36.647 Y60.121
X36.62 Y60.151
X36.47 Y60.32
X36.393 Y60.404
X36.309 Y60.495
X36.235 Y60.574
X36.07 Y60.743
X36.055 Y60.758
X35.895 Y60.912
X35.886 Y60.921
X35.802 Y60.997
X35.708 Y61.081
X35.632 Y61.146
X35.547 Y61.217
X35.507 Y61.25
X35.378 Y61.352
X35.294 Y61.415
X35.04 Y61.597
X34.956 Y61.652
X34.791 Y61.758
X34.702 Y61.815
X34.656 Y61.842
X34.448 Y61.965
X34.371 Y62.011
X34.364 Y62.015
X34.22 Y62.096
X34.194 Y62.11
X33.856 Y62.295
X33.772 Y62.34
X33.754 Y62.349
X33.687 Y62.384
X33.602 Y62.426
X33.518 Y62.468
X33.433 Y62.51
X33.415 Y62.518
X33.349 Y62.551
X33.264 Y62.59
X33.18 Y62.629
X33.095 Y62.668
X33.052 Y62.688
X33.011 Y62.706
X32.926 Y62.743
X32.757 Y62.815
X32.672 Y62.85
X32.588 Y62.884
X32.503 Y62.917
X32.419 Y62.95
X32.334 Y62.983
X32.249 Y63.014
X32.217 Y63.026
X32.165 Y63.045
X32.08 Y63.075
X31.996 Y63.105
X31.979 Y63.11
X31.911 Y63.133
X31.827 Y63.161
X31.657 Y63.215
X31.573 Y63.241
X31.488 Y63.265
X31.441 Y63.279
X31.319 Y63.314
X31.235 Y63.338
X31.15 Y63.36
X31.066 Y63.381
X30.981 Y63.402
X30.896 Y63.423
X30.812 Y63.443
X30.643 Y63.479
X30.558 Y63.498
X30.474 Y63.516
X30.389 Y63.531
X30.304 Y63.547
X30.22 Y63.562
X30.135 Y63.576
X30.051 Y63.591
X29.966 Y63.603
X29.862 Y63.618
X29.797 Y63.626
X29.712 Y63.638
X29.628 Y63.648
X29.459 Y63.666
X29.374 Y63.675
X29.29 Y63.682
X29.205 Y63.689
X29.121 Y63.695
X29.036 Y63.701
X28.867 Y63.711
X28.782 Y63.714
X28.698 Y63.717
X28.613 Y63.72
X28.529 Y63.721
X28.444 Y63.723
X28.359
X28.275
X28.19 Y63.722
X28.106 Y63.72
X28.021 Y63.718
X27.852 Y63.713
X27.767 Y63.708
X27.598 Y63.697
X27.429 Y63.686
X27.345 Y63.679
X27.26 Y63.67
X27.176 Y63.661
X27.006 Y63.643
X26.922 Y63.633
X26.807 Y63.618
X26.753 Y63.61
X26.584 Y63.583
X26.499 Y63.57
X26.414 Y63.556
X26.33 Y63.541
X26.245 Y63.525
X26.161 Y63.508
X25.992 Y63.474
X25.907 Y63.456
X25.822 Y63.437
X25.738 Y63.417
X25.653 Y63.397
X25.484 Y63.354
X25.4 Y63.333
X25.315 Y63.31
X25.231 Y63.286
X25.061 Y63.237
X24.977 Y63.212
X24.92 Y63.195
X24.892 Y63.187
X24.808 Y63.16
X24.723 Y63.132
X24.554 Y63.075
X24.469 Y63.046
X24.41 Y63.026
X24.385 Y63.017
X24.3 Y62.986
X24.216 Y62.954
X24.181 Y62.941
X24.131 Y62.923
X23.963 Y62.857
X23.877 Y62.824
X23.793 Y62.789
X23.708 Y62.752
X23.624 Y62.715
X23.364 Y62.603
X23.286 Y62.568
X22.947 Y62.403
X22.863 Y62.361
X22.778 Y62.319
X22.694 Y62.274
X22.44 Y62.135
X22.37 Y62.096
X22.271 Y62.04
X22.22 Y62.011
X22.186 Y61.99
X21.932 Y61.836
X21.848 Y61.784
X21.763 Y61.731
X21.679 Y61.676
X21.423 Y61.504
X21.341 Y61.448
X21.256 Y61.388
X21.181 Y61.335
X20.918 Y61.141
X20.839 Y61.081
X20.749 Y61.011
X20.73 Y60.997
X20.664 Y60.943
X20.495 Y60.807
X20.415 Y60.743
X20.41 Y60.739
X20.316 Y60.658
X20.241 Y60.594
X19.988 Y60.372
X19.93 Y60.32
X19.818 Y60.216
X19.75 Y60.151
X19.565 Y59.975
X19.485 Y59.898
X19.396 Y59.806
X19.32 Y59.728
X19.142 Y59.545
X19.075 Y59.475
X18.847 Y59.221
X18.804 Y59.173
X18.719 Y59.078
X18.696 Y59.052
X18.634 Y58.979
X18.465 Y58.776
X18.414 Y58.714
X18.345 Y58.629
X18.296 Y58.569
X18.082 Y58.291
X18.043 Y58.24
X17.954 Y58.122
X17.893 Y58.037
X17.712 Y57.784
X17.704 Y57.774
X17.595 Y57.615
X17.539 Y57.53
X17.427 Y57.361
X17.371 Y57.277
X17.366 Y57.269
X17.264 Y57.107
X17.212 Y57.023
X17.057 Y56.769
X17.028 Y56.719
X16.943 Y56.572
X16.911 Y56.516
X16.768 Y56.262
X16.722 Y56.177
X16.605 Y55.954
X16.589 Y55.924
X16.501 Y55.755
X16.459 Y55.67
X16.351 Y55.449
X16.336 Y55.417
X16.255 Y55.247
X16.216 Y55.163
X16.14 Y54.994
X16.102 Y54.909
X16.098 Y54.898
X16.03 Y54.74
X16.013 Y54.701
X15.923 Y54.487
X15.888 Y54.402
X15.856 Y54.317
X15.823 Y54.233
X15.79 Y54.148
X15.725 Y53.979
X15.693 Y53.895
X15.603 Y53.641
X15.59 Y53.605
X15.544 Y53.472
X15.516 Y53.387
X15.46 Y53.218
X15.432 Y53.134
X15.304 Y52.711
X15.279 Y52.626
X15.232 Y52.457
X15.209 Y52.373
X15.164 Y52.204
X15.12 Y52.035
X15.099 Y51.95
X15.059 Y51.781
X15.039 Y51.696
X15.02 Y51.612
X15.001 Y51.527
X14.964 Y51.358
X14.946 Y51.274
X14.929 Y51.189
X14.914 Y51.109
X14.897 Y51.02
X14.882 Y50.936
X14.867 Y50.851
X14.851 Y50.766
X14.834 Y50.682
X14.829 Y50.653
X14.82 Y50.597
X14.806 Y50.513
X14.793 Y50.428
X14.744 Y50.121
X14.74 Y50.09
X14.728 Y50.006
X14.706 Y49.836
X14.695 Y49.752
X14.673 Y49.583
X14.663 Y49.498
X14.635 Y49.245
X14.627 Y49.16
X14.618 Y49.076
X14.61 Y48.991
X14.588 Y48.737
X14.582 Y48.653
X14.569 Y48.484
X14.564 Y48.399
X14.549 Y48.146
X14.544 Y48.061
X14.54 Y47.976
X14.536 Y47.892
X14.527 Y47.638
X14.525 Y47.554
X14.521 Y47.385
X14.52 Y47.3
X14.517 Y47.046
Y46.962
X14.518 Y46.877
Y46.793
X14.521 Y46.539
X14.523 Y46.455
X14.528 Y46.285
X14.531 Y46.201
X14.54 Y45.947
X14.544 Y45.863
X14.549 Y45.778
X14.569 Y45.44
X14.574 Y45.355
X14.595 Y45.102
X14.601 Y45.017
X14.616 Y44.848
X14.624 Y44.764
X14.65 Y44.51
X14.659 Y44.425
X14.668 Y44.341
X14.678 Y44.256
X14.709 Y44.003
X14.72 Y43.918
X14.744 Y43.736
X14.755 Y43.665
X14.792 Y43.411
X14.805 Y43.326
X14.819 Y43.242
X14.829 Y43.177
X14.875 Y42.904
X14.89 Y42.819
X14.921 Y42.65
X14.936 Y42.565
X14.968 Y42.396
X14.984 Y42.312
X15.019 Y42.143
X15.037 Y42.058
X15.083 Y41.837
X15.09 Y41.804
X15.109 Y41.72
X15.147 Y41.551
X15.166 Y41.466
X15.186 Y41.382
X15.205 Y41.297
X15.226 Y41.213
X15.267 Y41.044
X15.289 Y40.959
X15.31 Y40.874
X15.331 Y40.79
X15.398 Y40.536
X15.421 Y40.452
X15.444 Y40.367
X15.468 Y40.283
X15.515 Y40.114
X15.539 Y40.029
X15.589 Y39.86
X15.614 Y39.775
X15.664 Y39.606
X15.675 Y39.572
X15.743 Y39.353
X15.759 Y39.301
X15.797 Y39.184
X15.824 Y39.099
X15.879 Y38.93
X15.907 Y38.845
X15.965 Y38.676
X15.994 Y38.592
X16.023 Y38.507
X16.052 Y38.423
X16.098 Y38.294
X16.112 Y38.254
X16.182 Y38.061
X16.204 Y38.
X16.235 Y37.915
X16.267 Y37.831
X16.299 Y37.746
X16.331 Y37.662
X16.396 Y37.493
X16.428 Y37.408
X16.461 Y37.324
X16.495 Y37.239
X16.52 Y37.175
X16.529 Y37.154
X16.563 Y37.07
X16.597 Y36.985
X16.605 Y36.967
X16.632 Y36.901
X16.666 Y36.816
X16.689 Y36.759
X16.701 Y36.732
X16.736 Y36.647
X16.809 Y36.478
X17.028 Y35.968
X17.064 Y35.886
X17.14 Y35.717
X17.178 Y35.633
X17.372 Y35.21
X17.412 Y35.125
X17.451 Y35.043
X17.491 Y34.956
X17.739 Y34.449
X17.781 Y34.364
X17.822 Y34.28
X17.864 Y34.195
X17.958 Y34.013
X17.995 Y33.942
X18.214 Y33.519
X18.259 Y33.434
X18.304 Y33.35
X18.349 Y33.265
X18.581 Y32.843
X18.627 Y32.758
X18.722 Y32.589
X18.77 Y32.504
X18.868 Y32.335
X19.142 Y31.861
X19.161 Y31.828
X19.263 Y31.659
X19.311 Y31.58
X19.572 Y31.152
X19.624 Y31.067
X19.677 Y30.982
X19.73 Y30.898
X20. Y30.475
X20.054 Y30.391
X20.109 Y30.306
X20.157 Y30.232
X20.277 Y30.052
X20.326 Y29.979
X20.579 Y29.6
X20.616 Y29.545
X20.853 Y29.207
X20.912 Y29.122
X21.208 Y28.7
X21.256 Y28.633
X21.516 Y28.277
X21.578 Y28.192
X21.829 Y27.854
X21.848 Y27.829
X22.186 Y27.384
X22.215 Y27.347
X22.481 Y27.009
X22.524 Y26.954
X22.815 Y26.586
X22.863 Y26.525
X22.882 Y26.501
X23.228 Y26.079
X23.286 Y26.009
X23.509 Y25.741
X23.539 Y25.704
X23.58 Y25.656
X23.877 Y25.305
X23.931 Y25.242
X23.939 Y25.233
X24.234 Y24.895
X24.604 Y24.472
X24.639 Y24.434
X24.986 Y24.05
X25.061 Y23.967
X25.315 Y23.689
X25.373 Y23.627
X25.688 Y23.289
X25.738 Y23.235
X25.992 Y22.97
X26.33 Y22.616
X26.414 Y22.528
X26.753 Y22.182
X26.829 Y22.105
X27.091 Y21.841
X27.166 Y21.767
X27.429 Y21.504
X27.505 Y21.429
X27.852 Y21.091
X27.937 Y21.009
X28.19 Y20.763
X28.202 Y20.752
X28.529 Y20.441
X28.556 Y20.414
X28.867 Y20.124
X28.918 Y20.076
X29.09 Y19.915
X29.22 Y19.794
X29.35 Y19.674 Z-2.002
X29.481 Y19.553 Z-2.003
X29.612 Y19.433 Z-2.006
X29.743 Y19.313 Z-2.009
X29.874 Y19.194 Z-2.013
X30.006 Y19.074 Z-2.017
X30.137 Y18.955 Z-2.022
X30.269 Y18.836 Z-2.027
X30.401 Y18.717 Z-2.033
X30.533 Y18.599 Z-2.039
X30.666 Y18.48 Z-2.045
X30.798 Y18.362 Z-2.051
X30.931 Y18.244 Z-2.057
X31.064 Y18.127 Z-2.064
X31.198 Y18.01 Z-2.07
X31.466 Y17.776 Z-2.082
X31.6 Y17.659 Z-2.088
X31.734 Y17.543 Z-2.095
X31.869 Y17.427 Z-2.101
X32.004 Y17.312 Z-2.107
X32.139 Y17.196 Z-2.113
X32.274 Y17.081 Z-2.119
X32.409 Y16.965 Z-2.126
X32.545 Y16.851 Z-2.132
X32.681 Y16.736 Z-2.138
X32.817 Y16.622 Z-2.144
X32.953 Y16.508 Z-2.15
X33.228 Y16.282 Z-2.163
X33.365 Y16.169 Z-2.169
X33.503 Y16.057 Z-2.174
X33.641 Y15.946 Z-2.179
X33.779 Y15.834 Z-2.184
X33.918 Y15.723 Z-2.188
X34.056 Y15.612 Z-2.192
X34.195 Y15.501 Z-2.195
X34.335 Y15.391 Z-2.197
X34.474 Y15.281 Z-2.199
X34.614 Y15.171 Z-2.2
X34.719 Y15.089
X34.721 Y15.088
X34.786 Y15.037
X35.048 Y14.834
X35.125 Y14.775
X35.158 Y14.749
X35.463 Y14.516
X35.489 Y14.496
X35.547 Y14.452
X35.825 Y14.242
X35.886 Y14.196
X35.97 Y14.133
X36.05 Y14.073
X36.165 Y13.989
X36.224 Y13.945
X36.309 Y13.883
X36.393 Y13.821
X36.511 Y13.735
X36.562 Y13.698
X36.647 Y13.638
X36.731 Y13.578
X36.816 Y13.519
X36.871 Y13.481
X36.901 Y13.461
X36.985 Y13.404
X36.996 Y13.397
X37.07 Y13.349
X37.132 Y13.312
X37.154 Y13.299
X37.239 Y13.25
X37.284 Y13.228
X37.323 Y13.21
X37.408 Y13.176
X37.49 Y13.143
X37.492 Y13.142
X37.535 Y13.129
X37.577 Y13.119
X37.662 Y13.102
X37.746 Y13.085
X37.788 Y13.079
X37.831 Y13.075
X37.915 Y13.074
X38. Y13.076
X38.084 Y13.079
X38.127 Y13.084
X38.169 Y13.09
X38.254 Y13.109
X38.338 Y13.128
X38.399 Y13.143
X38.423 Y13.15
X38.507 Y13.18
X38.592 Y13.213
X38.627 Y13.228
X38.676 Y13.249
X38.761 Y13.289
X38.807 Y13.312
X38.846 Y13.332
X38.93 Y13.378
X38.963 Y13.397
X39.015 Y13.427
X39.099 Y13.477
X39.106 Y13.481
X39.184 Y13.53
X39.24 Y13.566
X39.268 Y13.584
X39.368 Y13.65
X39.437 Y13.697
X39.522 Y13.756
X39.607 Y13.815
X39.691 Y13.875
X39.732 Y13.904
X39.776 Y13.936
X39.86 Y13.997
X39.945 Y14.059
X40.079 Y14.158
X40.114 Y14.184
X40.283 Y14.31
X40.305 Y14.327
X40.368 Y14.374
X40.452 Y14.438
X40.529 Y14.496
X40.537 Y14.502
X40.621 Y14.566
X40.706 Y14.63
X40.752 Y14.665
X40.875 Y14.759
X40.96 Y14.824
X41.129 Y14.954
X41.193 Y15.003
X41.303 Y15.088
X41.382 Y15.149
X41.636 Y15.348
X41.721 Y15.413
X41.737 Y15.426
X41.805 Y15.479
X41.846 Y15.51
X41.89 Y15.545
X41.974 Y15.611
X42.059 Y15.678
X42.144 Y15.745
X42.168 Y15.764
X42.82 Y16.288
X42.905 Y16.356
X42.989 Y16.423
X43.115 Y16.525
X43.158 Y16.56
X43.243 Y16.629
X43.322 Y16.694
X43.424 Y16.779
X43.497 Y16.839
X44.033 Y17.286
X44.089 Y17.332
X44.173 Y17.403
X44.236 Y17.455
X44.342 Y17.545
X44.427 Y17.617
X44.533 Y17.709
X44.596 Y17.762
X45.121 Y18.216
X45.188 Y18.274
X45.316 Y18.385
X45.357 Y18.421
X45.526 Y18.57
X45.603 Y18.639
X45.695 Y18.721
X45.78 Y18.797
X46.287 Y19.251
X46.358 Y19.315
X46.456 Y19.404
X46.541 Y19.482
X46.635 Y19.569
X46.71 Y19.638
X47.271 Y20.16
X47.452 Y20.33
X47.471 Y20.348
X47.64 Y20.509
X47.717 Y20.583
X47.805 Y20.668
X47.892 Y20.752
X48.415 Y21.26
X48.486 Y21.329
X48.587 Y21.429
X48.655 Y21.497
X48.824 Y21.666
X48.84 Y21.682
X49.341 Y22.19
X49.416 Y22.266
X49.59 Y22.443
X49.67 Y22.527
X49.754 Y22.615
X49.832 Y22.697
X50.346 Y23.241
X50.515 Y23.421
X50.55 Y23.458
X50.6 Y23.513
X50.938 Y23.885
X51.011 Y23.965
X51.468 Y24.472
X51.53 Y24.543
X51.869 Y24.933
X51.909 Y24.98
X52.376 Y25.524
X52.416 Y25.571
X52.766 Y25.994
X52.799 Y26.034
X52.835 Y26.079
X53.222 Y26.554
X53.306 Y26.659
X53.316 Y26.671
X53.475 Y26.871
X53.517 Y26.924
X53.729 Y27.196
X53.78 Y27.262
X53.911 Y27.432
X53.976 Y27.516
X54.168 Y27.77
X54.232 Y27.854
X54.359 Y28.023
X54.405 Y28.087
X54.607 Y28.362
X54.659 Y28.432
X54.793 Y28.615
X54.828 Y28.665
X55.033 Y28.953
X55.153 Y29.122
X55.213 Y29.207
X55.251 Y29.263
X55.445 Y29.545
X55.619 Y29.799
X55.674 Y29.881
X55.843 Y30.136
X55.9 Y30.222
X56.012 Y30.391
X56.066 Y30.475
X56.229 Y30.729
X56.266 Y30.787
X56.391 Y30.982
X56.435 Y31.053
X56.6 Y31.321
X56.652 Y31.405
X56.773 Y31.602
X56.808 Y31.659
X57.008 Y31.997
X57.108 Y32.166
X57.158 Y32.251
X57.196 Y32.317
X57.351 Y32.589
X57.495 Y32.843
X57.534 Y32.913
X57.704 Y33.224
X57.726 Y33.265
X57.818 Y33.434
X57.864 Y33.519
X57.873 Y33.535
X58.04 Y33.857
X58.084 Y33.942
X58.172 Y34.111
X58.211 Y34.186
X58.295 Y34.356
X58.341 Y34.449
X58.508 Y34.787
X58.549 Y34.87
X58.669 Y35.125
X58.709 Y35.21
X58.866 Y35.548
X58.887 Y35.595
X58.98 Y35.802
X59.017 Y35.886
X59.164 Y36.224
X59.201 Y36.309
X59.31 Y36.567
X59.343 Y36.647
X59.48 Y36.985
X59.514 Y37.07
X59.581 Y37.239
X59.615 Y37.324
X59.646 Y37.408
X59.773 Y37.746
X59.805 Y37.831
X59.867 Y38.
X59.898 Y38.084
X59.986 Y38.338
X60.015 Y38.423
X60.131 Y38.761
X60.156 Y38.834
X60.24 Y39.099
X60.267 Y39.184
X60.373 Y39.522
X60.398 Y39.606
X60.448 Y39.775
X60.472 Y39.86
X60.592 Y40.283
X60.615 Y40.367
X60.663 Y40.55
X60.682 Y40.621
X60.788 Y41.044
X60.808 Y41.128
X60.849 Y41.297
X60.869 Y41.382
X60.887 Y41.466
X60.961 Y41.804
X60.979 Y41.889
X61.032 Y42.143
X61.048 Y42.227
X61.111 Y42.565
X61.126 Y42.65
X61.173 Y42.904
X61.186 Y42.988
X61.213 Y43.157
X61.226 Y43.242
X61.29 Y43.665
X61.301 Y43.749
X61.333 Y44.003
X61.34 Y44.058
X61.383 Y44.425
X61.392 Y44.51
X61.417 Y44.764
X61.424 Y44.847
X61.452 Y45.186
X61.459 Y45.271
X61.465 Y45.355
X61.477 Y45.525
X61.482 Y45.609
X61.502 Y46.032
X61.505 Y46.116
X61.512 Y46.285
X61.515 Y46.37
X61.516 Y46.455
X61.517 Y46.624
X61.518 Y46.708
X61.52 Y46.877
X61.523 Y47.131
X61.522 Y47.215
X61.513 Y47.554
X61.511 Y47.638
X61.508 Y47.807
X61.506 Y47.892
X61.503 Y47.976
X61.498 Y48.061
X61.494 Y48.146
X61.488 Y48.23
X61.467 Y48.568
X61.461 Y48.653
X61.455 Y48.737
X61.448 Y48.822
X61.44 Y48.906
X61.432 Y48.991
X61.388 Y49.414
X61.379 Y49.498
X61.369 Y49.583
X61.359 Y49.667
X61.335 Y49.836
X61.323 Y49.921
X61.262 Y50.344
X61.255 Y50.384
X61.219 Y50.597
X61.203 Y50.682
X61.14 Y51.02
X61.124 Y51.105
X61.086 Y51.291
X61.072 Y51.358
X61.053 Y51.443
X60.976 Y51.781
X60.955 Y51.866
X60.915 Y52.035
X60.894 Y52.119
X60.801 Y52.457
X60.778 Y52.542
X60.708 Y52.796
X60.682 Y52.88
X60.629 Y53.049
X60.602 Y53.134
X60.494 Y53.472
X60.465 Y53.557
X60.41 Y53.714
X60.376 Y53.81
X60.344 Y53.895
X60.24 Y54.175
X60.219 Y54.233
X60.119 Y54.487
X60.083 Y54.571
X59.94 Y54.909
X59.903 Y54.994
X59.818 Y55.188
X59.79 Y55.247
X59.627 Y55.586
X59.586 Y55.67
X59.504 Y55.839
X59.479 Y55.889
X59.37 Y56.093
X59.325 Y56.177
X59.141 Y56.517
X59.093 Y56.6
X59.043 Y56.685
X58.993 Y56.769
X58.887 Y56.949
X58.842 Y57.023
X58.789 Y57.107
X58.736 Y57.192
X58.627 Y57.361
X58.573 Y57.446
X58.461 Y57.615
X58.402 Y57.699
X58.342 Y57.784
X58.295 Y57.85
X58.163 Y58.037
X58.126 Y58.088
X58.039 Y58.207
X57.974 Y58.291
X57.844 Y58.46
X57.788 Y58.532
X57.704 Y58.639
X57.643 Y58.714
X57.573 Y58.798
X57.534 Y58.844
X57.359 Y59.052
X57.285 Y59.137
X57.211 Y59.221
X57.196 Y59.238
X57.055 Y59.39
X56.858 Y59.604
X56.82 Y59.644
X56.737 Y59.728
X56.689 Y59.778
X56.653 Y59.813
X56.482 Y59.982
X56.435 Y60.028
X56.35 Y60.11
X56.308 Y60.151
X56.266 Y60.19
X56.181 Y60.267
X56.123 Y60.32
X55.928 Y60.495
X55.843 Y60.569
X55.759 Y60.642
X55.74 Y60.658
X55.674 Y60.712
X55.589 Y60.781
X55.532 Y60.828
X55.336 Y60.988
X55.325 Y60.997
X55.251 Y61.053
X55.167 Y61.118
X55.102 Y61.166
X54.913 Y61.305
X54.873 Y61.335
X54.744 Y61.428
X54.659 Y61.486
X54.575 Y61.543
X54.507 Y61.588
X54.321 Y61.712
X54.251 Y61.758
X54.118 Y61.842
X54.067 Y61.873
X53.814 Y62.024
X53.729 Y62.074
X53.644 Y62.124
X53.56 Y62.171
X53.475 Y62.217
X53.391 Y62.263
X53.227 Y62.349
X53.137 Y62.397
X53.064 Y62.434
X52.968 Y62.483
X52.893 Y62.518
X52.799 Y62.562
X52.714 Y62.602
X52.529 Y62.688
X52.46 Y62.72
X52.376 Y62.756
X52.291 Y62.792
X52.207 Y62.827
X51.953 Y62.929
X51.923 Y62.941
X51.869 Y62.963
X51.784 Y62.996
X51.703 Y63.026
X51.615 Y63.058
X51.53 Y63.087
X51.446 Y63.116
X51.361 Y63.145
X51.277 Y63.172
X51.207 Y63.195
X51.192 Y63.2
X51.107 Y63.226
X51.023 Y63.252
X50.938 Y63.275
X50.769 Y63.322
X50.617 Y63.364
X50.6 Y63.368
X50.515 Y63.39
X50.431 Y63.41
X50.346 Y63.429
X50.262 Y63.448
X50.093 Y63.484
X50.008 Y63.502
X49.924 Y63.519
X49.849 Y63.533
X49.839 Y63.535
X49.754 Y63.549
X49.67 Y63.563
X49.585 Y63.576
X49.416 Y63.602
X49.332 Y63.615
X49.247 Y63.626
X49.162 Y63.636
X48.824 Y63.669
X48.74 Y63.677
X48.57 Y63.693
X48.486 Y63.697
X48.317 Y63.704
X48.232 Y63.707
X47.979 Y63.716
X47.894 Y63.719
X47.809 Y63.718
X47.64 Y63.714
X47.556 Y63.713
X47.302 Y63.707
X47.217 Y63.705
X47.186 Y63.702
X46.964 Y63.685
X46.879 Y63.678
X46.625 Y63.658
X46.541 Y63.65
X46.304 Y63.618
X46.287 Y63.615
X45.949 Y63.569
X45.864 Y63.554
X45.695 Y63.522
X45.611 Y63.505
X45.318 Y63.448
X45.272 Y63.439
X45.188 Y63.418
X45.019 Y63.376
X44.97 Y63.364
X44.68 Y63.291
X44.637 Y63.279
X44.596 Y63.267
X44.427 Y63.215
X44.361 Y63.195
X44.089 Y63.11
X44.004 Y63.083
X43.835 Y63.022
X43.75 Y62.991
X43.497 Y62.897
X43.412 Y62.866
X43.389 Y62.857
X43.158 Y62.759
X43.074 Y62.722
X42.82 Y62.614
X42.796 Y62.603
X42.735 Y62.574
X42.566 Y62.492
X42.482 Y62.45
X42.276 Y62.349
X42.228 Y62.326
X42.144 Y62.281
X41.721 Y62.048
X41.654 Y62.011
X41.636 Y62.001
X41.369 Y61.842
X41.298 Y61.798
X41.044 Y61.636
X40.975 Y61.588
X40.706 Y61.396
X40.626 Y61.335
X40.519 Y61.25
X40.452 Y61.195
X40.368 Y61.124
X40.318 Y61.081
X40.199 Y60.974
X40.131 Y60.912
X40.029 Y60.814
X39.956 Y60.743
X39.86 Y60.645
X39.791 Y60.574
X39.776 Y60.558
X39.633 Y60.405
X39.607 Y60.376
X39.556 Y60.32
X39.437 Y60.187
X39.405 Y60.151
X39.259 Y59.982
X39.187 Y59.898
X39.015 Y59.693
X38.974 Y59.644
X38.835 Y59.475
X38.765 Y59.39
X38.013 Y58.473
X38.011
X37.261 Y59.39
X37.239 Y59.417
X37.052 Y59.644
X36.985 Y59.724
X36.839 Y59.898
X36.816 Y59.925
X36.647 Y60.121
X36.62 Y60.151
X36.47 Y60.32
X36.393 Y60.404
X36.309 Y60.495
X36.235 Y60.574
X36.07 Y60.743
X36.055 Y60.758
X35.895 Y60.912
X35.886 Y60.921
X35.802 Y60.997
X35.708 Y61.081
X35.632 Y61.146
X35.547 Y61.217
X35.507 Y61.25
X35.378 Y61.352
X35.294 Y61.415
X35.04 Y61.597
X34.956 Y61.652
X34.791 Y61.758
X34.702 Y61.815
X34.656 Y61.842
X34.448 Y61.965
X34.371 Y62.011
X34.364 Y62.015
X34.069 Y62.18
X34.025 Y62.204
X33.941 Y62.25
X33.754 Y62.349
X33.687 Y62.384
X33.602 Y62.426
X33.587 Y62.434
X33.518 Y62.468
X33.415 Y62.518
X33.349 Y62.551
X33.264 Y62.591
X33.237 Y62.603
X33.18 Y62.63
X33.052 Y62.688
X33.011 Y62.706
X32.926 Y62.743
X32.859 Y62.772
X32.841 Y62.78
X32.757 Y62.815
X32.672 Y62.85
X32.503 Y62.918
X32.444 Y62.941
X32.419 Y62.951
X32.334 Y62.983
X32.249 Y63.014
X32.165 Y63.045
X32.08 Y63.076
X31.996 Y63.105
X31.724 Y63.195
X31.657 Y63.216
X31.573 Y63.242
X31.319 Y63.316
X31.235 Y63.34
X31.15 Y63.361
X30.981 Y63.404
X30.896 Y63.425
X30.812 Y63.446
X30.798 Y63.448
X30.727 Y63.464
X30.474 Y63.518
X30.396 Y63.533
X30.389 Y63.534
X30.304 Y63.549
X30.051 Y63.593
X29.966 Y63.606
X29.882 Y63.617
X29.628 Y63.651
X29.543 Y63.661
X29.459 Y63.669
X29.205 Y63.693
X29.121 Y63.699
X29.073 Y63.702
X28.782 Y63.718
X28.698 Y63.722
X28.613 Y63.723
X28.359 Y63.728
X28.275
X28.19 Y63.726
X27.937 Y63.721
X27.852 Y63.718
X27.767 Y63.713
X27.429 Y63.692
X27.345 Y63.685
X27.26 Y63.676
X26.922 Y63.639
X26.837 Y63.629
X26.76 Y63.618
X26.414 Y63.563
X26.33 Y63.55
X26.245 Y63.533
X25.907 Y63.464
X25.832 Y63.448
X25.822 Y63.446
X25.738 Y63.426
X25.4 Y63.342
X25.315 Y63.32
X25.231 Y63.296
X24.886 Y63.195
X24.808 Y63.171
X24.723 Y63.143
X24.376 Y63.026
X24.3 Y62.999
X24.216 Y62.968
X24.146 Y62.941
X24.131 Y62.935
X24.047 Y62.902
X23.962 Y62.87
X23.877 Y62.838
X23.793 Y62.804
X23.624 Y62.73
X23.539 Y62.694
X23.286 Y62.584
X23.201 Y62.544
X23.032 Y62.461
X22.977 Y62.434
X22.778 Y62.335
X22.694 Y62.292
X22.489 Y62.18
X22.44 Y62.153
X22.355 Y62.106
X22.186 Y62.01
X22.102 Y61.959
X21.932 Y61.857
X21.909 Y61.842
X21.848 Y61.804
X21.679 Y61.697
X21.641 Y61.673
X21.594 Y61.641
X21.425 Y61.528
X21.39 Y61.504
X21.341 Y61.469
X21.149 Y61.335
X21.087 Y61.29
X20.918 Y61.165
X20.833 Y61.1
X20.664 Y60.969
X20.592 Y60.912
X20.487 Y60.828
X20.41 Y60.766
X20.383 Y60.743
X20.185 Y60.574
X20.157 Y60.549
X19.988 Y60.401
X19.903 Y60.325
X19.717 Y60.151
X19.649 Y60.087
X19.539 Y59.982
X19.48 Y59.925
X19.288 Y59.728
X19.226 Y59.666
X19.123 Y59.559
X19.057 Y59.491
X19.042 Y59.475
X18.888 Y59.304
X18.814 Y59.221
X18.663 Y59.052
X18.634 Y59.019
X18.465 Y58.816
X18.451 Y58.798
X18.296 Y58.61
X18.243 Y58.545
X18.212 Y58.504
X18.112 Y58.376
X18.048 Y58.291
X17.873 Y58.058
X17.858 Y58.037
X17.737 Y57.868
X17.704 Y57.822
X17.678 Y57.784
X17.535 Y57.576
X17.504 Y57.53
X17.366 Y57.322
X17.337 Y57.277
X17.178 Y57.023
X17.126 Y56.938
X17.074 Y56.854
X17.028 Y56.779
X17.022 Y56.769
X16.859 Y56.484
X16.828 Y56.431
X16.733 Y56.262
X16.689 Y56.181
X16.605 Y56.02
X16.466 Y55.755
X16.436 Y55.696
X16.341 Y55.501
X16.301 Y55.417
X16.22 Y55.247
X16.182 Y55.167
X16.18 Y55.163
X16.098 Y54.979
X16.067 Y54.909
X15.958 Y54.656
X15.928 Y54.585
X15.887 Y54.487
X15.853 Y54.402
X15.759 Y54.16
X15.722 Y54.064
X15.657 Y53.895
X15.627 Y53.81
X15.59 Y53.708
X15.567 Y53.641
X15.48 Y53.387
X15.451 Y53.303
X15.421 Y53.211
X15.396 Y53.134
X15.252 Y52.659
X15.242 Y52.626
X15.219 Y52.542
X15.195 Y52.457
X15.105 Y52.119
X15.083 Y52.031
X15.062 Y51.95
X15.042 Y51.866
X15.022 Y51.781
X14.964 Y51.527
X14.945 Y51.443
X14.927 Y51.358
X14.914 Y51.297
X14.909 Y51.274
X14.892 Y51.189
X14.876 Y51.105
X14.861 Y51.02
X14.845 Y50.936
X14.813 Y50.766
X14.797 Y50.682
X14.782 Y50.597
X14.768 Y50.513
X14.742 Y50.344
X14.729 Y50.259
X14.702 Y50.09
X14.69 Y50.006
X14.679 Y49.921
X14.668 Y49.836
X14.635 Y49.583
X14.624 Y49.498
X14.606 Y49.329
X14.597 Y49.245
X14.571 Y48.991
X14.564 Y48.906
X14.55 Y48.737
X14.543 Y48.653
X14.537 Y48.568
X14.524 Y48.399
X14.519 Y48.315
X14.514 Y48.23
X14.51 Y48.146
X14.498 Y47.892
X14.494 Y47.807
X14.488 Y47.638
X14.486 Y47.554
X14.481 Y47.3
X14.48 Y47.215
X14.479 Y47.131
X14.478 Y47.046
Y46.962
X14.479 Y46.793
X14.48 Y46.708
X14.482 Y46.539
X14.483 Y46.455
X14.491 Y46.222
Y46.201
X14.494 Y46.116
X14.5 Y45.947
X14.505 Y45.863
X14.514 Y45.694
X14.529 Y45.44
X14.534 Y45.355
X14.548 Y45.186
X14.554 Y45.102
X14.576 Y44.848
X14.583 Y44.764
X14.601 Y44.595
X14.61 Y44.51
X14.637 Y44.256
X14.647 Y44.172
X14.66 Y44.071
X14.668 Y44.003
X14.702 Y43.749
X14.714 Y43.665
X14.744 Y43.455
X14.751 Y43.411
X14.792 Y43.157
X14.805 Y43.073
X14.834 Y42.904
X14.849 Y42.819
X14.895 Y42.565
X14.911 Y42.481
X14.927 Y42.396
X14.943 Y42.312
X14.996 Y42.058
X15.013 Y41.974
X15.048 Y41.804
X15.067 Y41.72
X15.086 Y41.635
X15.106 Y41.551
X15.167 Y41.283
X15.184 Y41.213
X15.205 Y41.128
X15.226 Y41.044
X15.29 Y40.79
X15.312 Y40.705
X15.336 Y40.611
X15.356 Y40.536
X15.426 Y40.283
X15.45 Y40.198
X15.473 Y40.114
X15.497 Y40.029
X15.547 Y39.86
X15.623 Y39.606
X15.648 Y39.522
X15.674 Y39.437
X15.701 Y39.353
X15.782 Y39.099
X15.81 Y39.014
X15.844 Y38.909
X15.865 Y38.845
X15.894 Y38.761
X15.923 Y38.676
X16.01 Y38.423
X16.013 Y38.414
X16.04 Y38.338
X16.07 Y38.254
X16.162 Y38.
X16.182 Y37.945
X16.224 Y37.831
X16.267 Y37.717
X16.288 Y37.662
X16.386 Y37.408
X16.418 Y37.324
X16.436 Y37.279
X16.452 Y37.239
X16.485 Y37.154
X16.52 Y37.07
X16.554 Y36.985
X16.623 Y36.816
X16.657 Y36.732
X16.689 Y36.655
X16.801 Y36.393
X16.837 Y36.309
X16.943 Y36.062
X16.982 Y35.971
X17.02 Y35.886
X17.134 Y35.633
X17.173 Y35.548
X17.289 Y35.294
X17.328 Y35.21
X17.451 Y34.95
X17.488 Y34.872
X17.62 Y34.602
X17.653 Y34.533
X17.789 Y34.258
X17.82 Y34.195
X17.958 Y33.926
X17.994 Y33.857
X18.125 Y33.603
X18.169 Y33.519
X18.305 Y33.265
X18.35 Y33.181
X18.489 Y32.927
X18.536 Y32.843
X18.677 Y32.589
X18.719 Y32.513
X18.724 Y32.504
X18.888 Y32.221
X18.92 Y32.166
X19.067 Y31.913
X19.116 Y31.828
X19.269 Y31.574
X19.311 Y31.504
X19.48 Y31.226
X19.526 Y31.152
X19.684 Y30.898
X19.734 Y30.819
X19.903 Y30.554
X19.954 Y30.475
X20.117 Y30.222
X20.157 Y30.163
X20.326 Y29.909
X20.343 Y29.883
X20.513 Y29.63
X20.57 Y29.545
X20.866 Y29.122
X20.985 Y28.953
X21.171 Y28.686
X21.222 Y28.615
X21.425 Y28.336
X21.469 Y28.277
X21.848 Y27.767
X21.91 Y27.685
X22.102 Y27.432
X22.168 Y27.347
X22.567 Y26.84
X22.609 Y26.787
X22.834 Y26.501
X22.863 Y26.466
X23.041 Y26.248
X23.11 Y26.163
X23.539 Y25.647
X23.603 Y25.571
X23.818 Y25.318
X23.877 Y25.248
X24.216 Y24.861
X24.334 Y24.726
X24.556 Y24.472
X24.631 Y24.388
X24.86 Y24.134
X24.892 Y24.099
X25.324 Y23.627
X25.4 Y23.545
X25.569 Y23.363
X25.638 Y23.289
X26.123 Y22.781
X26.365 Y22.528
X26.414 Y22.476
X26.612 Y22.274
X26.668 Y22.217
X27.176 Y21.707
X27.201 Y21.682
X27.429 Y21.454
X27.455 Y21.429
X27.683 Y21.207
X27.716 Y21.175
X28.19 Y20.716
X28.24 Y20.668
X28.444 Y20.473
X28.507 Y20.414
X28.951 Y19.999
X29.036 Y19.92
X29.23 Y19.738
X29.29 Y19.683
X29.459 Y19.528
X29.507 Y19.484
X29.88 Y19.146
X29.966 Y19.068
X30.135 Y18.915
X30.161 Y18.892
X30.351 Y18.723
X30.389 Y18.69
X30.734 Y18.385
X30.812 Y18.317
X30.981 Y18.169
X31.024 Y18.131
X31.066 Y18.095
X31.121 Y18.047
X31.513 Y17.709
X31.573 Y17.657
X31.612 Y17.624
X31.657 Y17.585
X31.71 Y17.54
X31.742 Y17.512
X31.81 Y17.455
X31.827 Y17.441
X31.91 Y17.37
X31.996 Y17.298
X32.01 Y17.286
X32.08 Y17.227
X32.111 Y17.201
X32.334 Y17.012
X32.41 Y16.948
X32.511 Y16.863
X32.588 Y16.8
X32.919 Y16.525
X32.926 Y16.52
X33.023 Y16.44
X33.349 Y16.176
X33.433 Y16.107
X33.518 Y16.039
X33.545 Y16.018
X34.11 Y15.568
X34.182 Y15.51
X34.194 Y15.5
X34.279 Y15.434
X34.364 Y15.368
X34.617 Y15.169
X34.702 Y15.103
X34.719 Y15.089
X34.86 Y14.98
X35. Y14.871 Z-2.202
X35.14 Y14.762 Z-2.203
X35.281 Y14.654 Z-2.206
X35.422 Y14.546 Z-2.209
X35.563 Y14.438 Z-2.213
X35.704 Y14.33 Z-2.217
X35.845 Y14.222 Z-2.222
X35.987 Y14.115 Z-2.227
X36.129 Y14.008 Z-2.233
X36.271 Y13.902 Z-2.239
X36.414 Y13.796 Z-2.245
X36.557 Y13.691 Z-2.251
X36.701 Y13.587 Z-2.257
X36.846 Y13.485 Z-2.264
X36.992 Y13.385 Z-2.27
X37.142 Y13.291 Z-2.276
X37.217 Y13.247 Z-2.279
X37.255 Y13.225 Z-2.28
X37.294 Y13.206 Z-2.282
X37.458 Y13.137 Z-2.288
X37.498 Y13.122 Z-2.29
X37.54 Y13.109 Z-2.291
X37.625 Y13.09 Z-2.294
X37.711 Y13.072 Z-2.297
X37.754 Y13.064 Z-2.299
X37.797 Y13.057 Z-2.3
X37.841 Y13.054 Z-2.302
X37.885 Y13.053 Z-2.303
X37.972 Y13.054 Z-2.306
X38.06 Y13.055 Z-2.31
X38.104 Y13.058 Z-2.311
X38.147 Y13.064 Z-2.313
X38.32 Y13.1 Z-2.319
X38.406 Y13.12 Z-2.322
X38.489 Y13.148 Z-2.325
X38.654 Y13.212 Z-2.331
X38.814 Y13.287 Z-2.337
X38.97 Y13.371 Z-2.343
X39.123 Y13.461 Z-2.35
X39.273 Y13.555 Z-2.356
X39.421 Y13.653 Z-2.362
X39.568 Y13.753 Z-2.368
X39.714 Y13.855 Z-2.374
X39.858 Y13.958 Z-2.379
X40.002 Y14.063 Z-2.384
X40.145 Y14.168 Z-2.388
X40.288 Y14.274 Z-2.391
X40.43 Y14.38 Z-2.394
X40.572 Y14.487 Z-2.397
X40.714 Y14.594 Z-2.399
X40.855 Y14.702 Z-2.4
X40.979 Y14.797
X41.213 Y14.976
X41.382 Y15.106
X41.467 Y15.172
X41.805 Y15.437
X41.89 Y15.503
X41.9 Y15.51
X41.974 Y15.569
X42.008 Y15.595
X42.059 Y15.635
X42.114 Y15.679
X42.989 Y16.382
X43.062 Y16.44
X43.074 Y16.45
X43.158 Y16.518
X43.167 Y16.525
X43.243 Y16.586
X43.271 Y16.61
X43.327 Y16.656
X43.374 Y16.694
X43.412 Y16.726
X44.186 Y17.37
X44.258 Y17.43
X44.287 Y17.455
X44.342 Y17.502
X44.387 Y17.54
X44.427 Y17.574
X44.486 Y17.624
X44.511 Y17.646
X45.272 Y18.303
X45.357 Y18.376
X45.367 Y18.385
X45.442 Y18.45
X45.463 Y18.47
X45.526 Y18.525
X45.611 Y18.601
X45.653 Y18.639
X46.408 Y19.315
X46.456 Y19.359
X46.501 Y19.4
X46.541 Y19.436
X46.625 Y19.514
X46.685 Y19.569
X47.411 Y20.245
X47.471 Y20.301
X47.501 Y20.33
X47.556 Y20.381
X47.64 Y20.461
X47.679 Y20.499
X47.766 Y20.583
X48.486 Y21.281
X48.551 Y21.344
X48.655 Y21.447
X48.721 Y21.513
X48.74 Y21.532
X48.805 Y21.598
X49.501 Y22.302
X49.557 Y22.359
X49.639 Y22.443
X49.67 Y22.475
X49.754 Y22.563
X49.801 Y22.612
X50.431 Y23.279
X50.515 Y23.369
X50.6 Y23.459
X50.677 Y23.542
X50.83 Y23.711
X50.854 Y23.737
X51.53 Y24.488
X51.592 Y24.557
X51.784 Y24.778
X51.812 Y24.811
X52.464 Y25.571
X52.535 Y25.656
X52.714 Y25.872
X52.745 Y25.91
X53.391 Y26.705
X53.431 Y26.755
X53.498 Y26.84
X53.56 Y26.918
X53.828 Y27.262
X53.894 Y27.347
X53.959 Y27.432
X54.279 Y27.854
X54.321 Y27.91
X54.343 Y27.939
X54.405 Y28.023
X54.716 Y28.446
X54.744 Y28.484
X54.778 Y28.531
X54.828 Y28.6
X55.14 Y29.038
X55.2 Y29.122
X55.251 Y29.196
X55.55 Y29.63
X55.608 Y29.714
X55.665 Y29.799
X55.946 Y30.222
X56.012 Y30.322
X56.058 Y30.391
X56.35 Y30.848
X56.436 Y30.982
X56.489 Y31.067
X56.689 Y31.391
X56.749 Y31.49
X56.802 Y31.574
X56.852 Y31.659
X57.103 Y32.082
X57.153 Y32.166
X57.196 Y32.239
X57.443 Y32.673
X57.54 Y32.843
X57.586 Y32.927
X57.816 Y33.35
X57.873 Y33.453
X57.908 Y33.519
X58.126 Y33.939
X58.172 Y34.026
X58.216 Y34.111
X58.259 Y34.195
X58.301 Y34.28
X58.343 Y34.364
X58.593 Y34.872
X58.633 Y34.956
X58.673 Y35.041
X58.908 Y35.548
X58.947 Y35.633
X58.985 Y35.717
X59.023 Y35.802
X59.243 Y36.309
X59.28 Y36.393
X59.315 Y36.478
X59.35 Y36.563
X59.564 Y37.09
X59.59 Y37.154
X59.623 Y37.239
X59.649 Y37.303
X59.846 Y37.831
X59.878 Y37.915
X59.909 Y38.
X59.94 Y38.084
X59.969 Y38.169
X59.987 Y38.221
X60.173 Y38.761
X60.201 Y38.845
X60.24 Y38.969
X60.255 Y39.014
X60.414 Y39.522
X60.44 Y39.606
X60.465 Y39.691
X60.489 Y39.775
X60.656 Y40.367
X60.663 Y40.394
X60.701 Y40.536
X60.722 Y40.621
X60.849 Y41.128
X60.87 Y41.213
X60.89 Y41.297
X60.909 Y41.382
X61.019 Y41.889
X61.038 Y41.974
X61.056 Y42.058
X61.073 Y42.143
X61.182 Y42.735
X61.198 Y42.819
X61.213 Y42.904
X61.227 Y42.988
X61.24 Y43.073
X61.253 Y43.157
X61.33 Y43.665
X61.34 Y43.733
X61.353 Y43.834
X61.363 Y43.918
X61.432 Y44.51
X61.441 Y44.595
X61.449 Y44.679
X61.457 Y44.764
X61.499 Y45.271
X61.505 Y45.355
X61.511 Y45.44
X61.517 Y45.525
X61.521 Y45.609
X61.545 Y46.116
X61.549 Y46.201
X61.552 Y46.285
X61.554 Y46.37
X61.555 Y46.455
X61.556 Y46.539
X61.559 Y46.877
X61.562 Y47.131
X61.561 Y47.215
X61.548 Y47.723
X61.546 Y47.807
X61.544 Y47.892
X61.541 Y47.976
X61.537 Y48.061
X61.532 Y48.146
X61.499 Y48.653
X61.493 Y48.737
X61.486 Y48.822
X61.478 Y48.906
X61.425 Y49.414
X61.417 Y49.498
X61.407 Y49.583
X61.396 Y49.667
X61.384 Y49.752
X61.372 Y49.836
X61.299 Y50.344
X61.285 Y50.428
X61.271 Y50.513
X61.255 Y50.597
X61.161 Y51.105
X61.145 Y51.189
X61.127 Y51.274
X61.109 Y51.358
X60.992 Y51.866
X60.972 Y51.95
X60.952 Y52.035
X60.93 Y52.119
X60.791 Y52.626
X60.768 Y52.711
X60.744 Y52.796
X60.719 Y52.88
X60.692 Y52.965
X60.665 Y53.049
X60.529 Y53.472
X60.502 Y53.557
X60.494 Y53.579
X60.472 Y53.641
X60.442 Y53.726
X60.24 Y54.269
X60.222 Y54.317
X60.188 Y54.402
X60.156 Y54.482
X59.939 Y54.994
X59.902 Y55.078
X59.865 Y55.163
X59.824 Y55.247
X59.621 Y55.67
X59.58 Y55.755
X59.539 Y55.839
X59.496 Y55.924
X59.45 Y56.008
X59.405 Y56.093
X59.176 Y56.516
X59.141 Y56.578
X59.028 Y56.769
X58.978 Y56.854
X58.928 Y56.938
X58.887 Y57.006
X58.771 Y57.192
X58.718 Y57.274
X58.662 Y57.361
X58.634 Y57.405
X58.494 Y57.615
X58.465 Y57.658
X58.317 Y57.868
X58.257 Y57.953
X58.211 Y58.018
X58.197 Y58.037
X58.042 Y58.246
X58.008 Y58.291
X57.942 Y58.376
X57.877 Y58.46
X57.744 Y58.629
X57.704 Y58.679
X57.604 Y58.798
X57.534 Y58.883
X57.45 Y58.983
X57.39 Y59.052
X57.242 Y59.221
X57.196 Y59.272
X57.027 Y59.455
X56.931 Y59.559
X56.858 Y59.636
X56.767 Y59.728
X56.689 Y59.809
X56.685 Y59.813
X56.599 Y59.898
X56.52 Y59.975
X56.35 Y60.139
X56.338 Y60.151
X56.266 Y60.217
X56.153 Y60.32
X56.097 Y60.371
X56.012 Y60.447
X55.965 Y60.489
X55.759 Y60.668
X55.674 Y60.737
X55.563 Y60.828
X55.505 Y60.875
X55.42 Y60.944
X55.354 Y60.997
X55.167 Y61.14
X55.133 Y61.166
X54.997 Y61.266
X54.913 Y61.327
X54.785 Y61.419
X54.744 Y61.449
X54.663 Y61.504
X54.538 Y61.588
X54.49 Y61.621
X54.405 Y61.677
X54.321 Y61.733
X54.148 Y61.842
X54.067 Y61.892
X53.898 Y61.993
X53.724 Y62.096
X53.644 Y62.142
X53.42 Y62.265
X53.391 Y62.281
X53.222 Y62.37
X53.137 Y62.413
X53.052 Y62.456
X52.968 Y62.499
X52.927 Y62.518
X52.714 Y62.618
X52.63 Y62.657
X52.545 Y62.697
X52.46 Y62.734
X52.291 Y62.807
X52.207 Y62.842
X52.122 Y62.876
X52.038 Y62.91
X51.953 Y62.943
X51.869 Y62.976
X51.784 Y63.009
X51.739 Y63.026
X51.699 Y63.04
X51.615 Y63.071
X51.5 Y63.11
X51.446 Y63.128
X51.244 Y63.195
X51.192 Y63.212
X51.107 Y63.238
X51.023 Y63.262
X50.685 Y63.355
X50.6 Y63.378
X50.515 Y63.4
X50.431 Y63.419
X50.346 Y63.438
X50.008 Y63.51
X49.924 Y63.527
X49.894 Y63.533
X49.839 Y63.543
X49.754 Y63.557
X49.67 Y63.57
X49.363 Y63.618
X49.332 Y63.622
X49.247 Y63.634
X49.162 Y63.643
X48.993 Y63.659
X48.655 Y63.692
X48.57 Y63.7
X48.511 Y63.702
X48.317 Y63.709
X48.148 Y63.716
X47.979 Y63.722
X47.894 Y63.724
X47.809 Y63.723
X47.556 Y63.718
X47.471 Y63.716
X47.302 Y63.712
X47.217 Y63.709
X46.879 Y63.682
X46.795 Y63.676
X46.625 Y63.662
X46.541 Y63.653
X46.203 Y63.607
X46.118 Y63.596
X46.034 Y63.584
X45.949 Y63.572
X45.864 Y63.557
X45.611 Y63.508
X45.526 Y63.492
X45.357 Y63.459
X45.304 Y63.448
X45.272 Y63.441
X44.934 Y63.357
X44.85 Y63.336
X44.68 Y63.293
X44.633 Y63.279
X44.342 Y63.19
X44.258 Y63.164
X44.083 Y63.11
X44.004 Y63.084
X43.666 Y62.961
X43.613 Y62.941
X43.497 Y62.898
X43.412 Y62.866
X43.389 Y62.857
X43.074 Y62.723
X42.991 Y62.688
X42.905 Y62.651
X42.82 Y62.614
X42.796 Y62.603
X42.735 Y62.574
X42.482 Y62.451
X42.448 Y62.434
X42.275 Y62.349
X42.228 Y62.326
X42.144 Y62.281
X41.721 Y62.048
X41.654 Y62.011
X41.636 Y62.001
X41.369 Y61.842
X41.298 Y61.798
X41.044 Y61.636
X40.975 Y61.588
X40.706 Y61.396
X40.626 Y61.335
X40.519 Y61.25
X40.452 Y61.195
X40.368 Y61.124
X40.318 Y61.081
X40.199 Y60.974
X40.131 Y60.912
X40.029 Y60.814
X39.956 Y60.743
X39.86 Y60.645
X39.791 Y60.574
X39.776 Y60.558
X39.633 Y60.405
X39.607 Y60.376
X39.556 Y60.32
X39.437 Y60.187
X39.405 Y60.151
X39.259 Y59.982
X39.187 Y59.898
X39.015 Y59.693
X38.974 Y59.644
X38.835 Y59.475
X38.765 Y59.39
X38.013 Y58.473
X38.011
X37.261 Y59.39
X37.239 Y59.417
X37.052 Y59.644
X36.985 Y59.724
X36.839 Y59.898
X36.816 Y59.925
X36.647 Y60.121
X36.62 Y60.151
X36.47 Y60.32
X36.393 Y60.404
X36.309 Y60.495
X36.235 Y60.574
X36.07 Y60.743
X36.055 Y60.758
X35.895 Y60.912
X35.886 Y60.921
X35.802 Y60.997
X35.708 Y61.081
X35.632 Y61.146
X35.547 Y61.217
X35.507 Y61.25
X35.378 Y61.352
X35.294 Y61.415
X35.04 Y61.597
X34.956 Y61.652
X34.791 Y61.758
X34.702 Y61.815
X34.656 Y61.842
X34.448 Y61.965
X34.371 Y62.011
X34.364 Y62.015
X34.025 Y62.205
X33.941 Y62.25
X33.754 Y62.349
X33.687 Y62.384
X33.602 Y62.427
X33.587 Y62.434
X33.415 Y62.518
X33.349 Y62.551
X33.264 Y62.591
X33.238 Y62.603
X33.18 Y62.63
X33.052 Y62.688
X33.011 Y62.706
X32.926 Y62.743
X32.841 Y62.78
X32.757 Y62.815
X32.672 Y62.85
X32.588 Y62.884
X32.503 Y62.918
X32.446 Y62.941
X32.419 Y62.952
X32.334 Y62.983
X32.08 Y63.077
X31.996 Y63.106
X31.911 Y63.134
X31.827 Y63.162
X31.657 Y63.218
X31.573 Y63.243
X31.488 Y63.268
X31.319 Y63.317
X31.235 Y63.341
X31.146 Y63.364
X30.896 Y63.427
X30.812 Y63.448
X30.727 Y63.466
X30.474 Y63.52
X30.411 Y63.533
X30.389 Y63.537
X30.304 Y63.552
X30.051 Y63.595
X29.966 Y63.609
X29.903 Y63.618
X29.628 Y63.654
X29.543 Y63.664
X29.459 Y63.672
X29.205 Y63.696
X29.14 Y63.702
X29.121 Y63.703
X28.782 Y63.722
X28.698 Y63.726
X28.359 Y63.732
X28.275 Y63.733
X27.937 Y63.726
X27.852 Y63.724
X27.767 Y63.719
X27.683 Y63.713
X27.429 Y63.697
X27.345 Y63.692
X27.26 Y63.683
