(1)
(POCKET PASS)
(T5  D=1.587 CR=0. - ZMIN=-2.8 - FLAT END MILL)
G0 G90 G94 G17
G21
G53 Z0.

(2D POCKET1)
M5
M9
T5
S13000 M3
G55
M9
G0 X64.377 Y46.819
Z15.
Z4.7
G1 Z2.359 F356.
G3 X64.376 Y46.799 Z2.281 I0.754 J-0.026
X64.378 Y46.743 Z2.223 I0.754 J-0.006
X64.387 Y46.667 Z2.2 I0.752 J0.05
X65.874 Y46.92 Z2.117 I0.743 J0.127
X64.387 Y46.667 Z2.035 I-0.743 J-0.127
X65.874 Y46.92 Z1.952 I0.743 J0.127
X64.387 Y46.667 Z1.869 I-0.743 J-0.127
X65.874 Y46.92 Z1.786 I0.743 J0.127
X64.387 Y46.667 Z1.704 I-0.743 J-0.127
X65.874 Y46.92 Z1.621 I0.743 J0.127
X64.387 Y46.667 Z1.538 I-0.743 J-0.127
X65.874 Y46.92 Z1.455 I0.743 J0.127
X64.387 Y46.667 Z1.373 I-0.743 J-0.127
X65.874 Y46.92 Z1.29 I0.743 J0.127
X64.387 Y46.667 Z1.207 I-0.743 J-0.127
X65.874 Y46.92 Z1.125 I0.743 J0.127
X64.387 Y46.667 Z1.042 I-0.743 J-0.127
X65.874 Y46.92 Z0.959 I0.743 J0.127
X64.387 Y46.667 Z0.876 I-0.743 J-0.127
X65.874 Y46.92 Z0.794 I0.743 J0.127
X64.387 Y46.667 Z0.711 I-0.743 J-0.127
X65.874 Y46.92 Z0.628 I0.743 J0.127
X64.387 Y46.667 Z0.545 I-0.743 J-0.127
X65.874 Y46.92 Z0.463 I0.743 J0.127
X64.387 Y46.667 Z0.38 I-0.743 J-0.127
X65.874 Y46.92 Z0.297 I0.743 J0.127
X64.387 Y46.667 Z0.215 I-0.743 J-0.127
X65.874 Y46.92 Z0.132 I0.743 J0.127
X64.387 Y46.667 Z0.049 I-0.743 J-0.127
X65.874 Y46.92 Z-0.034 I0.743 J0.127
X64.387 Y46.667 Z-0.116 I-0.743 J-0.127
X65.874 Y46.92 Z-0.199 I0.743 J0.127
X64.387 Y46.667 Z-0.282 I-0.743 J-0.127
X65.874 Y46.92 Z-0.364 I0.743 J0.127
X64.387 Y46.667 Z-0.447 I-0.743 J-0.127
X65.874 Y46.92 Z-0.53 I0.743 J0.127
X64.387 Y46.667 Z-0.613 I-0.743 J-0.127
X65.874 Y46.92 Z-0.695 I0.743 J0.127
X64.387 Y46.667 Z-0.778 I-0.743 J-0.127
X65.874 Y46.92 Z-0.861 I0.743 J0.127
X64.387 Y46.667 Z-0.944 I-0.743 J-0.127
X65.874 Y46.92 Z-1.026 I0.743 J0.127
X64.387 Y46.667 Z-1.109 I-0.743 J-0.127
X65.874 Y46.92 Z-1.192 I0.743 J0.127
X64.387 Y46.667 Z-1.274 I-0.743 J-0.127
X65.874 Y46.92 Z-1.357 I0.743 J0.127
X64.387 Y46.667 Z-1.44 I-0.743 J-0.127
X65.874 Y46.92 Z-1.523 I0.743 J0.127
X64.387 Y46.667 Z-1.605 I-0.743 J-0.127
X65.874 Y46.92 Z-1.688 I0.743 J0.127
X64.387 Y46.667 Z-1.771 I-0.743 J-0.127
X65.874 Y46.92 Z-1.854 I0.743 J0.127
X64.387 Y46.667 Z-1.936 I-0.743 J-0.127
X65.874 Y46.92 Z-2.019 I0.743 J0.127
X64.387 Y46.667 Z-2.102 I-0.743 J-0.127
X65.874 Y46.92 Z-2.184 I0.743 J0.127
X64.387 Y46.667 Z-2.267 I-0.743 J-0.127
X65.874 Y46.92 Z-2.35 I0.743 J0.127
X64.387 Y46.667 Z-2.433 I-0.743 J-0.127
X65.874 Y46.92 Z-2.515 I0.743 J0.127
X64.387 Y46.667 Z-2.598 I-0.743 J-0.127
X65.874 Y46.92 Z-2.681 I0.743 J0.127
X64.387 Y46.667 Z-2.764 I-0.743 J-0.127
X65.117 Y46.04 Z-2.8 I0.743 J0.127
G1 X66.774 Y46.011
G3 X66.781 Y46.195 I0.002 J0.092
G1 X65.047 Y46.299
G3 X64.972 Y46.135 I-0.006 J-0.096
G1 X65.037 Y46.069
G3 X65.104 Y46.04 I0.069 J0.067
G1 X65.117
G2 X65.63 Y45.685 I-0.01 J-0.562
G3 X66.142 Y45.331 I0.521 J0.206
X70.981 Y45.284 I6.338 J403.04
X76.881 Y45.496 I0.276 J74.323
G2 X77.922 Y45.57 I7.718 J-101.718
G3 X78.96 Y45.67 I-1.129 J17.207
X78.961 Y45.876 I-0.013 J0.103
G1 X72.674 Y46.458
X63.311 Y47.092
G3 X63.215 Y46.855 I-0.008 J-0.135
X63.586 Y46.551 I5.862 J6.786
G2 X63.945 Y46.233 I-2.188 J-2.825
X64.248 Y45.907 I-5.49 J-5.403
G3 X64.548 Y45.58 I7.251 J6.357
X65.078 Y45.349 I0.544 J0.523
X66.142 Y45.331 I7.403 J403.022
G2 X66.723 Y44.931 I-0.01 J-0.636
G3 X67.304 Y44.532 I0.589 J0.234
X70.908 Y44.501 I5.569 J435.591
X76.941 Y44.715 I0.339 J75.239
G1 X80.202 Y45.107
G3 X81.49 Y45.361 I-5.334 J30.426
X82.749 Y45.734 I-1.948 J8.875
X82.733 Y45.981 I-0.046 J0.121
X78.803 Y46.67 I-7.476 J-31.105
X74.833 Y47.068 I-19.659 J-176.307
G1 X60.695 Y48.026
G3 X60.623 Y47.802 I-0.007 J-0.122
G2 X62.068 Y46.824 I-14.522 J-23.012
X63.39 Y45.687 I-6.163 J-8.505
X63.744 Y45.309 I-7.166 J-7.054
G3 X64.09 Y44.924 I30.032 J26.661
X64.873 Y44.57 I0.803 J0.731
X67.304 Y44.532 I8. J435.553
G2 X67.941 Y44.095 I-0.009 J-0.697
G3 X68.579 Y43.659 I0.645 J0.259
X70.73 Y43.641 I5.525 J525.576
X77.006 Y43.858 I0.491 J76.45
G1 X80.351 Y44.26
G3 X82.333 Y44.705 I-3.7 J21.102
X84.209 Y45.486 I-2.143 J7.79
X84.571 Y45.699 I-9.767 J17.034
X84.917 Y45.937 I-1.82 J3.023
X84.869 Y46.248 I-0.111 J0.142
X83.548 Y46.643 I-3.805 J-10.298
X82.203 Y46.947 I-23.672 J-101.913
G1 X78.628 Y47.535
X72.799 Y48.096
X56.35 Y49.154
G3 X56.309 Y48.955 I-0.007 J-0.102
G2 X60.315 Y47.008 I-6.994 J-19.491
X63.678 Y44.087 I-7.653 J-12.206
G3 X64.452 Y43.719 I0.793 J0.668
X68.579 Y43.659 I9.653 J525.516
X68.655 Y43.677 Z-2.779 I0.002 J0.159
X68.701 Y43.713 Z-2.721 I-0.074 J0.14
X68.714 Y43.73 Z-2.641 I-0.12 J0.104
G1 Z0.7
X61.839 Y46.61
Z-2.641
X61.832 Y46.611 Z-2.69
X61.809 Y46.614 Z-2.735
X61.774 Y46.619 Z-2.77
X61.73 Y46.625 Z-2.792
X61.682 Y46.631 Z-2.8
X39.488 Y49.546
G2 X39.419 Y49.636 I0.01 J0.079
G3 X39.311 Y49.775 I-0.122 J0.017
G1 X38.864 Y49.827
X38.574 Y49.861
G3 X38.46 Y49.647 I-0.015 J-0.129
G1 X38.653 Y49.419
G3 X38.926 Y49.356 I0.18 J0.152
G1 X39.346 Y49.539
G3 X39.419 Y49.636 I-0.049 J0.113
X39.457 Y50.231 I-4.201 J0.567
X39.06 Y50.676 I-0.451 J-0.003
G2 X36.507 Y50.996 I29.112 J242.148
G3 X36.381 Y50.766 I-0.018 J-0.14
G1 X38.331 Y48.462
G3 X38.847 Y48.361 I0.321 J0.272
G2 X41.219 Y49.336 I6.599 J-12.672
X43.707 Y49.958 I6.866 J-22.173
G3 X43.698 Y50.163 I-0.02 J0.102
G2 X39.06 Y50.676 I24.474 J242.661
X38.555 Y51.113 I0.071 J0.593
G3 X38.053 Y51.554 I-0.583 J-0.157
G2 X34.621 Y52.034 I56.417 J415.775
G3 X34.492 Y51.801 I-0.02 J-0.141
G1 X38.141 Y47.492
G3 X38.656 Y47.391 I0.321 J0.272
X39.579 Y47.883 I-24.389 J46.837
G2 X40.534 Y48.311 I3.188 J-5.837
X45.614 Y49.467 I7.39 J-20.736
X50.823 Y49.486 I2.695 J-25.531
X56.24 Y48.22 I-2.078 J-21.122
X61.111 Y45.531 I-6.874 J-18.209
X61.981 Y44.776 I-5.163 J-6.823
X62.793 Y43.959 I-75.122 J-75.557
X63.058 Y43.647 I-1.976 J-1.945
G3 X63.311 Y43.325 I4.684 J3.412
X64.092 Y42.953 I0.8 J0.674
G1 X74.201 Y42.947
X78.364 Y43.206
G3 X81.558 Y43.698 I-3.907 J36.045
X84.584 Y44.832 I-1.965 J9.839
X85.428 Y45.392 I-3.878 J6.764
X86.126 Y46.126 I-1.928 J2.533
X86.009 Y46.599 I-0.269 J0.185
X85.422 Y46.847 I-1.696 J-3.204
G2 X84.817 Y47.047 I10.514 J32.713
G3 X81.803 Y47.828 I-6.628 J-19.38
X78.726 Y48.3 I-10.854 J-60.554
G1 X72.857 Y48.865
X53.458 Y50.071
X43.809 Y50.883
G2 X39.208 Y51.399 I10.361 J113.134
X38.053 Y51.554 I55.262 J415.93
X37.415 Y52.118 I0.103 J0.759
G3 X36.777 Y52.682 I-0.746 J-0.201
G2 X36.226 Y52.761 I25.818 J182.853
G1 X32.282 Y53.33
G3 X32.153 Y53.097 I-0.02 J-0.141
G1 X37.949 Y46.25
G3 X38.449 Y46.17 I0.296 J0.251
G2 X39.618 Y46.857 I17.673 J-28.752
X40.853 Y47.418 I3.938 J-7.024
X45.729 Y48.526 I7.074 J-19.847
X50.73 Y48.542 I2.579 J-24.597
X57.444 Y46.716 I-2.044 J-20.771
X62.875 Y42.365 I-6.081 J-13.155
G3 X63.569 Y42.014 I0.711 J0.543
G1 X74.23 Y41.999
X78.466 Y42.263
G3 X81.851 Y42.795 I-3.856 J35.573
X85.055 Y44.009 I-2.198 J10.636
X86.329 Y44.93 I-3.722 J6.491
X87.174 Y46.254 I-1.953 J2.178
X87.243 Y46.579 I-1.849 J0.564
X87.177 Y46.905 I-0.518 J0.065
X86.941 Y47.126 I-0.484 J-0.279
G2 X86.655 Y47.279 I2.275 J4.595
G3 X85.29 Y47.893 I-3.715 J-6.444
X83.854 Y48.318 I-7.158 J-21.51
G1 X80.176 Y49.058
X75.061 Y49.637
X66.906 Y50.203
X50.096 Y51.28
X41.261 Y52.105
G2 X36.777 Y52.682 I21.334 J183.43
X36.151 Y53.228 I0.106 J0.754
G3 X35.525 Y53.775 I-0.736 J-0.211
G1 X31.357 Y54.376
G2 X30.621 Y54.515 I1.206 J8.361
G3 X29.886 Y54.662 I-2.49 J-10.537
X29.765 Y54.45 I-0.021 J-0.128
G1 X37.794 Y44.965
G3 X38.267 Y44.909 I0.266 J0.225
G2 X44.204 Y47.395 I8.154 J-11.143
X50.637 Y47.598 I3.996 J-24.563
X55.549 Y46.453 I-1.893 J-19.238
X59.966 Y44.019 I-6.185 J-16.446
X61.265 Y42.823 I-5.533 J-7.311
X62.369 Y41.444 I-11.967 J-10.713
G3 X63.073 Y41.074 I0.719 J0.514
G1 X74.259 Y41.051
X78.568 Y41.32
G3 X82.144 Y41.893 I-3.838 J35.41
X85.527 Y43.187 I-2.435 J11.439
X87.071 Y44.338 I-3.985 J6.951
X88.082 Y45.978 I-2.618 J2.746
X88.176 Y46.82 I-2.204 J0.672
X87.836 Y47.596 I-1.273 J-0.094
X86.951 Y48.228 I-1.998 J-1.862
X85.946 Y48.647 I-9.12 J-20.459
X81.749 Y49.785 I-7.455 J-19.178
X77.439 Y50.361 I-13.105 J-81.727
G1 X69.074 Y51.022
X53.603 Y51.962
X43.982 Y52.772
X35.938 Y53.715
X35.525 Y53.775
G2 X34.862 Y54.369 I0.114 J0.794
G3 X34.199 Y54.964 I-0.777 J-0.2
G1 X33.2 Y55.108
X31.498 Y55.353
G2 X31.473 Y55.357 I0.185 J1.28
G1 X29.898 Y55.616
G2 X29.884 Y55.618 I0.21 J1.277
G1 X28.443 Y55.871
X27.128 Y56.108
X27.281 Y55.927
X29.459 Y53.352
X31.458 Y50.991
X33.428 Y48.664
X35.55 Y46.158
X37.881 Y43.403
X37.9 Y43.422
G2 X37.949 Y43.465 I0.883 J-0.946
G1 X38.3 Y43.761
G2 X38.37 Y43.816 I0.834 J-0.989
G1 X39.058 Y44.319
G2 X39.144 Y44.377 I0.764 J-1.044
G1 X39.811 Y44.787
G2 X39.891 Y44.832 I0.677 J-1.102
G1 X40.576 Y45.189
G2 X40.656 Y45.227 I0.598 J-1.148
G1 X41.419 Y45.561
G2 X41.503 Y45.594 I0.518 J-1.186
G1 X42.38 Y45.907
G2 X42.457 Y45.931 I0.434 J-1.219
G1 X43.191 Y46.142
G2 X43.249 Y46.158 I0.357 J-1.243
G1 X43.991 Y46.334
G2 X44.046 Y46.346 I0.299 J-1.259
G1 X44.742 Y46.48
G2 X44.794 Y46.488 I0.244 J-1.271
G1 X45.494 Y46.594
G2 X45.543 Y46.6 I0.192 J-1.279
G1 X46.189 Y46.672
G2 X46.235 Y46.676 I0.143 J-1.286
G1 X46.884 Y46.725
G2 X46.929 Y46.727 I0.097 J-1.29
G1 X47.57 Y46.753
G2 X47.613 Y46.754 I0.052 J-1.293
G1 X48.255 Y46.759
G2 X48.299 Y46.758 I0.009 J-1.294
G1 X48.99 Y46.739
G2 X49.035 Y46.737 I-0.035 J-1.293
G1 X49.725 Y46.694
G2 X49.771 Y46.691 I-0.08 J-1.291
G1 X50.541 Y46.615
G2 X50.588 Y46.609 I-0.127 J-1.288
G1 X51.354 Y46.505
G2 X51.403 Y46.497 I-0.174 J-1.282
G1 X52.039 Y46.386
G2 X52.079 Y46.378 I-0.224 J-1.274
G1 X52.711 Y46.246
G2 X52.771 Y46.232 I-0.264 J-1.267
G1 X53.932 Y45.932
G2 X54.011 Y45.909 I-0.324 J-1.253
G1 X55.055 Y45.567
G2 X55.134 Y45.539 I-0.403 J-1.23
G1 X56.137 Y45.136
G2 X56.2 Y45.109 I-0.482 J-1.201
G1 X56.728 Y44.864
G2 X56.773 Y44.842 I-0.545 J-1.174
G1 X57.29 Y44.577
G2 X57.339 Y44.551 I-0.59 J-1.152
G1 X57.904 Y44.23
G2 X57.956 Y44.199 I-0.638 J-1.125
G1 X58.507 Y43.852
G2 X58.549 Y43.823 I-0.69 J-1.094
G1 X58.942 Y43.553
G2 X58.99 Y43.519 I-0.733 J-1.066
G1 X59.37 Y43.231
G2 X59.435 Y43.179 I-0.781 J-1.032
G1 X60.105 Y42.6
G2 X60.182 Y42.528 I-0.846 J-0.979
G1 X60.751 Y41.95
G2 X60.818 Y41.876 I-0.922 J-0.908
G1 X61.334 Y41.264
G2 X61.398 Y41.182 I-0.989 J-0.834
G1 X61.898 Y40.481
G2 X61.945 Y40.411 I-1.053 J-0.752
G1 X62.108 Y40.148
X63.435 Y40.125
X65.319 Y40.09
X67.043 Y40.061
X68.741 Y40.039
X70.565 Y40.025
X72.596 Y40.027
X74.289 Y40.064
X75.857 Y40.125
X77.282 Y40.213
X78.675 Y40.338
X80.166 Y40.527
X80.982 Y40.659
X81.783 Y40.81
X82.889 Y41.081
X83.89 Y41.387
X84.769 Y41.719
X85.606 Y42.106
X86.019 Y42.329
X86.425 Y42.575
X86.863 Y42.875
X87.286 Y43.204
X87.554 Y43.435
X87.805 Y43.677
X88.021 Y43.914
X88.213 Y44.149
X88.561 Y44.657
X88.692 Y44.888
X88.816 Y45.137
X88.932 Y45.413
X89.027 Y45.689
X89.112 Y46.007
X89.171 Y46.33
X89.193 Y46.542
X89.195 Y46.747
X89.18 Y46.935
X89.149 Y47.127
X89.106 Y47.299
X89.057 Y47.448
X88.892 Y47.812
X88.805 Y47.957
X88.697 Y48.108
X88.56 Y48.27
X88.425 Y48.402
X88.031 Y48.703
X87.623 Y48.958
X87.218 Y49.172
X86.791 Y49.369
X86.304 Y49.568
X85.749 Y49.773
X85.051 Y49.992
X84.343 Y50.192
X82.983 Y50.519
X81.724 Y50.767
X80.464 Y50.973
X79.09 Y51.161
X77.544 Y51.343
X75.232 Y51.565
X73.077 Y51.741
X71.095 Y51.882
X69.136 Y52.008
X67.022 Y52.136
X64.658 Y52.277
X58.978 Y52.602
G2 X58.967 Y52.603 I0.074 J1.292
G1 X53.694 Y52.946
G2 X53.679 Y52.947 I0.084 J1.291
G1 X48.847 Y53.318
G2 X48.828 Y53.32 I0.099 J1.29
G1 X44.072 Y53.755
G2 X44.055 Y53.757 I0.118 J1.288
G1 X41.499 Y54.026
G2 X41.485 Y54.028 I0.136 J1.287
G1 X38.932 Y54.325
G2 X38.916 Y54.327 I0.149 J1.285
G1 X36.065 Y54.695
G2 X36.046 Y54.698 I0.166 J1.283
G1 X34.199 Y54.964
G3 X34.121 Y54.955 Z-2.779 I-0.023 J-0.157
X34.072 Y54.926 Z-2.721 I0.055 J-0.149
X34.057 Y54.911 Z-2.641 I0.105 J-0.119
G0 Z5.
X15.299 Y75.514
Z4.7
G1 Z2.359 F356.
G3 X15.318 Y75.506 Z2.281 I0.289 J0.697
X15.37 Y75.488 Z2.223 I0.27 J0.704
X15.445 Y75.47 Z2.2 I0.217 J0.722
X15.73 Y76.951 Z2.117 I0.142 J0.741
X15.445 Y75.47 Z2.035 I-0.142 J-0.741
X15.73 Y76.951 Z1.952 I0.142 J0.741
X15.445 Y75.47 Z1.869 I-0.142 J-0.741
X15.73 Y76.951 Z1.786 I0.142 J0.741
X15.445 Y75.47 Z1.704 I-0.142 J-0.741
X15.73 Y76.951 Z1.621 I0.142 J0.741
X15.445 Y75.47 Z1.538 I-0.142 J-0.741
X15.73 Y76.951 Z1.455 I0.142 J0.741
X15.445 Y75.47 Z1.373 I-0.142 J-0.741
X15.73 Y76.951 Z1.29 I0.142 J0.741
X15.445 Y75.47 Z1.207 I-0.142 J-0.741
X15.73 Y76.951 Z1.125 I0.142 J0.741
X15.445 Y75.47 Z1.042 I-0.142 J-0.741
X15.73 Y76.951 Z0.959 I0.142 J0.741
X15.445 Y75.47 Z0.876 I-0.142 J-0.741
X15.73 Y76.951 Z0.794 I0.142 J0.741
X15.445 Y75.47 Z0.711 I-0.142 J-0.741
X15.73 Y76.951 Z0.628 I0.142 J0.741
X15.445 Y75.47 Z0.545 I-0.142 J-0.741
X15.73 Y76.951 Z0.463 I0.142 J0.741
X15.445 Y75.47 Z0.38 I-0.142 J-0.741
X15.73 Y76.951 Z0.297 I0.142 J0.741
X15.445 Y75.47 Z0.215 I-0.142 J-0.741
X15.73 Y76.951 Z0.132 I0.142 J0.741
X15.445 Y75.47 Z0.049 I-0.142 J-0.741
X15.73 Y76.951 Z-0.034 I0.142 J0.741
X15.445 Y75.47 Z-0.116 I-0.142 J-0.741
X15.73 Y76.951 Z-0.199 I0.142 J0.741
X15.445 Y75.47 Z-0.282 I-0.142 J-0.741
X15.73 Y76.951 Z-0.364 I0.142 J0.741
X15.445 Y75.47 Z-0.447 I-0.142 J-0.741
X15.73 Y76.951 Z-0.53 I0.142 J0.741
X15.445 Y75.47 Z-0.613 I-0.142 J-0.741
X15.73 Y76.951 Z-0.695 I0.142 J0.741
X15.445 Y75.47 Z-0.778 I-0.142 J-0.741
X15.73 Y76.951 Z-0.861 I0.142 J0.741
X15.445 Y75.47 Z-0.944 I-0.142 J-0.741
X15.73 Y76.951 Z-1.026 I0.142 J0.741
X15.445 Y75.47 Z-1.109 I-0.142 J-0.741
X15.73 Y76.951 Z-1.192 I0.142 J0.741
X15.445 Y75.47 Z-1.274 I-0.142 J-0.741
X15.73 Y76.951 Z-1.357 I0.142 J0.741
X15.445 Y75.47 Z-1.44 I-0.142 J-0.741
X15.73 Y76.951 Z-1.523 I0.142 J0.741
X15.445 Y75.47 Z-1.605 I-0.142 J-0.741
X15.73 Y76.951 Z-1.688 I0.142 J0.741
X15.445 Y75.47 Z-1.771 I-0.142 J-0.741
X15.73 Y76.951 Z-1.854 I0.142 J0.741
X15.445 Y75.47 Z-1.936 I-0.142 J-0.741
X15.73 Y76.951 Z-2.019 I0.142 J0.741
X15.445 Y75.47 Z-2.102 I-0.142 J-0.741
X15.73 Y76.951 Z-2.184 I0.142 J0.741
X15.445 Y75.47 Z-2.267 I-0.142 J-0.741
X15.73 Y76.951 Z-2.35 I0.142 J0.741
X15.445 Y75.47 Z-2.433 I-0.142 J-0.741
X15.73 Y76.951 Z-2.515 I0.142 J0.741
X15.445 Y75.47 Z-2.598 I-0.142 J-0.741
X15.73 Y76.951 Z-2.681 I0.142 J0.741
X15.445 Y75.47 Z-2.764 I-0.142 J-0.741
X16.289 Y75.934 Z-2.8 I0.142 J0.741
X16.377 Y76.158 I-52.598 J20.738
G2 X16.837 Y77.202 I11.971 J-4.661
X17.58 Y78.631 I38.391 J-19.025
X17.72 Y78.873 I3.947 J-2.126
G3 X17.861 Y79.116 I-3.806 J2.369
X17.692 Y79.243 I-0.094 J0.051
G1 X14.823 Y76.451
G3 X14.802 Y76.022 I0.22 J-0.226
G1 X15.627 Y75.049
G3 X15.952 Y75.1 I0.147 J0.125
X16.289 Y75.934 I-52.261 J21.571
G2 X16.877 Y76.323 I0.573 J-0.226
G3 X17.475 Y76.698 I0.016 J0.639
G1 X17.487 Y76.724
G2 X18.252 Y78.269 I22.999 J-10.434
G1 X18.938 Y79.541
G2 X19.805 Y81.029 I22.347 J-12.04
X20.66 Y82.362 I84.673 J-53.325
X21.559 Y83.665 I25.504 J-16.631
X21.799 Y83.974 I5.067 J-3.693
G3 X22.04 Y84.283 I-4.826 J4.002
X21.891 Y84.413 I-0.08 J0.058
G1 X13.742 Y76.503
G3 X13.721 Y76.074 I0.22 J-0.226
G1 X15.876 Y73.529
G3 X16.194 Y73.585 I0.143 J0.121
X16.526 Y74.503 I-46.768 J17.437
G2 X16.89 Y75.408 I10.4 J-3.648
G1 X17.475 Y76.698
G2 X18.053 Y77.046 I0.542 J-0.246
G3 X18.636 Y77.384 I0.037 J0.609
G1 X18.852 Y77.819
G2 X19.643 Y79.288 I21.966 J-10.885
G1 X20.374 Y80.54
G2 X21.263 Y81.953 I21.289 J-12.421
G1 X22.076 Y83.151
G2 X23.059 Y84.5 I20.351 J-13.8
G1 X23.951 Y85.64
G2 X25.5 Y87.424 I18.131 J-14.183
G1 X26.851 Y88.827
G3 X26.743 Y89.083 I-0.109 J0.105
G1 X25.835 Y89.085
G3 X25.541 Y88.966 I-0.001 J-0.422
G1 X12.732 Y76.552
G3 X12.711 Y76.122 I0.22 J-0.226
G1 X16.134 Y72.082
G3 X16.444 Y72.138 I0.139 J0.118
G2 X16.964 Y73.576 I149.261 J-53.105
X17.518 Y75. I35.878 J-13.156
X18.207 Y76.518 I22.456 J-9.269
G1 X18.636 Y77.384
G2 X19.383 Y77.809 I0.687 J-0.341
G3 X20.139 Y78.217 I0.061 J0.79
G2 X21.252 Y80.118 I34.638 J-19.009
G1 X22.024 Y81.345
G2 X22.923 Y82.67 I19.986 J-12.586
G1 X23.778 Y83.842
G2 X24.764 Y85.103 I19.023 J-13.866
G1 X25.698 Y86.216
G2 X26.768 Y87.407 I17.881 J-14.997
X29.25 Y89.8 I33.467 J-32.225
G3 X29.154 Y90.05 I-0.096 J0.106
G1 X25.772 Y90.055
G3 X24.91 Y89.706 I-0.002 J-1.234
G1 X11.406 Y76.616
G3 X11.386 Y76.186 I0.22 J-0.226
G1 X16.52 Y70.125
G3 X16.822 Y70.189 I0.134 J0.113
G2 X20.139 Y78.217 I37.954 J-10.981
X20.964 Y78.646 I0.733 J-0.402
G3 X21.796 Y79.064 I0.095 J0.848
G1 X22.077 Y79.546
G2 X22.1 Y79.584 I1.117 J-0.652
G1 X22.872 Y80.809
G2 X22.896 Y80.845 I1.095 J-0.689
G1 X23.708 Y82.044
G2 X23.734 Y82.08 I1.071 J-0.726
G1 X24.586 Y83.25
G2 X24.613 Y83.285 I1.045 J-0.762
G1 X25.505 Y84.425
G2 X25.533 Y84.459 I1.019 J-0.797
G1 X26.463 Y85.568
G2 X26.492 Y85.602 I0.991 J-0.831
G1 X27.46 Y86.679
G2 X27.49 Y86.711 I0.962 J-0.865
G1 X28.494 Y87.754
G2 X28.526 Y87.786 I0.932 J-0.897
G1 X29.565 Y88.793
G2 X29.598 Y88.824 I0.9 J-0.929
G1 X30.672 Y89.795
G2 X30.706 Y89.825 I0.867 J-0.96
G1 X31.814 Y90.757
G2 X31.84 Y90.778 I0.833 J-0.99
G1 X32.12 Y91.002
X25.261 Y91.013
X24.891 Y91.015
X24.872 Y91.013
X24.737 Y90.888
X24.257 Y90.406
G2 X24.228 Y90.377 I-0.917 J0.913
G1 X17.11 Y83.503
X10.022 Y76.605
X9.936 Y76.515
X9.922 Y76.495
X9.911 Y76.468
X9.908 Y76.455
X9.93 Y76.423
X17.167 Y67.88
X17.333 Y68.507
G2 X17.341 Y68.538 I1.251 J-0.329
G1 X17.76 Y69.987
G2 X17.776 Y70.036 I1.243 J-0.36
G1 X18.252 Y71.467
G2 X18.267 Y71.51 I1.228 J-0.409
G1 X18.773 Y72.867
G2 X18.789 Y72.909 I1.212 J-0.452
G1 X19.342 Y74.247
G2 X19.359 Y74.288 I1.196 J-0.494
G1 X19.957 Y75.606
G2 X19.976 Y75.646 I1.178 J-0.534
G1 X20.619 Y76.943
G2 X20.64 Y76.983 I1.159 J-0.574
G1 X21.326 Y78.257
G2 X21.348 Y78.296 I1.139 J-0.614
G1 X21.796 Y79.064
G3 X21.817 Y79.139 Z-2.779 I-0.137 J0.08
X21.809 Y79.196 Z-2.721 I-0.159 J0.004
X21.8 Y79.216 Z-2.641 I-0.15 J-0.053
G0 Z5.
X61.886 Y81.266
Z4.7
G1 Z2.359 F356.
G3 Y81.286 Z2.281 I-0.754 J0.02
X61.884 Y81.342 Z2.223 I-0.754 J-0.001
X61.874 Y81.418 Z2.2 I-0.752 J-0.056
X60.39 Y81.153 Z2.117 I-0.742 J-0.133
X61.874 Y81.418 Z2.035 I0.742 J0.133
X60.39 Y81.153 Z1.952 I-0.742 J-0.133
X61.874 Y81.418 Z1.869 I0.742 J0.133
X60.39 Y81.153 Z1.786 I-0.742 J-0.133
X61.874 Y81.418 Z1.704 I0.742 J0.133
X60.39 Y81.153 Z1.621 I-0.742 J-0.133
X61.874 Y81.418 Z1.538 I0.742 J0.133
X60.39 Y81.153 Z1.455 I-0.742 J-0.133
X61.874 Y81.418 Z1.373 I0.742 J0.133
X60.39 Y81.153 Z1.29 I-0.742 J-0.133
X61.874 Y81.418 Z1.207 I0.742 J0.133
X60.39 Y81.153 Z1.125 I-0.742 J-0.133
X61.874 Y81.418 Z1.042 I0.742 J0.133
X60.39 Y81.153 Z0.959 I-0.742 J-0.133
X61.874 Y81.418 Z0.876 I0.742 J0.133
X60.39 Y81.153 Z0.794 I-0.742 J-0.133
X61.874 Y81.418 Z0.711 I0.742 J0.133
X60.39 Y81.153 Z0.628 I-0.742 J-0.133
X61.874 Y81.418 Z0.545 I0.742 J0.133
X60.39 Y81.153 Z0.463 I-0.742 J-0.133
X61.874 Y81.418 Z0.38 I0.742 J0.133
X60.39 Y81.153 Z0.297 I-0.742 J-0.133
X61.874 Y81.418 Z0.215 I0.742 J0.133
X60.39 Y81.153 Z0.132 I-0.742 J-0.133
X61.874 Y81.418 Z0.049 I0.742 J0.133
X60.39 Y81.153 Z-0.034 I-0.742 J-0.133
X61.874 Y81.418 Z-0.116 I0.742 J0.133
X60.39 Y81.153 Z-0.199 I-0.742 J-0.133
X61.874 Y81.418 Z-0.282 I0.742 J0.133
X60.39 Y81.153 Z-0.364 I-0.742 J-0.133
X61.874 Y81.418 Z-0.447 I0.742 J0.133
X60.39 Y81.153 Z-0.53 I-0.742 J-0.133
X61.874 Y81.418 Z-0.613 I0.742 J0.133
X60.39 Y81.153 Z-0.695 I-0.742 J-0.133
X61.874 Y81.418 Z-0.778 I0.742 J0.133
X60.39 Y81.153 Z-0.861 I-0.742 J-0.133
X61.874 Y81.418 Z-0.944 I0.742 J0.133
X60.39 Y81.153 Z-1.026 I-0.742 J-0.133
X61.874 Y81.418 Z-1.109 I0.742 J0.133
X60.39 Y81.153 Z-1.192 I-0.742 J-0.133
X61.874 Y81.418 Z-1.274 I0.742 J0.133
X60.39 Y81.153 Z-1.357 I-0.742 J-0.133
X61.874 Y81.418 Z-1.44 I0.742 J0.133
X60.39 Y81.153 Z-1.523 I-0.742 J-0.133
X61.874 Y81.418 Z-1.605 I0.742 J0.133
X60.39 Y81.153 Z-1.688 I-0.742 J-0.133
X61.874 Y81.418 Z-1.771 I0.742 J0.133
X60.39 Y81.153 Z-1.854 I-0.742 J-0.133
X61.874 Y81.418 Z-1.936 I0.742 J0.133
X60.39 Y81.153 Z-2.019 I-0.742 J-0.133
X61.874 Y81.418 Z-2.102 I0.742 J0.133
X60.39 Y81.153 Z-2.184 I-0.742 J-0.133
X61.874 Y81.418 Z-2.267 I0.742 J0.133
X60.39 Y81.153 Z-2.35 I-0.742 J-0.133
X61.874 Y81.418 Z-2.433 I0.742 J0.133
X60.39 Y81.153 Z-2.515 I-0.742 J-0.133
X61.874 Y81.418 Z-2.598 I0.742 J0.133
X60.39 Y81.153 Z-2.681 I-0.742 J-0.133
X61.874 Y81.418 Z-2.764 I0.742 J0.133
X61.139 Y82.039 Z-2.8 I-0.742 J-0.133
G1 X59.851 Y82.051
X55.952 Y81.797
X52.503 Y81.344
G3 X52.512 Y81.131 I0.021 J-0.106
G1 X57.567 Y80.822
X63.486 Y80.83
X68.358 Y80.977
G2 X69.09 Y80.951 I-0.046 J-11.918
G3 X69.822 Y80.926 I0.778 J11.893
X69.848 Y81.13 I0. J0.104
X66.757 Y81.733 I-6.159 J-23.368
X63.62 Y82.017 I-5.434 J-42.466
G1 X61.139 Y82.039
G2 X60.537 Y82.442 I0.006 J0.661
G3 X59.928 Y82.833 I-0.592 J-0.251
X58.506 Y82.775 I1.412 J-51.929
G1 X54.741 Y82.442
X51.441 Y81.881
G3 X50.117 Y81.569 I11.134 J-50.239
X48.812 Y81.187 I4.12 J-16.513
X48.826 Y80.948 I0.04 J-0.118
X53.164 Y80.298 I7.489 J35.16
X57.544 Y80.04 I6.629 J75.369
G1 X63.51 Y80.049
X68.355 Y80.195
X73.292 Y80.095
G2 X73.684 Y80.064 I-0.304 J-6.297
G3 X74.077 Y80.033 I0.696 J6.266
X74.144 Y80.256 I0.006 J0.12
X72.491 Y81.046 I-5.473 J-9.318
X70.757 Y81.638 I-9.929 J-26.273
X69.646 Y81.944 I-6.154 J-20.172
X68.521 Y82.197 I-6.794 J-27.593
X63.532 Y82.806 I-6.328 J-31.081
X59.928 Y82.833 I-2.193 J-51.902
G2 X59.287 Y83.241 I-0.018 J0.678
G3 X58.647 Y83.649 I-0.628 J-0.279
G1 X58.459 Y83.646
X54.63 Y83.306
X51.253 Y82.732
G3 X48.72 Y82.063 I7.1 J-32.039
X46.307 Y81.045 I3.798 J-12.367
X46.33 Y80.754 I0.077 J-0.141
X49.057 Y80.024 I5.779 J16.148
X51.846 Y79.591 I10.143 J56.088
G1 X55.579 Y79.251
X61.531 Y79.141
X68.156 Y79.322
X73.069 Y79.252
X76.724 Y79.005
G3 X76.843 Y79.249 I0.01 J0.146
X75.726 Y80.234 I-4.857 J-4.384
X74.466 Y81.025 I-8.929 J-12.817
X70.455 Y82.644 I-8.216 J-14.579
X66.207 Y83.452 I-8.242 J-31.745
G1 X62.425 Y83.717
X58.647 Y83.649
G2 X57.924 Y84.101 I-0.014 J0.782
G3 X57.195 Y84.545 I-0.696 J-0.323
G1 X57.027 Y84.538
X53.31 Y84.114
G3 X49.658 Y83.37 I6.066 J-39.106
X46.175 Y82.044 I3.961 J-15.639
X45.275 Y81.528 I5.872 J-11.288
X44.463 Y80.882 I2.494 J-3.967
X44.52 Y80.484 I0.177 J-0.178
X46.706 Y79.605 I4.963 J9.185
X48.997 Y79.06 I8.736 J31.649
X54.225 Y78.355 I8.156 J40.74
X59.496 Y78.151 I5.849 J82.803
G1 X68.348 Y78.339
X73.203 Y78.262
X77.793 Y77.966
G2 X78.203 Y77.913 I-0.636 J-6.575
G3 X78.612 Y77.861 I1.045 J6.523
X78.795 Y78.132 I0.018 J0.185
X76.296 Y81.004 I-7.276 J-3.809
X72.957 Y82.832 I-9.268 J-12.963
X67.128 Y84.346 I-8.833 J-22.035
X61.117 Y84.713 I-5.782 J-45.326
G1 X57.195 Y84.545
G2 X56.391 Y85.01 I-0.037 J0.863
G3 X55.577 Y85.457 I-0.74 J-0.384
G1 X54.365 Y85.35
X50.807 Y84.744
G3 X47.742 Y83.903 I6.936 J-31.298
X44.873 Y82.534 I3.883 J-11.825
X44.077 Y81.968 I5.91 J-9.152
X43.4 Y81.265 I2.141 J-2.742
X43.227 Y81.006 I3.337 J-2.413
X43.089 Y80.728 I1.487 J-0.913
X43.278 Y80.006 I0.591 J-0.231
X43.8 Y79.671 I1.72 J2.103
G2 X44.355 Y79.394 I-26.901 J-54.745
G3 X46.974 Y78.417 I5.751 J11.408
X49.707 Y77.832 I9.245 J36.555
X55.613 Y77.184 I7.996 J45.606
X61.553 Y77.081 I4.812 J106.478
G1 X68.196 Y77.262
X73.014 Y77.192
X77.527 Y76.928
G2 X78.831 Y76.795 I-1.478 J-21.008
G3 X80.131 Y76.626 I30.761 J230.826
X80.375 Y76.89 I0.028 J0.219
X80.206 Y77.45 I-3.362 J-0.712
G1 X79.973 Y78.034
G3 X77.491 Y81.415 I-7.746 J-3.086
X73.91 Y83.6 I-9.801 J-12.04
X68.298 Y85.246 I-9.262 J-21.178
X62.473 Y85.777 I-6.828 J-42.701
G1 X58.347 Y85.703
X55.577 Y85.457
G2 X54.694 Y85.946 I-0.08 J0.898
G3 X53.792 Y86.399 I-0.759 J-0.386
G1 X50.562 Y85.848
G3 X47.305 Y84.947 I7.047 J-31.798
X44.259 Y83.484 I4.262 J-12.781
X42.792 Y82.289 I4.656 J-7.21
X41.888 Y80.626 I2.455 J-2.412
X42.27 Y79.383 I1.283 J-0.286
X43.277 Y78.668 I3.08 J3.272
X44.39 Y78.135 I8.546 J16.428
X47.377 Y77.149 I6.715 J15.322
X50.468 Y76.562 I9.486 J41.5
X53.374 Y76.213 I7.027 J46.246
G1 X57.423 Y75.979
X63.635 Y75.987
X68.339 Y76.132
X73.097 Y76.057
X77.583 Y75.788
G3 X78.719 Y75.686 I8.376 J86.597
G2 X79.854 Y75.566 I-2.181 J-26.112
X80.673 Y75.439 I-1.935 J-15.168
G3 X81.493 Y75.312 I2.754 J15.041
X81.743 Y75.573 I0.028 J0.223
X81.169 Y77.959 I-19.024 J-3.316
X80.115 Y80.175 I-8.162 J-2.522
X76.77 Y83.378 I-8.864 J-5.909
X72.568 Y85.325 I-10.856 J-17.924
X65.498 Y86.755 I-9.294 J-27.757
X58.285 Y86.832 I-4.199 J-55.105
G1 X54.22 Y86.471
X53.792 Y86.399
G2 X52.888 Y86.801 I-0.15 J0.879
G3 X51.984 Y87.204 I-0.754 J-0.477
G1 X50.324 Y86.921
G3 X46.882 Y85.961 I7.179 J-32.392
X43.663 Y84.408 I4.634 J-13.715
X41.641 Y82.601 I4.731 J-7.327
X40.736 Y80.045 I3.104 J-2.537
X40.89 Y79.449 I1.255 J0.006
X41.236 Y78.941 I2.747 J1.501
X42.777 Y77.692 I3.972 J3.324
X44.583 Y76.87 I7.577 J14.252
X47.892 Y75.905 I7.533 J19.675
X51.293 Y75.336 I9.538 J46.61
G1 X55.331 Y74.968
X59.473 Y74.845
X70.691 Y75.023
X75.252 Y74.852
X79.715 Y74.476
G2 X81.54 Y74.211 I-6.727 J-52.742
G1 X83.35 Y73.916
G3 X83.492 Y74.143 I0.023 J0.144
G2 X83.024 Y74.971 I4.121 J2.88
X82.761 Y75.885 I3.108 J1.39
G3 X82.035 Y78.775 I-13.975 J-1.973
X80.598 Y81.385 I-9.281 J-3.407
X76.836 Y84.632 I-9.713 J-7.452
X72.264 Y86.576 I-11.437 J-20.559
X70.915 Y86.948 I-7.716 J-25.295
X69.551 Y87.256 I-7.954 J-32.061
X63.909 Y87.955 I-7.315 J-35.931
X58.225 Y87.93 I-2.59 J-56.688
G1 X54.079 Y87.561
X51.984 Y87.204
G3 X51.913 Y87.172 Z-2.779 I0.026 J-0.157
X51.875 Y87.129 Z-2.721 I0.098 J-0.125
X51.865 Y87.11 Z-2.641 I0.136 J-0.081
G1 Z0.7
X81.873 Y75.384
Z-2.641
X81.88 Y75.382 Z-2.69
X81.902 Y75.375 Z-2.735
X81.936 Y75.366 Z-2.77
X81.978 Y75.353 Z-2.792
X82.025 Y75.34 Z-2.8
X101.356 Y69.784
G2 X101.411 Y69.685 I-0.022 J-0.076
G3 X101.457 Y69.54 I0.131 J-0.038
G2 X102.173 Y68.959 I-31.104 J-39.051
X102.868 Y68.354 I-11.87 J-14.35
G3 X103.298 Y68.383 I0.201 J0.22
G1 X104.251 Y69.521
G3 X104.128 Y69.783 I-0.122 J0.103
G1 X101.542 Y69.784
G3 X101.411 Y69.685 I0. J-0.137
X101.514 Y68.643 I1.345 J-0.392
X102.142 Y67.805 I2.902 J1.519
G2 X102.275 Y67.675 I-9.992 J-10.351
G3 X102.948 Y67.013 I87.389 J88.214
X103.367 Y67.034 I0.199 J0.204
G1 X106.258 Y70.488
G3 X106.131 Y70.728 I-0.112 J0.094
X105.85 Y70.699 I2.094 J-21.316
G2 X105.568 Y70.683 I-0.282 J2.524
G1 X98.592 Y70.702
G3 X98.524 Y70.462 I0. J-0.13
G2 X100.096 Y69.45 I-33.31 J-53.465
X101.583 Y68.317 I-8.08 J-12.15
X102.142 Y67.805 I-9.433 J-10.863
X102.309 Y67.03 I-0.494 J-0.512
G3 X102.463 Y66.252 I0.677 J-0.27
G2 X102.997 Y65.698 I-56.505 J-54.954
G3 X103.405 Y65.711 I0.198 J0.189
G1 X111.998 Y75.979
G3 X111.975 Y76.458 I-0.272 J0.227
G1 X110.696 Y77.722
G3 X110.441 Y77.616 I-0.105 J-0.106
X110.459 Y77.032 I9.356 J-0.005
G2 X110.477 Y76.447 I-9.338 J-0.579
X105.568 Y71.534 I-4.916 J0.003
G1 X95.043 Y71.582
G3 X94.995 Y71.361 I0. J-0.116
G2 X98.133 Y69.721 I-14.511 J-31.61
X101.007 Y67.654 I-9.839 J-16.707
X102.025 Y66.699 I-11.996 J-13.813
X102.463 Y66.252 I-56.067 J-55.401
X102.582 Y65.532 I-0.458 J-0.446
G3 X102.676 Y64.808 I0.609 J-0.289
X103.019 Y64.408 I25.433 J21.446
X103.407 Y64.412 I0.192 J0.167
G1 X113.137 Y76.038
G3 X113.115 Y76.508 I-0.266 J0.223
G1 X109.856 Y79.726
G3 X109.606 Y79.622 I-0.103 J-0.104
X109.661 Y76.647 I78.504 J-0.042
G2 X108.697 Y73.832 I-4.142 J-0.155
X105.568 Y72.371 I-3.128 J2.618
G1 X90.451 Y72.419
G3 X90.422 Y72.234 I0. J-0.094
G2 X91.901 Y71.762 I-50.235 J-159.84
X93.355 Y71.217 I-5.365 J-16.532
X94.591 Y70.678 I-32.418 J-76.013
X95.803 Y70.086 I-7.777 J-17.441
X99.012 Y68.144 I-16.405 J-30.751
X101.877 Y65.722 I-10.151 J-14.91
X102.456 Y65.072 I-8.442 J-8.1
G3 X102.676 Y64.808 I25.652 J21.183
G2 X102.746 Y64.129 I-0.464 J-0.391
G3 X102.795 Y63.448 I0.559 J-0.302
G2 X103.005 Y63.162 I-42.986 J-31.981
G3 X103.384 Y63.15 I0.194 J0.142
G1 X114.208 Y76.084
G3 X114.185 Y76.563 I-0.272 J0.227
G1 X109.07 Y81.615
G3 X108.815 Y81.509 I-0.105 J-0.106
X108.837 Y78.979 I142.274 J-0.076
G2 X108.858 Y76.448 I-142.253 J-2.454
X105.568 Y73.161 I-3.289 J0.002
G1 X86.799 Y73.166
G2 X83.544 Y75.995 I0.001 J3.289
G3 X82.764 Y79.081 I-14.732 J-2.08
X81.226 Y81.867 I-9.993 J-3.7
X77.287 Y85.282 I-10.304 J-7.905
X72.494 Y87.332 I-11.843 J-21.062
X71.11 Y87.715 I-7.957 J-26.083
X69.709 Y88.031 I-8.134 J-32.754
X63.967 Y88.744 I-7.467 J-36.676
X58.182 Y88.719 I-2.65 J-57.432
G1 X53.977 Y88.345
X50.153 Y87.693
G3 X46.577 Y86.691 I7.284 J-32.87
X43.234 Y85.072 I4.905 J-14.392
X40.946 Y82.978 I5.033 J-7.794
X39.945 Y80.041 I3.744 J-2.914
X40.557 Y78.476 I2.336 J0.011
X41.83 Y77.381 I5.179 J4.732
X44.433 Y76.07 I6.562 J9.793
X47.23 Y75.248 I8.665 J24.305
X52.269 Y74.415 I8.838 J37.838
X57.367 Y74.09 I7.326 J74.585
G1 X63.693 Y74.098
X68.332 Y74.242
X73.006 Y74.17
X77.401 Y73.907
X81.833 Y73.407
X86.165 Y72.613
X89.46 Y71.753
X92.967 Y70.522
G2 X94.165 Y70.002 I-7.586 J-19.134
X95.341 Y69.434 I-30.135 J-63.858
X96.509 Y68.8 I-7.837 J-15.841
X97.645 Y68.11 I-30.079 J-50.793
X99.854 Y66.492 I-9.67 J-15.522
X101.845 Y64.613 I-17.956 J-21.017
X102.449 Y63.907 I-5.867 J-5.629
X102.795 Y63.448 I-42.641 J-32.44
X102.829 Y62.573 I-0.621 J-0.462
G3 X102.837 Y61.699 I0.685 J-0.431
G2 X102.931 Y61.556 I-31.011 J-20.346
G3 X103.298 Y61.533 I0.192 J0.125
G1 X115.529 Y76.146
G3 X115.506 Y76.626 I-0.272 J0.227
G1 X108.099 Y83.941
G3 X107.844 Y83.835 I-0.105 J-0.106
X107.865 Y80.142 I303.075 J-0.163
G2 X107.885 Y76.449 I-303.054 J-3.53
X105.568 Y74.134 I-2.316 J0.001
G1 X86.8 Y74.139
G2 X84.507 Y76.131 I0.001 J2.316
G3 X83.661 Y79.457 I-15.67 J-2.213
X81.998 Y82.459 I-10.871 J-4.062
X77.842 Y86.081 I-11.033 J-8.464
X72.778 Y88.262 I-12.35 J-21.705
X69.903 Y88.984 I-8.649 J-28.354
X64.038 Y89.714 I-7.654 J-37.594
X58.129 Y89.69 I-2.724 J-58.35
G1 X53.852 Y89.31
X49.943 Y88.643
G3 X46.202 Y87.588 I7.425 J-33.503
X42.706 Y85.89 I5.24 J-15.227
X40.09 Y83.441 I5.457 J-8.451
X38.972 Y80.037 I4.543 J-3.378
X39.699 Y78.016 I3.212 J0.015
X41.289 Y76.572 I5.668 J4.642
X44.046 Y75.178 I7.062 J10.54
X47.008 Y74.301 I8.986 J24.91
X52.144 Y73.451 I9.045 J38.725
X57.338 Y73.117 I7.447 J75.368
G1 X63.723 Y73.126
X68.328 Y73.27
X72.959 Y73.199
X77.307 Y72.939
X81.677 Y72.447
X85.961 Y71.662
X89.192 Y70.818
X92.608 Y69.618
G2 X97.181 Y67.238 I-9.293 J-23.44
X101.143 Y63.94 I-12.692 J-19.277
X102.093 Y62.79 I-7.256 J-6.962
X102.837 Y61.699 I-30.267 J-21.437
X102.821 Y60.799 I-0.667 J-0.438
G3 X102.765 Y59.901 I0.697 J-0.494
G1 X102.938 Y59.58
X117.065 Y76.459
X106.868 Y86.531
X106.863 Y76.449
G2 X105.569 Y75.156 I-1.294 J0.001
G1 X86.8 Y75.161
G2 X85.519 Y76.274 I0. J1.294
G1 X85.384 Y77.231
X85.193 Y78.133
X84.941 Y79.021
X84.629 Y79.889
X84.259 Y80.733
X83.832 Y81.549
X83.35 Y82.331
X82.809 Y83.082
X82.369 Y83.621
X81.897 Y84.144
X81.399 Y84.645
X80.878 Y85.124
X80.334 Y85.581
X79.769 Y86.015
X79.186 Y86.426
X78.586 Y86.812
X77.94 Y87.191
X77.279 Y87.548
X76.605 Y87.883
X75.92 Y88.196
X75.224 Y88.487
X74.517 Y88.758
X73.801 Y89.009
X73.076 Y89.24
X72.344 Y89.453
X71.612 Y89.646
X70.107 Y89.987
X68.592 Y90.261
X67.068 Y90.477
X65.582 Y90.631
X64.088 Y90.735
X62.59 Y90.792
X61.087 Y90.805
X59.581 Y90.777
X58.073 Y90.711
X56.565 Y90.612
X55.065 Y90.483
X53.721 Y90.324
X52.376 Y90.134
X51.041 Y89.909
X49.721 Y89.641
X48.419 Y89.327
X47.137 Y88.961
X45.879 Y88.538
X44.642 Y88.05
X43.998 Y87.763
X43.363 Y87.449
X42.746 Y87.112
X42.151 Y86.749
X41.582 Y86.36
X41.04 Y85.943
X40.53 Y85.498
X40.045 Y85.016
X39.681 Y84.612
X39.353 Y84.191
X39.057 Y83.749
X38.794 Y83.287
X38.565 Y82.809
X38.373 Y82.318
X38.22 Y81.815
X38.097 Y81.265
X38.03 Y80.938
X37.985 Y80.632
X37.958 Y80.33
X37.949 Y80.032
X37.96 Y79.741
X37.991 Y79.459
X38.043 Y79.185
X38.116 Y78.918
X38.292 Y78.436
X38.513 Y77.991
X38.782 Y77.563
X39.098 Y77.152
X39.455 Y76.76
X39.849 Y76.389
X40.273 Y76.042
X40.719 Y75.722
X41.396 Y75.299
X42.099 Y74.919
X42.83 Y74.576
X43.586 Y74.268
X44.364 Y73.989
X45.159 Y73.738
X45.968 Y73.51
X46.776 Y73.305
X47.801 Y73.086
X48.84 Y72.892
X49.884 Y72.721
X50.933 Y72.574
X51.986 Y72.448
X53.038 Y72.343
X55.17 Y72.186
X57.308 Y72.095
X59.454 Y72.059
X61.606 Y72.066
X63.754 Y72.104
X65.999 Y72.202
G2 X66.03 Y72.203 I0.056 J-1.293
G1 X68.294 Y72.247
G2 X68.324 I0.025 J-1.294
G1 X70.589 Y72.239
G2 X70.618 Y72.238 I-0.005 J-1.294
G1 X72.882 Y72.178
G2 X72.91 Y72.177 I-0.034 J-1.293
G1 X75.028 Y72.075
G2 X75.057 Y72.073 I-0.062 J-1.292
G1 X77.175 Y71.924
G2 X77.209 Y71.922 I-0.091 J-1.291
G1 X79.323 Y71.717
G2 X79.362 Y71.713 I-0.125 J-1.288
G1 X81.468 Y71.444
G2 X81.513 Y71.438 I-0.164 J-1.283
G1 X83.606 Y71.097
G2 X83.643 Y71.09 I-0.208 J-1.277
G1 X84.684 Y70.889
G2 X84.71 Y70.884 I-0.245 J-1.27
G1 X85.747 Y70.662
G2 X85.774 Y70.656 I-0.271 J-1.265
G1 X86.806 Y70.411
G2 X86.834 Y70.404 I-0.298 J-1.259
G1 X87.86 Y70.136
G2 X87.89 Y70.128 I-0.327 J-1.252
G1 X88.91 Y69.835
G2 X88.941 Y69.826 I-0.357 J-1.244
G1 X89.954 Y69.507
G2 X90. Y69.492 I-0.388 J-1.234
G1 X91.464 Y68.971
G2 X91.507 Y68.955 I-0.434 J-1.219
G1 X92.231 Y68.667
G2 X92.262 Y68.655 I-0.477 J-1.203
G1 X92.98 Y68.348
G2 X93.013 Y68.334 I-0.508 J-1.19
G1 X93.722 Y68.008
G2 X93.756 Y67.992 I-0.54 J-1.176
G1 X94.456 Y67.646
G2 X94.491 Y67.628 I-0.574 J-1.16
G1 X95.18 Y67.26
G2 X95.216 Y67.24 I-0.609 J-1.141
G1 X95.892 Y66.851
G2 X95.93 Y66.828 I-0.646 J-1.121
G1 X96.59 Y66.417
G2 X96.63 Y66.391 I-0.684 J-1.098
G1 X97.274 Y65.956
G2 X97.315 Y65.928 I-0.724 J-1.072
G1 X97.941 Y65.469
G2 X97.983 Y65.437 I-0.764 J-1.044
G1 X98.59 Y64.954
G2 X98.632 Y64.919 I-0.806 J-1.012
G1 X99.218 Y64.41
G2 X99.261 Y64.371 I-0.848 J-0.977
G1 X99.824 Y63.836
G2 X99.867 Y63.794 I-0.891 J-0.938
G1 X100.406 Y63.232
G2 X100.448 Y63.186 I-0.934 J-0.896
G1 X100.961 Y62.596
G2 X100.994 Y62.557 I-0.976 J-0.85
G1 X101.398 Y62.054
G2 X101.442 Y61.997 I-1.008 J-0.811
G1 X101.817 Y61.474
G2 X101.85 Y61.425 I-1.052 J-0.754
G1 X102.201 Y60.885
G2 X102.229 Y60.84 I-1.085 J-0.705
G1 X102.558 Y60.286
G2 X102.585 Y60.237 I-1.113 J-0.66
G1 X102.765 Y59.901
G3 X102.818 Y59.843 Z-2.779 I0.14 J0.075
X102.872 Y59.821 Z-2.721 I0.087 J0.133
X102.893 Y59.818 Z-2.641 I0.033 J0.155
G0 Z5.
X89.671 Y88.65
Z4.7
G1 Z2.359 F356.
G3 X89.69 Y88.644 Z2.281 I0.232 J0.717
X89.744 Y88.63 Z2.223 I0.213 J0.723
X89.82 Y88.618 Z2.2 I0.159 J0.737
X89.986 Y90.117 Z2.117 I0.083 J0.75
X89.82 Y88.618 Z2.035 I-0.083 J-0.75
X89.986 Y90.117 Z1.952 I0.083 J0.75
X89.82 Y88.618 Z1.869 I-0.083 J-0.75
X89.986 Y90.117 Z1.786 I0.083 J0.75
X89.82 Y88.618 Z1.704 I-0.083 J-0.75
X89.986 Y90.117 Z1.621 I0.083 J0.75
X89.82 Y88.618 Z1.538 I-0.083 J-0.75
X89.986 Y90.117 Z1.455 I0.083 J0.75
X89.82 Y88.618 Z1.373 I-0.083 J-0.75
X89.986 Y90.117 Z1.29 I0.083 J0.75
X89.82 Y88.618 Z1.207 I-0.083 J-0.75
X89.986 Y90.117 Z1.125 I0.083 J0.75
X89.82 Y88.618 Z1.042 I-0.083 J-0.75
X89.986 Y90.117 Z0.959 I0.083 J0.75
X89.82 Y88.618 Z0.876 I-0.083 J-0.75
X89.986 Y90.117 Z0.794 I0.083 J0.75
X89.82 Y88.618 Z0.711 I-0.083 J-0.75
X89.986 Y90.117 Z0.628 I0.083 J0.75
X89.82 Y88.618 Z0.545 I-0.083 J-0.75
X89.986 Y90.117 Z0.463 I0.083 J0.75
X89.82 Y88.618 Z0.38 I-0.083 J-0.75
X89.986 Y90.117 Z0.297 I0.083 J0.75
X89.82 Y88.618 Z0.215 I-0.083 J-0.75
X89.986 Y90.117 Z0.132 I0.083 J0.75
X89.82 Y88.618 Z0.049 I-0.083 J-0.75
X89.986 Y90.117 Z-0.034 I0.083 J0.75
X89.82 Y88.618 Z-0.116 I-0.083 J-0.75
X89.986 Y90.117 Z-0.199 I0.083 J0.75
X89.82 Y88.618 Z-0.282 I-0.083 J-0.75
X89.986 Y90.117 Z-0.364 I0.083 J0.75
X89.82 Y88.618 Z-0.447 I-0.083 J-0.75
X89.986 Y90.117 Z-0.53 I0.083 J0.75
X89.82 Y88.618 Z-0.613 I-0.083 J-0.75
X89.986 Y90.117 Z-0.695 I0.083 J0.75
X89.82 Y88.618 Z-0.778 I-0.083 J-0.75
X89.986 Y90.117 Z-0.861 I0.083 J0.75
X89.82 Y88.618 Z-0.944 I-0.083 J-0.75
X89.986 Y90.117 Z-1.026 I0.083 J0.75
X89.82 Y88.618 Z-1.109 I-0.083 J-0.75
X89.986 Y90.117 Z-1.192 I0.083 J0.75
X89.82 Y88.618 Z-1.274 I-0.083 J-0.75
X89.986 Y90.117 Z-1.357 I0.083 J0.75
X89.82 Y88.618 Z-1.44 I-0.083 J-0.75
X89.986 Y90.117 Z-1.523 I0.083 J0.75
X89.82 Y88.618 Z-1.605 I-0.083 J-0.75
X89.986 Y90.117 Z-1.688 I0.083 J0.75
X89.82 Y88.618 Z-1.771 I-0.083 J-0.75
X89.986 Y90.117 Z-1.854 I0.083 J0.75
X89.82 Y88.618 Z-1.936 I-0.083 J-0.75
X89.986 Y90.117 Z-2.019 I0.083 J0.75
X89.82 Y88.618 Z-2.102 I-0.083 J-0.75
X89.986 Y90.117 Z-2.184 I0.083 J0.75
X89.82 Y88.618 Z-2.267 I-0.083 J-0.75
X89.986 Y90.117 Z-2.35 I0.083 J0.75
X89.82 Y88.618 Z-2.433 I-0.083 J-0.75
X89.986 Y90.117 Z-2.515 I0.083 J0.75
X89.82 Y88.618 Z-2.598 I-0.083 J-0.75
X89.986 Y90.117 Z-2.681 I0.083 J0.75
X89.82 Y88.618 Z-2.764 I-0.083 J-0.75
X90.624 Y89.147 Z-2.8 I0.083 J0.75
X90.661 Y89.273 I-7.113 J2.167
G1 X90.729 Y89.509
G3 X90.782 Y89.734 I-2.33 J0.666
X90.521 Y90.047 I-0.261 J0.048
G1 X88.608 Y90.048
G3 X88.519 Y89.823 I0. J-0.13
G2 X89.257 Y89.086 I-10.212 J-10.955
X89.962 Y88.318 I-50.048 J-46.705
G3 X90.309 Y88.359 I0.159 J0.144
X90.511 Y88.806 I-2.697 J1.486
X90.624 Y89.147 I-7. J2.509
G2 X91.254 Y89.686 I0.737 J-0.225
G3 X91.811 Y90.298 I-0.091 J0.643
G1 X91.824 Y90.563
X91.815 Y91.009
X86.999 Y91.011
X85.54 Y91.006
X85.773 Y90.862
G2 X85.858 Y90.805 I-0.68 J-1.1
G1 X86.424 Y90.389
G2 X86.495 Y90.333 I-0.765 J-1.043
G1 X87.193 Y89.742
G2 X87.239 Y89.701 I-0.836 J-0.987
G1 X87.908 Y89.077
G2 X87.947 Y89.04 I-0.882 J-0.946
G1 X88.59 Y88.388
G2 X88.622 Y88.355 I-0.921 J-0.909
G1 X89.242 Y87.68
G2 X89.288 Y87.627 I-0.952 J-0.876
G1 X89.734 Y87.086
G2 X89.772 Y87.037 I-0.999 J-0.823
G1 X90.156 Y86.523
X90.475 Y86.881
X90.828 Y87.356
X91.024 Y87.662
X91.2 Y87.981
X91.355 Y88.313
X91.489 Y88.654
X91.601 Y89.004
X91.691 Y89.361
X91.758 Y89.722
X91.801 Y90.082
X91.811 Y90.298
G3 X91.795 Y90.375 Z-2.779 I-0.159 J0.007
X91.761 Y90.421 Z-2.721 I-0.143 J-0.069
X91.745 Y90.435 Z-2.641 I-0.108 J-0.116
G0 Z5.
X64.223 Y22.795
Z4.7
G1 Z2.359 F356.
G3 Y22.816 Z2.281 I-0.753 J0.037
Y22.872 Z2.223 I-0.754 J0.017
X64.215 Y22.948 Z2.2 I-0.753 J-0.039
X62.724 Y22.717 Z2.117 I-0.745 J-0.116
X64.215 Y22.948 Z2.035 I0.745 J0.116
X62.724 Y22.717 Z1.952 I-0.745 J-0.116
X64.215 Y22.948 Z1.869 I0.745 J0.116
X62.724 Y22.717 Z1.786 I-0.745 J-0.116
X64.215 Y22.948 Z1.704 I0.745 J0.116
X62.724 Y22.717 Z1.621 I-0.745 J-0.116
X64.215 Y22.948 Z1.538 I0.745 J0.116
X62.724 Y22.717 Z1.455 I-0.745 J-0.116
X64.215 Y22.948 Z1.373 I0.745 J0.116
X62.724 Y22.717 Z1.29 I-0.745 J-0.116
X64.215 Y22.948 Z1.207 I0.745 J0.116
X62.724 Y22.717 Z1.125 I-0.745 J-0.116
X64.215 Y22.948 Z1.042 I0.745 J0.116
X62.724 Y22.717 Z0.959 I-0.745 J-0.116
X64.215 Y22.948 Z0.876 I0.745 J0.116
X62.724 Y22.717 Z0.794 I-0.745 J-0.116
X64.215 Y22.948 Z0.711 I0.745 J0.116
X62.724 Y22.717 Z0.628 I-0.745 J-0.116
X64.215 Y22.948 Z0.545 I0.745 J0.116
X62.724 Y22.717 Z0.463 I-0.745 J-0.116
X64.215 Y22.948 Z0.38 I0.745 J0.116
X62.724 Y22.717 Z0.297 I-0.745 J-0.116
X64.215 Y22.948 Z0.215 I0.745 J0.116
X62.724 Y22.717 Z0.132 I-0.745 J-0.116
X64.215 Y22.948 Z0.049 I0.745 J0.116
X62.724 Y22.717 Z-0.034 I-0.745 J-0.116
X64.215 Y22.948 Z-0.116 I0.745 J0.116
X62.724 Y22.717 Z-0.199 I-0.745 J-0.116
X64.215 Y22.948 Z-0.282 I0.745 J0.116
X62.724 Y22.717 Z-0.364 I-0.745 J-0.116
X64.215 Y22.948 Z-0.447 I0.745 J0.116
X62.724 Y22.717 Z-0.53 I-0.745 J-0.116
X64.215 Y22.948 Z-0.613 I0.745 J0.116
X62.724 Y22.717 Z-0.695 I-0.745 J-0.116
X64.215 Y22.948 Z-0.778 I0.745 J0.116
X62.724 Y22.717 Z-0.861 I-0.745 J-0.116
X64.215 Y22.948 Z-0.944 I0.745 J0.116
X62.724 Y22.717 Z-1.026 I-0.745 J-0.116
X64.215 Y22.948 Z-1.109 I0.745 J0.116
X62.724 Y22.717 Z-1.192 I-0.745 J-0.116
X64.215 Y22.948 Z-1.274 I0.745 J0.116
X62.724 Y22.717 Z-1.357 I-0.745 J-0.116
X64.215 Y22.948 Z-1.44 I0.745 J0.116
X62.724 Y22.717 Z-1.523 I-0.745 J-0.116
X64.215 Y22.948 Z-1.605 I0.745 J0.116
X62.724 Y22.717 Z-1.688 I-0.745 J-0.116
X64.215 Y22.948 Z-1.771 I0.745 J0.116
X62.724 Y22.717 Z-1.854 I-0.745 J-0.116
X64.215 Y22.948 Z-1.936 I0.745 J0.116
X62.724 Y22.717 Z-2.019 I-0.745 J-0.116
X64.215 Y22.948 Z-2.102 I0.745 J0.116
X62.724 Y22.717 Z-2.184 I-0.745 J-0.116
X64.215 Y22.948 Z-2.267 I0.745 J0.116
X62.724 Y22.717 Z-2.35 I-0.745 J-0.116
X64.215 Y22.948 Z-2.433 I0.745 J0.116
X62.724 Y22.717 Z-2.515 I-0.745 J-0.116
X64.215 Y22.948 Z-2.598 I0.745 J0.116
X62.724 Y22.717 Z-2.681 I-0.745 J-0.116
X64.215 Y22.948 Z-2.764 I0.745 J0.116
X63.494 Y23.586 Z-2.8 I-0.745 J-0.116
G1 X63.204 Y23.595
G3 X63.083 Y23.34 I-0.004 J-0.155
G1 X63.281 Y23.109
G3 X63.688 I0.203 J0.175
G1 X63.861 Y23.31
G3 X63.743 Y23.578 I-0.123 J0.106
G1 X63.494 Y23.586
G2 X62.801 Y24.082 I0.024 J0.765
G3 X62.109 Y24.577 I-0.724 J-0.28
G1 X62.094 Y24.578
G2 X60.934 Y24.674 I0.573 J13.931
G3 X60.819 Y24.46 I-0.016 J-0.129
G1 X63.281 Y21.595
G3 X63.688 I0.203 J0.175
G1 X65.995 Y24.279
G3 X65.874 Y24.535 I-0.118 J0.101
G2 X64.565 Y24.519 I-1.595 J76.833
X63.257 Y24.536 I-0.145 J38.871
X62.109 Y24.577 I3.119 J104.191
X61.414 Y25.072 I0.032 J0.78
G3 X60.735 Y25.588 I-0.763 J-0.3
G2 X60.109 Y25.671 I1.103 J10.715
G3 X58.687 Y25.867 I-4.725 J-29.069
X58.561 Y25.629 I-0.016 J-0.144
G1 X63.28 Y20.137
G3 X63.687 I0.204 J0.175
G1 X68.129 Y25.302
G3 X68.006 Y25.552 I-0.115 J0.099
G2 X64.772 Y25.479 I-2.833 J53.26
X61.539 Y25.536 I1.2 J159.779
X60.735 Y25.588 I0.299 J10.768
X60.057 Y26.154 I0.081 J0.785
G3 X59.376 Y26.715 I-0.752 J-0.218
G1 X59.101 Y26.74
G2 X57.713 Y26.896 I3.105 J34.05
X57.01 Y27.009 I1.613 J12.165
G3 X56.31 Y27.132 I-4.044 J-21.053
X56.191 Y26.919 I-0.02 J-0.129
G1 X63.278 Y18.672
G3 X63.685 Y18.671 I0.204 J0.175
G1 X70.349 Y26.417
G3 X70.224 Y26.659 I-0.112 J0.096
G2 X67.645 Y26.444 I-15.471 J169.694
X65.058 Y26.387 I-1.816 J23.939
G1 X61.565 Y26.492
G2 X60.86 Y26.557 I0.154 J5.534
G3 X60.157 Y26.644 I-1.695 J-10.794
G1 X59.376 Y26.715
G2 X58.72 Y27.255 I0.069 J0.753
G3 X58.069 Y27.801 I-0.737 J-0.217
G1 X57.76 Y27.836
G2 X56.623 Y27.99 I2.909 J25.774
X55.432 Y28.193 I7.233 J45.807
G1 X53.94 Y28.469
G3 X53.811 Y28.245 I-0.025 J-0.135
G1 X63.276 Y17.23
G3 X63.683 I0.204 J0.175
G1 X72.619 Y27.614
G3 X72.492 Y27.846 I-0.107 J0.092
G2 X65.768 Y27.343 I-7.18 J50.828
X59.035 Y27.692 I-0.495 J55.632
G1 X58.069 Y27.801
G2 X57.401 Y28.346 I0.089 J0.79
G3 X56.751 Y28.913 I-0.796 J-0.257
G1 X52.16 Y29.724
G2 X51.828 Y29.802 I1.092 J5.351
G3 X51.496 Y29.881 I-1.424 J-5.273
X51.366 Y29.66 I-0.027 J-0.133
G1 X63.274 Y15.804
G3 X63.681 Y15.803 I0.204 J0.175
G1 X74.997 Y28.951
G3 X74.867 Y29.174 I-0.104 J0.089
G2 X71.054 Y28.578 I-11.483 J60.932
X67.203 Y28.299 I-4.626 J37.117
G1 X63.37 Y28.315
G2 X61.847 Y28.388 I1.242 J41.475
X60.327 Y28.508 I4.19 J62.739
G1 X56.768 Y28.909
X56.751 Y28.913
G2 X56.117 Y29.509 I0.138 J0.783
G3 X55.477 Y30.1 I-0.762 J-0.183
G1 X54.659 Y30.229
G2 X54.626 Y30.235 I0.202 J1.278
G1 X52.374 Y30.651
G2 X52.35 Y30.655 I0.235 J1.272
G1 X50.491 Y31.035
G2 X50.461 Y31.041 I0.259 J1.268
G1 X48.611 Y31.463
X48.586 Y31.469
X63.475 Y14.143
X66.863 Y18.064
X71.175 Y23.08
X75.687 Y28.328
X77.756 Y30.732
X77.372 Y30.643
G2 X77.349 Y30.638 I-0.293 J1.26
G1 X75.327 Y30.207
G2 X75.297 Y30.201 I-0.27 J1.265
G1 X74.282 Y30.01
G2 X74.255 Y30.005 I-0.24 J1.271
G1 X73.236 Y29.836
G2 X73.211 Y29.832 I-0.212 J1.276
G1 X72.238 Y29.689
G2 X72.209 Y29.685 I-0.187 J1.28
G1 X71.234 Y29.565
G2 X71.193 Y29.561 I-0.158 J1.284
G1 X69.237 Y29.383
G2 X69.188 Y29.379 I-0.117 J1.288
G1 X67.225 Y29.275
G2 X67.183 Y29.273 I-0.069 J1.292
G1 X65.218 Y29.232
G2 X65.149 Y29.233 I-0.027 J1.293
G1 X63.399 Y29.289
X61.644 Y29.338
G2 X61.211 Y29.425 I0.036 J1.293
G1 X60.446 Y29.477
G2 X60.416 Y29.479 I0.087 J1.291
G1 X59.276 Y29.583
G2 X59.249 Y29.586 I0.117 J1.288
G1 X58.112 Y29.714
G2 X58.087 Y29.717 I0.145 J1.286
G1 X56.952 Y29.867
G2 X56.92 Y29.872 I0.17 J1.283
G1 X55.477 Y30.1
G3 X55.399 Y30.093 Z-2.779 I-0.025 J-0.157
X55.349 Y30.064 Z-2.721 I0.053 J-0.149
X55.334 Y30.049 Z-2.641 I0.103 J-0.12
G0 Z15.

M9
G53 Z0.
M30
