(1)
(TRACE PASS)
(T5  D=1.587 CR=0. - ZMIN=-3.3 - FLAT END MILL)
G0 G90 G94 G17
G21
G53 Z0.

(TRACE1)
M5
M9
T5
S13000 M3
G55
M9
G0 X28.779 Y46.27
Z14.7
Z4.7
G1 Z1.7 F356.
Z-0.141
X28.774 Y46.276 Z-0.19
X28.759 Y46.293 Z-0.235
X28.736 Y46.32 Z-0.27
X28.708 Y46.353 Z-0.292
X28.676 Y46.391 Z-0.3
X19.592 Y56.971
X15.581 Y61.642
X11.626 Y66.247
X7.369 Y71.204
X2.606 Y76.747
X2.576 Y76.784
X2.553 Y76.818
X2.536 Y76.852
X2.521 Y76.886
X2.508 Y76.925
X2.497 Y76.969
X2.621 Y77.113
X2.745 Y77.239
X2.862 Y77.351
X2.979 Y77.458
X3.107 Y77.575
X3.249 Y77.707
X6.531 Y80.875
X9.581 Y83.816
X12.378 Y86.51
X15.136 Y89.167
X18.104 Y92.027
X21.423 Y95.227
X21.424 Y95.229
X21.596 Y95.393
X21.751 Y95.55
X21.892 Y95.693
X22.033 Y95.828
X22.191 Y95.964
X22.38 Y96.098
X22.489 Y96.112
X22.59 Y96.12
X22.683 Y96.126
X22.775 Y96.13
X22.875 Y96.131
X22.985
X23.099 Y96.129
X23.302 Y96.125
X23.398 Y96.124
X23.501 Y96.123
X23.616 Y96.124
X38.25 Y96.123
X51.84
X76.587 Y96.124
X89.812 Y96.123
X104.604
X107.227 Y93.601
X109.66 Y91.257
X111.891 Y89.106
X114.09 Y86.985
X116.458 Y84.703
X119.109 Y82.152
X120.084 Y81.206
X120.993 Y80.332
X121.827 Y79.532
X122.648 Y78.742
X123.528 Y77.886
X124.503 Y76.921
X113.479 Y64.082
X103.24 Y52.16
X84.596 Y30.45
X74.633 Y18.848
X63.492 Y5.869
X57.194 Y13.185
X51.352 Y19.984
X45.997 Y26.22
X40.718 Y32.37
X35.035 Y38.989
X28.676 Y46.391
X28.539 Y46.55 Z-0.323
X28.431 Y46.675 Z-0.386
X28.351 Y46.768 Z-0.482
X28.296 Y46.832 Z-0.601
X28.265 Y46.868 Z-0.736
X28.255 Y46.88 Z-0.877
X28.264 Y46.87 Z-1.018
X28.289 Y46.84 Z-1.148
X28.329 Y46.794 Z-1.26
X28.382 Y46.732 Z-1.349
X28.905 Y46.123 Z-2.153
X29.002 Y46.011 Z-2.309
X29.065 Y45.937 Z-2.497
X29.09 Y45.908 Z-2.713
X29.071 Y45.931 Z-2.929
X29.042 Y45.964 Z-3.028
X29. Y46.014 Z-3.117
X28.942 Y46.08 Z-3.192
X28.87 Y46.164 Z-3.25
X28.781 Y46.268 Z-3.287
X28.676 Y46.391 Z-3.3
X2.606 Y76.747
X2.604 Y76.749
X2.535 Y76.853
X2.497 Y76.969
X2.857 Y77.346
X3.249 Y77.707
X21.423 Y95.227
X21.424 Y95.229
X21.889 Y95.691
X22.125 Y95.91
X22.38 Y96.098
X22.681 Y96.126
X22.985 Y96.131
X23.616 Y96.124
X104.604 Y96.123
X119.109 Y82.152
X121.815 Y79.544
X124.503 Y76.921
X63.492 Y5.869
X28.676 Y46.391
X28.644 Y46.428 Z-3.292
X28.615 Y46.461 Z-3.27
X28.592 Y46.488 Z-3.235
X28.577 Y46.505 Z-3.19
X28.572 Y46.511 Z-3.141
Z4.7
G0 Z14.7

M9
G53 Z0.
M30
