(1)
(FACE PASS)
(T3  D=3.175 CR=0. - ZMIN=-0.3 - FLAT END MILL)
G0 G90 G94 G17
G21
G53 Z0.

(FACE3)
M5
M9
T3
S13000 M3
G55
M9
G0 X129.064 Y1.443
Z10.2
Z5.
G1 Z0.018 F1016.
G18 G3 X128.746 Z-0.3 I-0.318 K0.
G1 X127. F900.
X0.
G17 G2 Y4.444 I0. J1.5
G1 X127.
G3 Y7.444 I0. J1.5
G1 X0.
G2 Y10.445 I0. J1.5
G1 X127.
G3 Y13.445 I0. J1.5
G1 X0.
G2 Y16.446 I0. J1.5
G1 X127.
G3 Y19.447 I0. J1.5
G1 X0.
G2 Y22.447 I0. J1.5
G1 X127.
G3 Y25.448 I0. J1.5
G1 X0.
G2 Y28.448 I0. J1.5
G1 X127.
G3 Y31.449 I0. J1.5
G1 X0.
G2 Y34.449 I0. J1.5
G1 X127.
G3 Y37.45 I0. J1.5
G1 X0.
G2 Y40.451 I0. J1.5
G1 X127.
G3 Y43.451 I0. J1.5
G1 X0.
G2 Y46.452 I0. J1.5
G1 X127.
G3 Y49.452 I0. J1.5
G1 X0.
G2 Y52.453 I0. J1.5
G1 X127.
G3 Y55.453 I0. J1.5
G1 X0.
G2 Y58.454 I0. J1.5
G1 X127.
G3 Y61.454 I0. J1.5
G1 X0.
G2 Y64.455 I0. J1.5
G1 X127.
G3 Y67.456 I0. J1.5
G1 X0.
G2 Y70.456 I0. J1.5
G1 X127.
G3 Y73.457 I0. J1.5
G1 X0.
G2 Y76.457 I0. J1.5
G1 X127.
G3 Y79.458 I0. J1.5
G1 X0.
G2 Y82.458 I0. J1.5
G1 X127.
G3 Y85.459 I0. J1.5
G1 X0.
G2 Y88.459 I0. J1.5
G1 X127.
G3 Y91.46 I0. J1.5
G1 X0.
G2 Y94.461 I0. J1.5
G1 X127.
G3 Y97.461 I0. J1.5
G1 X0.
G2 Y100.462 I0. J1.5
G1 X127.
G18 G2 X127.317 Z0.018 I0. K0.318 F1016.
G0 Z10.2
G17

M9
G53 Z0.
M30
