(1001)
(FACING AND RAMP PATHS)
(T1  D=0.125 CR=0. - ZMIN=-0.9866 - FLAT END MILL)
G0 G90 G94 G17
G20
G53 Z0.

(FACE1)
M5
M9
T1
S16500 M3
G55
M9
G0 X0.7879 Y-0.1048
Z0.65
Z0.05
G1 Z-0.0006 F5.
X0.7592
X0.2348 F59.
X0.1364
G2 Y-0.0447 I0. J0.03
G1 X0.8576
X0.926
G3 Y0.0154 I0. J0.03
G1 X0.068
X0.0166
G2 Y0.0755 I0. J0.03
G1 X0.9774
X1.0168
G3 Y0.1356 I0. J0.03
G1 X-0.0228
X-0.0531
G2 Y0.1957 I0. J0.03
G1 X1.0471
X1.0695
G3 Y0.2558 I0. J0.03
G1 X-0.0755
X-0.0907
G2 Y0.3159 I0. J0.03
G1 X1.0847
X1.0938
G3 Y0.376 I0. J0.03
G1 X-0.0998
X-0.103
G2 Y0.4361 I0. J0.03
G1 X1.097
G3 Y0.4962 I0. J0.03
G1 X-0.103
G2 Y0.5562 I0. J0.03
G1 X1.097
G3 Y0.6163 I0. J0.03
G1 X1.094
X-0.1
G2 Y0.6764 I0. J0.03
G1 X-0.091
X1.085
G3 Y0.7365 I0. J0.03
G1 X1.07
X-0.076
G2 Y0.7966 I0. J0.03
G1 X-0.0539
X1.0479
G3 Y0.8567 I0. J0.03
G1 X1.0177
X-0.0237
G2 Y0.9168 I0. J0.03
G1 X0.0152
X0.9788
G3 Y0.9769 I0. J0.03
G1 X0.9276
X0.0664
G2 Y1.037 I0. J0.03
G1 X0.1343
X0.8597
G0 Z0.05
X0.7879 Y-0.1048
G1 Z-0.0026 F5.
X0.7592
X0.2348 F59.
X0.1364
G2 Y-0.0447 I0. J0.03
G1 X0.8576
X0.926
G3 Y0.0154 I0. J0.03
G1 X0.068
X0.0166
G2 Y0.0755 I0. J0.03
G1 X0.9774
X1.0168
G3 Y0.1356 I0. J0.03
G1 X-0.0228
X-0.0531
G2 Y0.1957 I0. J0.03
G1 X1.0471
X1.0695
G3 Y0.2558 I0. J0.03
G1 X-0.0755
X-0.0907
G2 Y0.3159 I0. J0.03
G1 X1.0847
X1.0938
G3 Y0.376 I0. J0.03
G1 X-0.0998
X-0.103
G2 Y0.4361 I0. J0.03
G1 X1.097
G3 Y0.4962 I0. J0.03
G1 X-0.103
G2 Y0.5562 I0. J0.03
G1 X1.097
G3 Y0.6163 I0. J0.03
G1 X1.094
X-0.1
G2 Y0.6764 I0. J0.03
G1 X-0.091
X1.085
G3 Y0.7365 I0. J0.03
G1 X1.07
X-0.076
G2 Y0.7966 I0. J0.03
G1 X-0.0539
X1.0479
G3 Y0.8567 I0. J0.03
G1 X1.0177
X-0.0237
G2 Y0.9168 I0. J0.03
G1 X0.0152
X0.9788
G3 Y0.9769 I0. J0.03
G1 X0.9276
X0.0664
G2 Y1.037 I0. J0.03
G1 X0.1343
X0.8597
G0 Z0.05
X0.7879 Y-0.1048
G1 Z-0.0046 F5.
X0.7592
X0.2348 F59.
X0.1364
G2 Y-0.0447 I0. J0.03
G1 X0.8576
X0.926
G3 Y0.0154 I0. J0.03
G1 X0.068
X0.0166
G2 Y0.0755 I0. J0.03
G1 X0.9774
X1.0168
G3 Y0.1356 I0. J0.03
G1 X-0.0228
X-0.0531
G2 Y0.1957 I0. J0.03
G1 X1.0471
X1.0695
G3 Y0.2558 I0. J0.03
G1 X-0.0755
X-0.0907
G2 Y0.3159 I0. J0.03
G1 X1.0847
X1.0938
G3 Y0.376 I0. J0.03
G1 X-0.0998
X-0.103
G2 Y0.4361 I0. J0.03
G1 X1.097
G3 Y0.4962 I0. J0.03
G1 X-0.103
G2 Y0.5562 I0. J0.03
G1 X1.097
G3 Y0.6163 I0. J0.03
G1 X1.094
X-0.1
G2 Y0.6764 I0. J0.03
G1 X-0.091
X1.085
G3 Y0.7365 I0. J0.03
G1 X1.07
X-0.076
G2 Y0.7966 I0. J0.03
G1 X-0.0539
X1.0479
G3 Y0.8567 I0. J0.03
G1 X1.0177
X-0.0237
G2 Y0.9168 I0. J0.03
G1 X0.0152
X0.9788
G3 Y0.9769 I0. J0.03
G1 X0.9276
X0.0664
G2 Y1.037 I0. J0.03
G1 X0.1343
X0.8597
G0 Z0.05
X0.7879 Y-0.1048
G1 Z-0.0066 F5.
X0.7592
X0.2348 F59.
X0.1364
G2 Y-0.0447 I0. J0.03
G1 X0.8576
X0.926
G3 Y0.0154 I0. J0.03
G1 X0.068
X0.0166
G2 Y0.0755 I0. J0.03
G1 X0.9774
X1.0168
G3 Y0.1356 I0. J0.03
G1 X-0.0228
X-0.0531
G2 Y0.1957 I0. J0.03
G1 X1.0471
X1.0695
G3 Y0.2558 I0. J0.03
G1 X-0.0755
X-0.0907
G2 Y0.3159 I0. J0.03
G1 X1.0847
X1.0938
G3 Y0.376 I0. J0.03
G1 X-0.0998
X-0.103
G2 Y0.4361 I0. J0.03
G1 X1.097
G3 Y0.4962 I0. J0.03
G1 X-0.103
G2 Y0.5562 I0. J0.03
G1 X1.097
G3 Y0.6163 I0. J0.03
G1 X1.094
X-0.1
G2 Y0.6764 I0. J0.03
G1 X-0.091
X1.085
G3 Y0.7365 I0. J0.03
G1 X1.07
X-0.076
G2 Y0.7966 I0. J0.03
G1 X-0.0539
X1.0479
G3 Y0.8567 I0. J0.03
G1 X1.0177
X-0.0237
G2 Y0.9168 I0. J0.03
G1 X0.0152
X0.9788
G3 Y0.9769 I0. J0.03
G1 X0.9276
X0.0664
G2 Y1.037 I0. J0.03
G1 X0.1343
X0.8597
G0 Z0.05
X0.7879 Y-0.1048
G1 Z-0.0086 F5.
X0.7592
X0.2348 F59.
X0.1364
G2 Y-0.0447 I0. J0.03
G1 X0.8576
X0.926
G3 Y0.0154 I0. J0.03
G1 X0.068
X0.0166
G2 Y0.0755 I0. J0.03
G1 X0.9774
X1.0168
G3 Y0.1356 I0. J0.03
G1 X-0.0228
X-0.0531
G2 Y0.1957 I0. J0.03
G1 X1.0471
X1.0695
G3 Y0.2558 I0. J0.03
G1 X-0.0755
X-0.0907
G2 Y0.3159 I0. J0.03
G1 X1.0847
X1.0938
G3 Y0.376 I0. J0.03
G1 X-0.0998
X-0.103
G2 Y0.4361 I0. J0.03
G1 X1.097
G3 Y0.4962 I0. J0.03
G1 X-0.103
G2 Y0.5562 I0. J0.03
G1 X1.097
G3 Y0.6163 I0. J0.03
G1 X1.094
X-0.1
G2 Y0.6764 I0. J0.03
G1 X-0.091
X1.085
G3 Y0.7365 I0. J0.03
G1 X1.07
X-0.076
G2 Y0.7966 I0. J0.03
G1 X-0.0539
X1.0479
G3 Y0.8567 I0. J0.03
G1 X1.0177
X-0.0237
G2 Y0.9168 I0. J0.03
G1 X0.0152
X0.9788
G3 Y0.9769 I0. J0.03
G1 X0.9276
X0.0664
G2 Y1.037 I0. J0.03
G1 X0.1343
X0.8597
G0 Z0.05
X0.7879 Y-0.1048
G1 Z-0.0106 F5.
X0.7592
X0.2348 F59.
X0.1364
G2 Y-0.0447 I0. J0.03
G1 X0.8576
X0.926
G3 Y0.0154 I0. J0.03
G1 X0.068
X0.0166
G2 Y0.0755 I0. J0.03
G1 X0.9774
X1.0168
G3 Y0.1356 I0. J0.03
G1 X-0.0228
X-0.0531
G2 Y0.1957 I0. J0.03
G1 X1.0471
X1.0695
G3 Y0.2558 I0. J0.03
G1 X-0.0755
X-0.0907
G2 Y0.3159 I0. J0.03
G1 X1.0847
X1.0938
G3 Y0.376 I0. J0.03
G1 X-0.0998
X-0.103
G2 Y0.4361 I0. J0.03
G1 X1.097
G3 Y0.4962 I0. J0.03
G1 X-0.103
G2 Y0.5562 I0. J0.03
G1 X1.097
G3 Y0.6163 I0. J0.03
G1 X1.094
X-0.1
G2 Y0.6764 I0. J0.03
G1 X-0.091
X1.085
G3 Y0.7365 I0. J0.03
G1 X1.07
X-0.076
G2 Y0.7966 I0. J0.03
G1 X-0.0539
X1.0479
G3 Y0.8567 I0. J0.03
G1 X1.0177
X-0.0237
G2 Y0.9168 I0. J0.03
G1 X0.0152
X0.9788
G3 Y0.9769 I0. J0.03
G1 X0.9276
X0.0664
G2 Y1.037 I0. J0.03
G1 X0.1343
X0.8597
G0 Z0.05
X0.7879 Y-0.1048
G1 Z-0.0126 F5.
X0.7592
X0.2348 F59.
X0.1364
G2 Y-0.0447 I0. J0.03
G1 X0.8576
X0.926
G3 Y0.0154 I0. J0.03
G1 X0.068
X0.0166
G2 Y0.0755 I0. J0.03
G1 X0.9774
X1.0168
G3 Y0.1356 I0. J0.03
G1 X-0.0228
X-0.0531
G2 Y0.1957 I0. J0.03
G1 X1.0471
X1.0695
G3 Y0.2558 I0. J0.03
G1 X-0.0755
X-0.0907
G2 Y0.3159 I0. J0.03
G1 X1.0847
X1.0938
G3 Y0.376 I0. J0.03
G1 X-0.0998
X-0.103
G2 Y0.4361 I0. J0.03
G1 X1.097
G3 Y0.4962 I0. J0.03
G1 X-0.103
G2 Y0.5562 I0. J0.03
G1 X1.097
G3 Y0.6163 I0. J0.03
G1 X1.094
X-0.1
G2 Y0.6764 I0. J0.03
G1 X-0.091
X1.085
G3 Y0.7365 I0. J0.03
G1 X1.07
X-0.076
G2 Y0.7966 I0. J0.03
G1 X-0.0539
X1.0479
G3 Y0.8567 I0. J0.03
G1 X1.0177
X-0.0237
G2 Y0.9168 I0. J0.03
G1 X0.0152
X0.9788
G3 Y0.9769 I0. J0.03
G1 X0.9276
X0.0664
G2 Y1.037 I0. J0.03
G1 X0.1343
X0.8597
G0 Z0.05
X0.7879 Y-0.1048
G1 Z-0.0146 F5.
X0.7592
X0.2348 F59.
X0.1364
G2 Y-0.0447 I0. J0.03
G1 X0.8576
X0.926
G3 Y0.0154 I0. J0.03
G1 X0.068
X0.0166
G2 Y0.0755 I0. J0.03
G1 X0.9774
X1.0168
G3 Y0.1356 I0. J0.03
G1 X-0.0228
X-0.0531
G2 Y0.1957 I0. J0.03
G1 X1.0471
X1.0695
G3 Y0.2558 I0. J0.03
G1 X-0.0755
X-0.0907
G2 Y0.3159 I0. J0.03
G1 X1.0847
X1.0938
G3 Y0.376 I0. J0.03
G1 X-0.0998
X-0.103
G2 Y0.4361 I0. J0.03
G1 X1.097
G3 Y0.4962 I0. J0.03
G1 X-0.103
G2 Y0.5562 I0. J0.03
G1 X1.097
G3 Y0.6163 I0. J0.03
G1 X1.094
X-0.1
G2 Y0.6764 I0. J0.03
G1 X-0.091
X1.085
G3 Y0.7365 I0. J0.03
G1 X1.07
X-0.076
G2 Y0.7966 I0. J0.03
G1 X-0.0539
X1.0479
G3 Y0.8567 I0. J0.03
G1 X1.0177
X-0.0237
G2 Y0.9168 I0. J0.03
G1 X0.0152
X0.9788
G3 Y0.9769 I0. J0.03
G1 X0.9276
X0.0664
G2 Y1.037 I0. J0.03
G1 X0.1343
X0.8597
G0 Z0.05
X0.7879 Y-0.1048
G1 Z-0.0166 F5.
X0.7592
X0.2348 F59.
X0.1364
G2 Y-0.0447 I0. J0.03
G1 X0.8576
X0.926
G3 Y0.0154 I0. J0.03
G1 X0.068
X0.0166
G2 Y0.0755 I0. J0.03
G1 X0.9774
X1.0168
G3 Y0.1356 I0. J0.03
G1 X-0.0228
X-0.0531
G2 Y0.1957 I0. J0.03
G1 X1.0471
X1.0695
G3 Y0.2558 I0. J0.03
G1 X-0.0755
X-0.0907
G2 Y0.3159 I0. J0.03
G1 X1.0847
X1.0938
G3 Y0.376 I0. J0.03
G1 X-0.0998
X-0.103
G2 Y0.4361 I0. J0.03
G1 X1.097
G3 Y0.4962 I0. J0.03
G1 X-0.103
G2 Y0.5562 I0. J0.03
G1 X1.097
G3 Y0.6163 I0. J0.03
G1 X1.094
X-0.1
G2 Y0.6764 I0. J0.03
G1 X-0.091
X1.085
G3 Y0.7365 I0. J0.03
G1 X1.07
X-0.076
G2 Y0.7966 I0. J0.03
G1 X-0.0539
X1.0479
G3 Y0.8567 I0. J0.03
G1 X1.0177
X-0.0237
G2 Y0.9168 I0. J0.03
G1 X0.0152
X0.9788
G3 Y0.9769 I0. J0.03
G1 X0.9276
X0.0664
G2 Y1.037 I0. J0.03
G1 X0.1343
X0.8597
G0 Z0.05
X0.7879 Y-0.1048
G1 Z-0.0186 F5.
X0.7592
X0.2348 F59.
X0.1364
G2 Y-0.0447 I0. J0.03
G1 X0.8576
X0.926
G3 Y0.0154 I0. J0.03
G1 X0.068
X0.0166
G2 Y0.0755 I0. J0.03
G1 X0.9774
X1.0168
G3 Y0.1356 I0. J0.03
G1 X-0.0228
X-0.0531
G2 Y0.1957 I0. J0.03
G1 X1.0471
X1.0695
G3 Y0.2558 I0. J0.03
G1 X-0.0755
X-0.0907
G2 Y0.3159 I0. J0.03
G1 X1.0847
X1.0938
G3 Y0.376 I0. J0.03
G1 X-0.0998
X-0.103
G2 Y0.4361 I0. J0.03
G1 X1.097
G3 Y0.4962 I0. J0.03
G1 X-0.103
G2 Y0.5562 I0. J0.03
G1 X1.097
G3 Y0.6163 I0. J0.03
G1 X1.094
X-0.1
G2 Y0.6764 I0. J0.03
G1 X-0.091
X1.085
G3 Y0.7365 I0. J0.03
G1 X1.07
X-0.076
G2 Y0.7966 I0. J0.03
G1 X-0.0539
X1.0479
G3 Y0.8567 I0. J0.03
G1 X1.0177
X-0.0237
G2 Y0.9168 I0. J0.03
G1 X0.0152
X0.9788
G3 Y0.9769 I0. J0.03
G1 X0.9276
X0.0664
G2 Y1.037 I0. J0.03
G1 X0.1343
X0.8597
G0 Z0.05
X0.7879 Y-0.1048
G1 Z-0.0206 F5.
X0.7592
X0.2348 F59.
X0.1364
G2 Y-0.0447 I0. J0.03
G1 X0.8576
X0.926
G3 Y0.0154 I0. J0.03
G1 X0.068
X0.0166
G2 Y0.0755 I0. J0.03
G1 X0.9774
X1.0168
G3 Y0.1356 I0. J0.03
G1 X-0.0228
X-0.0531
G2 Y0.1957 I0. J0.03
G1 X1.0471
X1.0695
G3 Y0.2558 I0. J0.03
G1 X-0.0755
X-0.0907
G2 Y0.3159 I0. J0.03
G1 X1.0847
X1.0938
G3 Y0.376 I0. J0.03
G1 X-0.0998
X-0.103
G2 Y0.4361 I0. J0.03
G1 X1.097
G3 Y0.4962 I0. J0.03
G1 X-0.103
G2 Y0.5562 I0. J0.03
G1 X1.097
G3 Y0.6163 I0. J0.03
G1 X1.094
X-0.1
G2 Y0.6764 I0. J0.03
G1 X-0.091
X1.085
G3 Y0.7365 I0. J0.03
G1 X1.07
X-0.076
G2 Y0.7966 I0. J0.03
G1 X-0.0539
X1.0479
G3 Y0.8567 I0. J0.03
G1 X1.0177
X-0.0237
G2 Y0.9168 I0. J0.03
G1 X0.0152
X0.9788
G3 Y0.9769 I0. J0.03
G1 X0.9276
X0.0664
G2 Y1.037 I0. J0.03
G1 X0.1343
X0.8597
G0 Z0.05
X0.7879 Y-0.1048
G1 Z-0.0226 F5.
X0.7592
X0.2348 F59.
X0.1364
G2 Y-0.0447 I0. J0.03
G1 X0.8576
X0.926
G3 Y0.0154 I0. J0.03
G1 X0.068
X0.0166
G2 Y0.0755 I0. J0.03
G1 X0.9774
X1.0168
G3 Y0.1356 I0. J0.03
G1 X-0.0228
X-0.0531
G2 Y0.1957 I0. J0.03
G1 X1.0471
X1.0695
G3 Y0.2558 I0. J0.03
G1 X-0.0755
X-0.0907
G2 Y0.3159 I0. J0.03
G1 X1.0847
X1.0938
G3 Y0.376 I0. J0.03
G1 X-0.0998
X-0.103
G2 Y0.4361 I0. J0.03
G1 X1.097
G3 Y0.4962 I0. J0.03
G1 X-0.103
G2 Y0.5562 I0. J0.03
G1 X1.097
G3 Y0.6163 I0. J0.03
G1 X1.094
X-0.1
G2 Y0.6764 I0. J0.03
G1 X-0.091
X1.085
G3 Y0.7365 I0. J0.03
G1 X1.07
X-0.076
G2 Y0.7966 I0. J0.03
G1 X-0.0539
X1.0479
G3 Y0.8567 I0. J0.03
G1 X1.0177
X-0.0237
G2 Y0.9168 I0. J0.03
G1 X0.0152
X0.9788
G3 Y0.9769 I0. J0.03
G1 X0.9276
X0.0664
G2 Y1.037 I0. J0.03
G1 X0.1343
X0.8597
G0 Z0.05
X0.7879 Y-0.1048
G1 Z-0.0246 F5.
X0.7592
X0.2348 F59.
X0.1364
G2 Y-0.0447 I0. J0.03
G1 X0.8576
X0.926
G3 Y0.0154 I0. J0.03
G1 X0.068
X0.0166
G2 Y0.0755 I0. J0.03
G1 X0.9774
X1.0168
G3 Y0.1356 I0. J0.03
G1 X-0.0228
X-0.0531
G2 Y0.1957 I0. J0.03
G1 X1.0471
X1.0695
G3 Y0.2558 I0. J0.03
G1 X-0.0755
X-0.0907
G2 Y0.3159 I0. J0.03
G1 X1.0847
X1.0938
G3 Y0.376 I0. J0.03
G1 X-0.0998
X-0.103
G2 Y0.4361 I0. J0.03
G1 X1.097
G3 Y0.4962 I0. J0.03
G1 X-0.103
G2 Y0.5562 I0. J0.03
G1 X1.097
G3 Y0.6163 I0. J0.03
G1 X1.094
X-0.1
G2 Y0.6764 I0. J0.03
G1 X-0.091
X1.085
G3 Y0.7365 I0. J0.03
G1 X1.07
X-0.076
G2 Y0.7966 I0. J0.03
G1 X-0.0539
X1.0479
G3 Y0.8567 I0. J0.03
G1 X1.0177
X-0.0237
G2 Y0.9168 I0. J0.03
G1 X0.0152
X0.9788
G3 Y0.9769 I0. J0.03
G1 X0.9276
X0.0664
G2 Y1.037 I0. J0.03
G1 X0.1343
X0.8597
G0 Z0.05
X0.7879 Y-0.1048
G1 Z-0.0266 F5.
X0.7592
X0.2348 F59.
X0.1364
G2 Y-0.0447 I0. J0.03
G1 X0.8576
X0.926
G3 Y0.0154 I0. J0.03
G1 X0.068
X0.0166
G2 Y0.0755 I0. J0.03
G1 X0.9774
X1.0168
G3 Y0.1356 I0. J0.03
G1 X-0.0228
X-0.0531
G2 Y0.1957 I0. J0.03
G1 X1.0471
X1.0695
G3 Y0.2558 I0. J0.03
G1 X-0.0755
X-0.0907
G2 Y0.3159 I0. J0.03
G1 X1.0847
X1.0938
G3 Y0.376 I0. J0.03
G1 X-0.0998
X-0.103
G2 Y0.4361 I0. J0.03
G1 X1.097
G3 Y0.4962 I0. J0.03
G1 X-0.103
G2 Y0.5562 I0. J0.03
G1 X1.097
G3 Y0.6163 I0. J0.03
G1 X1.094
X-0.1
G2 Y0.6764 I0. J0.03
G1 X-0.091
X1.085
G3 Y0.7365 I0. J0.03
G1 X1.07
X-0.076
G2 Y0.7966 I0. J0.03
G1 X-0.0539
X1.0479
G3 Y0.8567 I0. J0.03
G1 X1.0177
X-0.0237
G2 Y0.9168 I0. J0.03
G1 X0.0152
X0.9788
G3 Y0.9769 I0. J0.03
G1 X0.9276
X0.0664
G2 Y1.037 I0. J0.03
G1 X0.1343
X0.8597
G0 Z0.05
X0.7879 Y-0.1048
G1 Z-0.0286 F5.
X0.7592
X0.2348 F59.
X0.1364
G2 Y-0.0447 I0. J0.03
G1 X0.8576
X0.926
G3 Y0.0154 I0. J0.03
G1 X0.068
X0.0166
G2 Y0.0755 I0. J0.03
G1 X0.9774
X1.0168
G3 Y0.1356 I0. J0.03
G1 X-0.0228
X-0.0531
G2 Y0.1957 I0. J0.03
G1 X1.0471
X1.0695
G3 Y0.2558 I0. J0.03
G1 X-0.0755
X-0.0907
G2 Y0.3159 I0. J0.03
G1 X1.0847
X1.0938
G3 Y0.376 I0. J0.03
G1 X-0.0998
X-0.103
G2 Y0.4361 I0. J0.03
G1 X1.097
G3 Y0.4962 I0. J0.03
G1 X-0.103
G2 Y0.5562 I0. J0.03
G1 X1.097
G3 Y0.6163 I0. J0.03
G1 X1.094
X-0.1
G2 Y0.6764 I0. J0.03
G1 X-0.091
X1.085
G3 Y0.7365 I0. J0.03
G1 X1.07
X-0.076
G2 Y0.7966 I0. J0.03
G1 X-0.0539
X1.0479
G3 Y0.8567 I0. J0.03
G1 X1.0177
X-0.0237
G2 Y0.9168 I0. J0.03
G1 X0.0152
X0.9788
G3 Y0.9769 I0. J0.03
G1 X0.9276
X0.0664
G2 Y1.037 I0. J0.03
G1 X0.1343
X0.8597
G0 Z0.05
X0.7879 Y-0.1048
G1 Z-0.0306 F5.
X0.7592
X0.2348 F59.
X0.1364
G2 Y-0.0447 I0. J0.03
G1 X0.8576
X0.926
G3 Y0.0154 I0. J0.03
G1 X0.068
X0.0166
G2 Y0.0755 I0. J0.03
G1 X0.9774
X1.0168
G3 Y0.1356 I0. J0.03
G1 X-0.0228
X-0.0531
G2 Y0.1957 I0. J0.03
G1 X1.0471
X1.0695
G3 Y0.2558 I0. J0.03
G1 X-0.0755
X-0.0907
G2 Y0.3159 I0. J0.03
G1 X1.0847
X1.0938
G3 Y0.376 I0. J0.03
G1 X-0.0998
X-0.103
G2 Y0.4361 I0. J0.03
G1 X1.097
G3 Y0.4962 I0. J0.03
G1 X-0.103
G2 Y0.5562 I0. J0.03
G1 X1.097
G3 Y0.6163 I0. J0.03
G1 X1.094
X-0.1
G2 Y0.6764 I0. J0.03
G1 X-0.091
X1.085
G3 Y0.7365 I0. J0.03
G1 X1.07
X-0.076
G2 Y0.7966 I0. J0.03
G1 X-0.0539
X1.0479
G3 Y0.8567 I0. J0.03
G1 X1.0177
X-0.0237
G2 Y0.9168 I0. J0.03
G1 X0.0152
X0.9788
G3 Y0.9769 I0. J0.03
G1 X0.9276
X0.0664
G2 Y1.037 I0. J0.03
G1 X0.1343
X0.8597
G0 Z0.05
X0.7879 Y-0.1048
G1 Z-0.0326 F5.
X0.7592
X0.2348 F59.
X0.1364
G2 Y-0.0447 I0. J0.03
G1 X0.8576
X0.926
G3 Y0.0154 I0. J0.03
G1 X0.068
X0.0166
G2 Y0.0755 I0. J0.03
G1 X0.9774
X1.0168
G3 Y0.1356 I0. J0.03
G1 X-0.0228
X-0.0531
G2 Y0.1957 I0. J0.03
G1 X1.0471
X1.0695
G3 Y0.2558 I0. J0.03
G1 X-0.0755
X-0.0907
G2 Y0.3159 I0. J0.03
G1 X1.0847
X1.0938
G3 Y0.376 I0. J0.03
G1 X-0.0998
X-0.103
G2 Y0.4361 I0. J0.03
G1 X1.097
G3 Y0.4962 I0. J0.03
G1 X-0.103
G2 Y0.5562 I0. J0.03
G1 X1.097
G3 Y0.6163 I0. J0.03
G1 X1.094
X-0.1
G2 Y0.6764 I0. J0.03
G1 X-0.091
X1.085
G3 Y0.7365 I0. J0.03
G1 X1.07
X-0.076
G2 Y0.7966 I0. J0.03
G1 X-0.0539
X1.0479
G3 Y0.8567 I0. J0.03
G1 X1.0177
X-0.0237
G2 Y0.9168 I0. J0.03
G1 X0.0152
X0.9788
G3 Y0.9769 I0. J0.03
G1 X0.9276
X0.0664
G2 Y1.037 I0. J0.03
G1 X0.1343
X0.8597
G0 Z0.05
X0.7879 Y-0.1048
G1 Z-0.0346 F5.
X0.7592
X0.2348 F59.
X0.1364
G2 Y-0.0447 I0. J0.03
G1 X0.8576
X0.926
G3 Y0.0154 I0. J0.03
G1 X0.068
X0.0166
G2 Y0.0755 I0. J0.03
G1 X0.9774
X1.0168
G3 Y0.1356 I0. J0.03
G1 X-0.0228
X-0.0531
G2 Y0.1957 I0. J0.03
G1 X1.0471
X1.0695
G3 Y0.2558 I0. J0.03
G1 X-0.0755
X-0.0907
G2 Y0.3159 I0. J0.03
G1 X1.0847
X1.0938
G3 Y0.376 I0. J0.03
G1 X-0.0998
X-0.103
G2 Y0.4361 I0. J0.03
G1 X1.097
G3 Y0.4962 I0. J0.03
G1 X-0.103
G2 Y0.5562 I0. J0.03
G1 X1.097
G3 Y0.6163 I0. J0.03
G1 X1.094
X-0.1
G2 Y0.6764 I0. J0.03
G1 X-0.091
X1.085
G3 Y0.7365 I0. J0.03
G1 X1.07
X-0.076
G2 Y0.7966 I0. J0.03
G1 X-0.0539
X1.0479
G3 Y0.8567 I0. J0.03
G1 X1.0177
X-0.0237
G2 Y0.9168 I0. J0.03
G1 X0.0152
X0.9788
G3 Y0.9769 I0. J0.03
G1 X0.9276
X0.0664
G2 Y1.037 I0. J0.03
G1 X0.1343
X0.8597
G0 Z0.05
X0.7879 Y-0.1048
G1 Z-0.0366 F5.
X0.7592
X0.2348 F59.
X0.1364
G2 Y-0.0447 I0. J0.03
G1 X0.8576
X0.926
G3 Y0.0154 I0. J0.03
G1 X0.068
X0.0166
G2 Y0.0755 I0. J0.03
G1 X0.9774
X1.0168
G3 Y0.1356 I0. J0.03
G1 X-0.0228
X-0.0531
G2 Y0.1957 I0. J0.03
G1 X1.0471
X1.0695
G3 Y0.2558 I0. J0.03
G1 X-0.0755
X-0.0907
G2 Y0.3159 I0. J0.03
G1 X1.0847
X1.0938
G3 Y0.376 I0. J0.03
G1 X-0.0998
X-0.103
G2 Y0.4361 I0. J0.03
G1 X1.097
G3 Y0.4962 I0. J0.03
G1 X-0.103
G2 Y0.5562 I0. J0.03
G1 X1.097
G3 Y0.6163 I0. J0.03
G1 X1.094
X-0.1
G2 Y0.6764 I0. J0.03
G1 X-0.091
X1.085
G3 Y0.7365 I0. J0.03
G1 X1.07
X-0.076
G2 Y0.7966 I0. J0.03
G1 X-0.0539
X1.0479
G3 Y0.8567 I0. J0.03
G1 X1.0177
X-0.0237
G2 Y0.9168 I0. J0.03
G1 X0.0152
X0.9788
G3 Y0.9769 I0. J0.03
G1 X0.9276
X0.0664
G2 Y1.037 I0. J0.03
G1 X0.1343
X0.8597
G0 Z0.05
X0.7879 Y-0.1048
G1 Z-0.0386 F5.
X0.7592
X0.2348 F59.
X0.1364
G2 Y-0.0447 I0. J0.03
G1 X0.8576
X0.926
G3 Y0.0154 I0. J0.03
G1 X0.068
X0.0166
G2 Y0.0755 I0. J0.03
G1 X0.9774
X1.0168
G3 Y0.1356 I0. J0.03
G1 X-0.0228
X-0.0531
G2 Y0.1957 I0. J0.03
G1 X1.0471
X1.0695
G3 Y0.2558 I0. J0.03
G1 X-0.0755
X-0.0907
G2 Y0.3159 I0. J0.03
G1 X1.0847
X1.0938
G3 Y0.376 I0. J0.03
G1 X-0.0998
X-0.103
G2 Y0.4361 I0. J0.03
G1 X1.097
G3 Y0.4962 I0. J0.03
G1 X-0.103
G2 Y0.5562 I0. J0.03
G1 X1.097
G3 Y0.6163 I0. J0.03
G1 X1.094
X-0.1
G2 Y0.6764 I0. J0.03
G1 X-0.091
X1.085
G3 Y0.7365 I0. J0.03
G1 X1.07
X-0.076
G2 Y0.7966 I0. J0.03
G1 X-0.0539
X1.0479
G3 Y0.8567 I0. J0.03
G1 X1.0177
X-0.0237
G2 Y0.9168 I0. J0.03
G1 X0.0152
X0.9788
G3 Y0.9769 I0. J0.03
G1 X0.9276
X0.0664
G2 Y1.037 I0. J0.03
G1 X0.1343
X0.8597
G0 Z0.05
X0.7879 Y-0.1048
G1 Z-0.0406 F5.
X0.7592
X0.2348 F59.
X0.1364
G2 Y-0.0447 I0. J0.03
G1 X0.8576
X0.926
G3 Y0.0154 I0. J0.03
G1 X0.068
X0.0166
G2 Y0.0755 I0. J0.03
G1 X0.9774
X1.0168
G3 Y0.1356 I0. J0.03
G1 X-0.0228
X-0.0531
G2 Y0.1957 I0. J0.03
G1 X1.0471
X1.0695
G3 Y0.2558 I0. J0.03
G1 X-0.0755
X-0.0907
G2 Y0.3159 I0. J0.03
G1 X1.0847
X1.0938
G3 Y0.376 I0. J0.03
G1 X-0.0998
X-0.103
G2 Y0.4361 I0. J0.03
G1 X1.097
G3 Y0.4962 I0. J0.03
G1 X-0.103
G2 Y0.5562 I0. J0.03
G1 X1.097
G3 Y0.6163 I0. J0.03
G1 X1.094
X-0.1
G2 Y0.6764 I0. J0.03
G1 X-0.091
X1.085
G3 Y0.7365 I0. J0.03
G1 X1.07
X-0.076
G2 Y0.7966 I0. J0.03
G1 X-0.0539
X1.0479
G3 Y0.8567 I0. J0.03
G1 X1.0177
X-0.0237
G2 Y0.9168 I0. J0.03
G1 X0.0152
X0.9788
G3 Y0.9769 I0. J0.03
G1 X0.9276
X0.0664
G2 Y1.037 I0. J0.03
G1 X0.1343
X0.8597
G0 Z0.05
X0.7879 Y-0.1048
G1 Z-0.0426 F5.
X0.7592
X0.2348 F59.
X0.1364
G2 Y-0.0447 I0. J0.03
G1 X0.8576
X0.926
G3 Y0.0154 I0. J0.03
G1 X0.068
X0.0166
G2 Y0.0755 I0. J0.03
G1 X0.9774
X1.0168
G3 Y0.1356 I0. J0.03
G1 X-0.0228
X-0.0531
G2 Y0.1957 I0. J0.03
G1 X1.0471
X1.0695
G3 Y0.2558 I0. J0.03
G1 X-0.0755
X-0.0907
G2 Y0.3159 I0. J0.03
G1 X1.0847
X1.0938
G3 Y0.376 I0. J0.03
G1 X-0.0998
X-0.103
G2 Y0.4361 I0. J0.03
G1 X1.097
G3 Y0.4962 I0. J0.03
G1 X-0.103
G2 Y0.5562 I0. J0.03
G1 X1.097
G3 Y0.6163 I0. J0.03
G1 X1.094
X-0.1
G2 Y0.6764 I0. J0.03
G1 X-0.091
X1.085
G3 Y0.7365 I0. J0.03
G1 X1.07
X-0.076
G2 Y0.7966 I0. J0.03
G1 X-0.0539
X1.0479
G3 Y0.8567 I0. J0.03
G1 X1.0177
X-0.0237
G2 Y0.9168 I0. J0.03
G1 X0.0152
X0.9788
G3 Y0.9769 I0. J0.03
G1 X0.9276
X0.0664
G2 Y1.037 I0. J0.03
G1 X0.1343
X0.8597
G0 Z0.05
X0.7879 Y-0.1048
G1 Z-0.0446 F5.
X0.7592
X0.2348 F59.
X0.1364
G2 Y-0.0447 I0. J0.03
G1 X0.8576
X0.926
G3 Y0.0154 I0. J0.03
G1 X0.068
X0.0166
G2 Y0.0755 I0. J0.03
G1 X0.9774
X1.0168
G3 Y0.1356 I0. J0.03
G1 X-0.0228
X-0.0531
G2 Y0.1957 I0. J0.03
G1 X1.0471
X1.0695
G3 Y0.2558 I0. J0.03
G1 X-0.0755
X-0.0907
G2 Y0.3159 I0. J0.03
G1 X1.0847
X1.0938
G3 Y0.376 I0. J0.03
G1 X-0.0998
X-0.103
G2 Y0.4361 I0. J0.03
G1 X1.097
G3 Y0.4962 I0. J0.03
G1 X-0.103
G2 Y0.5562 I0. J0.03
G1 X1.097
G3 Y0.6163 I0. J0.03
G1 X1.094
X-0.1
G2 Y0.6764 I0. J0.03
G1 X-0.091
X1.085
G3 Y0.7365 I0. J0.03
G1 X1.07
X-0.076
G2 Y0.7966 I0. J0.03
G1 X-0.0539
X1.0479
G3 Y0.8567 I0. J0.03
G1 X1.0177
X-0.0237
G2 Y0.9168 I0. J0.03
G1 X0.0152
X0.9788
G3 Y0.9769 I0. J0.03
G1 X0.9276
X0.0664
G2 Y1.037 I0. J0.03
G1 X0.1343
X0.8597
G0 Z0.05
X0.7879 Y-0.1048
G1 Z-0.0466 F5.
X0.7592
X0.2348 F59.
X0.1364
G2 Y-0.0447 I0. J0.03
G1 X0.8576
X0.926
G3 Y0.0154 I0. J0.03
G1 X0.068
X0.0166
G2 Y0.0755 I0. J0.03
G1 X0.9774
X1.0168
G3 Y0.1356 I0. J0.03
G1 X-0.0228
X-0.0531
G2 Y0.1957 I0. J0.03
G1 X1.0471
X1.0695
G3 Y0.2558 I0. J0.03
G1 X-0.0755
X-0.0907
G2 Y0.3159 I0. J0.03
G1 X1.0847
X1.0938
G3 Y0.376 I0. J0.03
G1 X-0.0998
X-0.103
G2 Y0.4361 I0. J0.03
G1 X1.097
G3 Y0.4962 I0. J0.03
G1 X-0.103
G2 Y0.5562 I0. J0.03
G1 X1.097
G3 Y0.6163 I0. J0.03
G1 X1.094
X-0.1
G2 Y0.6764 I0. J0.03
G1 X-0.091
X1.085
G3 Y0.7365 I0. J0.03
G1 X1.07
X-0.076
G2 Y0.7966 I0. J0.03
G1 X-0.0539
X1.0479
G3 Y0.8567 I0. J0.03
G1 X1.0177
X-0.0237
G2 Y0.9168 I0. J0.03
G1 X0.0152
X0.9788
G3 Y0.9769 I0. J0.03
G1 X0.9276
X0.0664
G2 Y1.037 I0. J0.03
G1 X0.1343
X0.8597
G0 Z0.05
X0.7879 Y-0.1048
G1 Z-0.0486 F5.
X0.7592
X0.2348 F59.
X0.1364
G2 Y-0.0447 I0. J0.03
G1 X0.8576
X0.926
G3 Y0.0154 I0. J0.03
G1 X0.068
X0.0166
G2 Y0.0755 I0. J0.03
G1 X0.9774
X1.0168
G3 Y0.1356 I0. J0.03
G1 X-0.0228
X-0.0531
G2 Y0.1957 I0. J0.03
G1 X1.0471
X1.0695
G3 Y0.2558 I0. J0.03
G1 X-0.0755
X-0.0907
G2 Y0.3159 I0. J0.03
G1 X1.0847
X1.0938
G3 Y0.376 I0. J0.03
G1 X-0.0998
X-0.103
G2 Y0.4361 I0. J0.03
G1 X1.097
G3 Y0.4962 I0. J0.03
G1 X-0.103
G2 Y0.5562 I0. J0.03
G1 X1.097
G3 Y0.6163 I0. J0.03
G1 X1.094
X-0.1
G2 Y0.6764 I0. J0.03
G1 X-0.091
X1.085
G3 Y0.7365 I0. J0.03
G1 X1.07
X-0.076
G2 Y0.7966 I0. J0.03
G1 X-0.0539
X1.0479
G3 Y0.8567 I0. J0.03
G1 X1.0177
X-0.0237
G2 Y0.9168 I0. J0.03
G1 X0.0152
X0.9788
G3 Y0.9769 I0. J0.03
G1 X0.9276
X0.0664
G2 Y1.037 I0. J0.03
G1 X0.1343
X0.8597
G0 Z0.05
X0.7879 Y-0.1048
G1 Z-0.0506 F5.
X0.7592
X0.2348 F59.
X0.1364
G2 Y-0.0447 I0. J0.03
G1 X0.8576
X0.926
G3 Y0.0154 I0. J0.03
G1 X0.068
X0.0166
G2 Y0.0755 I0. J0.03
G1 X0.9774
X1.0168
G3 Y0.1356 I0. J0.03
G1 X-0.0228
X-0.0531
G2 Y0.1957 I0. J0.03
G1 X1.0471
X1.0695
G3 Y0.2558 I0. J0.03
G1 X-0.0755
X-0.0907
G2 Y0.3159 I0. J0.03
G1 X1.0847
X1.0938
G3 Y0.376 I0. J0.03
G1 X-0.0998
X-0.103
G2 Y0.4361 I0. J0.03
G1 X1.097
G3 Y0.4962 I0. J0.03
G1 X-0.103
G2 Y0.5562 I0. J0.03
G1 X1.097
G3 Y0.6163 I0. J0.03
G1 X1.094
X-0.1
G2 Y0.6764 I0. J0.03
G1 X-0.091
X1.085
G3 Y0.7365 I0. J0.03
G1 X1.07
X-0.076
G2 Y0.7966 I0. J0.03
G1 X-0.0539
X1.0479
G3 Y0.8567 I0. J0.03
G1 X1.0177
X-0.0237
G2 Y0.9168 I0. J0.03
G1 X0.0152
X0.9788
G3 Y0.9769 I0. J0.03
G1 X0.9276
X0.0664
G2 Y1.037 I0. J0.03
G1 X0.1343
X0.8597
G0 Z0.05
X0.7879 Y-0.1048
G1 Z-0.0526 F5.
X0.7592
X0.2348 F59.
X0.1364
G2 Y-0.0447 I0. J0.03
G1 X0.8576
X0.926
G3 Y0.0154 I0. J0.03
G1 X0.068
X0.0166
G2 Y0.0755 I0. J0.03
G1 X0.9774
X1.0168
G3 Y0.1356 I0. J0.03
G1 X-0.0228
X-0.0531
G2 Y0.1957 I0. J0.03
G1 X1.0471
X1.0695
G3 Y0.2558 I0. J0.03
G1 X-0.0755
X-0.0907
G2 Y0.3159 I0. J0.03
G1 X1.0847
X1.0938
G3 Y0.376 I0. J0.03
G1 X-0.0998
X-0.103
G2 Y0.4361 I0. J0.03
G1 X1.097
G3 Y0.4962 I0. J0.03
G1 X-0.103
G2 Y0.5562 I0. J0.03
G1 X1.097
G3 Y0.6163 I0. J0.03
G1 X1.094
X-0.1
G2 Y0.6764 I0. J0.03
G1 X-0.091
X1.085
G3 Y0.7365 I0. J0.03
G1 X1.07
X-0.076
G2 Y0.7966 I0. J0.03
G1 X-0.0539
X1.0479
G3 Y0.8567 I0. J0.03
G1 X1.0177
X-0.0237
G2 Y0.9168 I0. J0.03
G1 X0.0152
X0.9788
G3 Y0.9769 I0. J0.03
G1 X0.9276
X0.0664
G2 Y1.037 I0. J0.03
G1 X0.1343
X0.8597
G0 Z0.05
X0.7879 Y-0.1048
G1 Z-0.0546 F5.
X0.7592
X0.2348 F59.
X0.1364
G2 Y-0.0447 I0. J0.03
G1 X0.8576
X0.926
G3 Y0.0154 I0. J0.03
G1 X0.068
X0.0166
G2 Y0.0755 I0. J0.03
G1 X0.9774
X1.0168
G3 Y0.1356 I0. J0.03
G1 X-0.0228
X-0.0531
G2 Y0.1957 I0. J0.03
G1 X1.0471
X1.0695
G3 Y0.2558 I0. J0.03
G1 X-0.0755
X-0.0907
G2 Y0.3159 I0. J0.03
G1 X1.0847
X1.0938
G3 Y0.376 I0. J0.03
G1 X-0.0998
X-0.103
G2 Y0.4361 I0. J0.03
G1 X1.097
G3 Y0.4962 I0. J0.03
G1 X-0.103
G2 Y0.5562 I0. J0.03
G1 X1.097
G3 Y0.6163 I0. J0.03
G1 X1.094
X-0.1
G2 Y0.6764 I0. J0.03
G1 X-0.091
X1.085
G3 Y0.7365 I0. J0.03
G1 X1.07
X-0.076
G2 Y0.7966 I0. J0.03
G1 X-0.0539
X1.0479
G3 Y0.8567 I0. J0.03
G1 X1.0177
X-0.0237
G2 Y0.9168 I0. J0.03
G1 X0.0152
X0.9788
G3 Y0.9769 I0. J0.03
G1 X0.9276
X0.0664
G2 Y1.037 I0. J0.03
G1 X0.1343
X0.8597
G0 Z0.05
X0.7879 Y-0.1048
G1 Z-0.0566 F5.
X0.7592
X0.2348 F59.
X0.1364
G2 Y-0.0447 I0. J0.03
G1 X0.8576
X0.926
G3 Y0.0154 I0. J0.03
G1 X0.068
X0.0166
G2 Y0.0755 I0. J0.03
G1 X0.9774
X1.0168
G3 Y0.1356 I0. J0.03
G1 X-0.0228
X-0.0531
G2 Y0.1957 I0. J0.03
G1 X1.0471
X1.0695
G3 Y0.2558 I0. J0.03
G1 X-0.0755
X-0.0907
G2 Y0.3159 I0. J0.03
G1 X1.0847
X1.0938
G3 Y0.376 I0. J0.03
G1 X-0.0998
X-0.103
G2 Y0.4361 I0. J0.03
G1 X1.097
G3 Y0.4962 I0. J0.03
G1 X-0.103
G2 Y0.5562 I0. J0.03
G1 X1.097
G3 Y0.6163 I0. J0.03
G1 X1.094
X-0.1
G2 Y0.6764 I0. J0.03
G1 X-0.091
X1.085
G3 Y0.7365 I0. J0.03
G1 X1.07
X-0.076
G2 Y0.7966 I0. J0.03
G1 X-0.0539
X1.0479
G3 Y0.8567 I0. J0.03
G1 X1.0177
X-0.0237
G2 Y0.9168 I0. J0.03
G1 X0.0152
X0.9788
G3 Y0.9769 I0. J0.03
G1 X0.9276
X0.0664
G2 Y1.037 I0. J0.03
G1 X0.1343
X0.8597
G0 Z0.05
X0.7879 Y-0.1048
G1 Z-0.0586 F5.
X0.7592
X0.2348 F59.
X0.1364
G2 Y-0.0447 I0. J0.03
G1 X0.8576
X0.926
G3 Y0.0154 I0. J0.03
G1 X0.068
X0.0166
G2 Y0.0755 I0. J0.03
G1 X0.9774
X1.0168
G3 Y0.1356 I0. J0.03
G1 X-0.0228
X-0.0531
G2 Y0.1957 I0. J0.03
G1 X1.0471
X1.0695
G3 Y0.2558 I0. J0.03
G1 X-0.0755
X-0.0907
G2 Y0.3159 I0. J0.03
G1 X1.0847
X1.0938
G3 Y0.376 I0. J0.03
G1 X-0.0998
X-0.103
G2 Y0.4361 I0. J0.03
G1 X1.097
G3 Y0.4962 I0. J0.03
G1 X-0.103
G2 Y0.5562 I0. J0.03
G1 X1.097
G3 Y0.6163 I0. J0.03
G1 X1.094
X-0.1
G2 Y0.6764 I0. J0.03
G1 X-0.091
X1.085
G3 Y0.7365 I0. J0.03
G1 X1.07
X-0.076
G2 Y0.7966 I0. J0.03
G1 X-0.0539
X1.0479
G3 Y0.8567 I0. J0.03
G1 X1.0177
X-0.0237
G2 Y0.9168 I0. J0.03
G1 X0.0152
X0.9788
G3 Y0.9769 I0. J0.03
G1 X0.9276
X0.0664
G2 Y1.037 I0. J0.03
G1 X0.1343
X0.8597
G0 Z0.05
X0.7879 Y-0.1048
G1 Z-0.0606 F5.
X0.7592
X0.2348 F59.
X0.1364
G2 Y-0.0447 I0. J0.03
G1 X0.8576
X0.926
G3 Y0.0154 I0. J0.03
G1 X0.068
X0.0166
G2 Y0.0755 I0. J0.03
G1 X0.9774
X1.0168
G3 Y0.1356 I0. J0.03
G1 X-0.0228
X-0.0531
G2 Y0.1957 I0. J0.03
G1 X1.0471
X1.0695
G3 Y0.2558 I0. J0.03
G1 X-0.0755
X-0.0907
G2 Y0.3159 I0. J0.03
G1 X1.0847
X1.0938
G3 Y0.376 I0. J0.03
G1 X-0.0998
X-0.103
G2 Y0.4361 I0. J0.03
G1 X1.097
G3 Y0.4962 I0. J0.03
G1 X-0.103
G2 Y0.5562 I0. J0.03
G1 X1.097
G3 Y0.6163 I0. J0.03
G1 X1.094
X-0.1
G2 Y0.6764 I0. J0.03
G1 X-0.091
X1.085
G3 Y0.7365 I0. J0.03
G1 X1.07
X-0.076
G2 Y0.7966 I0. J0.03
G1 X-0.0539
X1.0479
G3 Y0.8567 I0. J0.03
G1 X1.0177
X-0.0237
G2 Y0.9168 I0. J0.03
G1 X0.0152
X0.9788
G3 Y0.9769 I0. J0.03
G1 X0.9276
X0.0664
G2 Y1.037 I0. J0.03
G1 X0.1343
X0.8597
G0 Z0.05
X0.7879 Y-0.1048
G1 Z-0.0626 F5.
X0.7592
X0.2348 F59.
X0.1364
G2 Y-0.0447 I0. J0.03
G1 X0.8576
X0.926
G3 Y0.0154 I0. J0.03
G1 X0.068
X0.0166
G2 Y0.0755 I0. J0.03
G1 X0.9774
X1.0168
G3 Y0.1356 I0. J0.03
G1 X-0.0228
X-0.0531
G2 Y0.1957 I0. J0.03
G1 X1.0471
X1.0695
G3 Y0.2558 I0. J0.03
G1 X-0.0755
X-0.0907
G2 Y0.3159 I0. J0.03
G1 X1.0847
X1.0938
G3 Y0.376 I0. J0.03
G1 X-0.0998
X-0.103
G2 Y0.4361 I0. J0.03
G1 X1.097
G3 Y0.4962 I0. J0.03
G1 X-0.103
G2 Y0.5562 I0. J0.03
G1 X1.097
G3 Y0.6163 I0. J0.03
G1 X1.094
X-0.1
G2 Y0.6764 I0. J0.03
G1 X-0.091
X1.085
G3 Y0.7365 I0. J0.03
G1 X1.07
X-0.076
G2 Y0.7966 I0. J0.03
G1 X-0.0539
X1.0479
G3 Y0.8567 I0. J0.03
G1 X1.0177
X-0.0237
G2 Y0.9168 I0. J0.03
G1 X0.0152
X0.9788
G3 Y0.9769 I0. J0.03
G1 X0.9276
X0.0664
G2 Y1.037 I0. J0.03
G1 X0.1343
X0.8597
G0 Z0.05
X0.7879 Y-0.1048
G1 Z-0.0646 F5.
X0.7592
X0.2348 F59.
X0.1364
G2 Y-0.0447 I0. J0.03
G1 X0.8576
X0.926
G3 Y0.0154 I0. J0.03
G1 X0.068
X0.0166
G2 Y0.0755 I0. J0.03
G1 X0.9774
X1.0168
G3 Y0.1356 I0. J0.03
G1 X-0.0228
X-0.0531
G2 Y0.1957 I0. J0.03
G1 X1.0471
X1.0695
G3 Y0.2558 I0. J0.03
G1 X-0.0755
X-0.0907
G2 Y0.3159 I0. J0.03
G1 X1.0847
X1.0938
G3 Y0.376 I0. J0.03
G1 X-0.0998
X-0.103
G2 Y0.4361 I0. J0.03
G1 X1.097
G3 Y0.4962 I0. J0.03
G1 X-0.103
G2 Y0.5562 I0. J0.03
G1 X1.097
G3 Y0.6163 I0. J0.03
G1 X1.094
X-0.1
G2 Y0.6764 I0. J0.03
G1 X-0.091
X1.085
G3 Y0.7365 I0. J0.03
G1 X1.07
X-0.076
G2 Y0.7966 I0. J0.03
G1 X-0.0539
X1.0479
G3 Y0.8567 I0. J0.03
G1 X1.0177
X-0.0237
G2 Y0.9168 I0. J0.03
G1 X0.0152
X0.9788
G3 Y0.9769 I0. J0.03
G1 X0.9276
X0.0664
G2 Y1.037 I0. J0.03
G1 X0.1343
X0.8597
G0 Z0.05
X0.7879 Y-0.1048
G1 Z-0.0666 F5.
X0.7592
X0.2348 F59.
X0.1364
G2 Y-0.0447 I0. J0.03
G1 X0.8576
X0.926
G3 Y0.0154 I0. J0.03
G1 X0.068
X0.0166
G2 Y0.0755 I0. J0.03
G1 X0.9774
X1.0168
G3 Y0.1356 I0. J0.03
G1 X-0.0228
X-0.0531
G2 Y0.1957 I0. J0.03
G1 X1.0471
X1.0695
G3 Y0.2558 I0. J0.03
G1 X-0.0755
X-0.0907
G2 Y0.3159 I0. J0.03
G1 X1.0847
X1.0938
G3 Y0.376 I0. J0.03
G1 X-0.0998
X-0.103
G2 Y0.4361 I0. J0.03
G1 X1.097
G3 Y0.4962 I0. J0.03
G1 X-0.103
G2 Y0.5562 I0. J0.03
G1 X1.097
G3 Y0.6163 I0. J0.03
G1 X1.094
X-0.1
G2 Y0.6764 I0. J0.03
G1 X-0.091
X1.085
G3 Y0.7365 I0. J0.03
G1 X1.07
X-0.076
G2 Y0.7966 I0. J0.03
G1 X-0.0539
X1.0479
G3 Y0.8567 I0. J0.03
G1 X1.0177
X-0.0237
G2 Y0.9168 I0. J0.03
G1 X0.0152
X0.9788
G3 Y0.9769 I0. J0.03
G1 X0.9276
X0.0664
G2 Y1.037 I0. J0.03
G1 X0.1343
X0.8597
G0 Z0.05
X0.7879 Y-0.1048
G1 Z-0.0686 F5.
X0.7592
X0.2348 F59.
X0.1364
G2 Y-0.0447 I0. J0.03
G1 X0.8576
X0.926
G3 Y0.0154 I0. J0.03
G1 X0.068
X0.0166
G2 Y0.0755 I0. J0.03
G1 X0.9774
X1.0168
G3 Y0.1356 I0. J0.03
G1 X-0.0228
X-0.0531
G2 Y0.1957 I0. J0.03
G1 X1.0471
X1.0695
G3 Y0.2558 I0. J0.03
G1 X-0.0755
X-0.0907
G2 Y0.3159 I0. J0.03
G1 X1.0847
X1.0938
G3 Y0.376 I0. J0.03
G1 X-0.0998
X-0.103
G2 Y0.4361 I0. J0.03
G1 X1.097
G3 Y0.4962 I0. J0.03
G1 X-0.103
G2 Y0.5562 I0. J0.03
G1 X1.097
G3 Y0.6163 I0. J0.03
G1 X1.094
X-0.1
G2 Y0.6764 I0. J0.03
G1 X-0.091
X1.085
G3 Y0.7365 I0. J0.03
G1 X1.07
X-0.076
G2 Y0.7966 I0. J0.03
G1 X-0.0539
X1.0479
G3 Y0.8567 I0. J0.03
G1 X1.0177
X-0.0237
G2 Y0.9168 I0. J0.03
G1 X0.0152
X0.9788
G3 Y0.9769 I0. J0.03
G1 X0.9276
X0.0664
G2 Y1.037 I0. J0.03
G1 X0.1343
X0.8597
G0 Z0.05
X0.7879 Y-0.1048
G1 Z-0.0706 F5.
X0.7592
X0.2348 F59.
X0.1364
G2 Y-0.0447 I0. J0.03
G1 X0.8576
X0.926
G3 Y0.0154 I0. J0.03
G1 X0.068
X0.0166
G2 Y0.0755 I0. J0.03
G1 X0.9774
X1.0168
G3 Y0.1356 I0. J0.03
G1 X-0.0228
X-0.0531
G2 Y0.1957 I0. J0.03
G1 X1.0471
X1.0695
G3 Y0.2558 I0. J0.03
G1 X-0.0755
X-0.0907
G2 Y0.3159 I0. J0.03
G1 X1.0847
X1.0938
G3 Y0.376 I0. J0.03
G1 X-0.0998
X-0.103
G2 Y0.4361 I0. J0.03
G1 X1.097
G3 Y0.4962 I0. J0.03
G1 X-0.103
G2 Y0.5562 I0. J0.03
G1 X1.097
G3 Y0.6163 I0. J0.03
G1 X1.094
X-0.1
G2 Y0.6764 I0. J0.03
G1 X-0.091
X1.085
G3 Y0.7365 I0. J0.03
G1 X1.07
X-0.076
G2 Y0.7966 I0. J0.03
G1 X-0.0539
X1.0479
G3 Y0.8567 I0. J0.03
G1 X1.0177
X-0.0237
G2 Y0.9168 I0. J0.03
G1 X0.0152
X0.9788
G3 Y0.9769 I0. J0.03
G1 X0.9276
X0.0664
G2 Y1.037 I0. J0.03
G1 X0.1343
X0.8597
G0 Z0.05
X0.7879 Y-0.1048
G1 Z-0.0726 F5.
X0.7592
X0.2348 F59.
X0.1364
G2 Y-0.0447 I0. J0.03
G1 X0.8576
X0.926
G3 Y0.0154 I0. J0.03
G1 X0.068
X0.0166
G2 Y0.0755 I0. J0.03
G1 X0.9774
X1.0168
G3 Y0.1356 I0. J0.03
G1 X-0.0228
X-0.0531
G2 Y0.1957 I0. J0.03
G1 X1.0471
X1.0695
G3 Y0.2558 I0. J0.03
G1 X-0.0755
X-0.0907
G2 Y0.3159 I0. J0.03
G1 X1.0847
X1.0938
G3 Y0.376 I0. J0.03
G1 X-0.0998
X-0.103
G2 Y0.4361 I0. J0.03
G1 X1.097
G3 Y0.4962 I0. J0.03
G1 X-0.103
G2 Y0.5562 I0. J0.03
G1 X1.097
G3 Y0.6163 I0. J0.03
G1 X1.094
X-0.1
G2 Y0.6764 I0. J0.03
G1 X-0.091
X1.085
G3 Y0.7365 I0. J0.03
G1 X1.07
X-0.076
G2 Y0.7966 I0. J0.03
G1 X-0.0539
X1.0479
G3 Y0.8567 I0. J0.03
G1 X1.0177
X-0.0237
G2 Y0.9168 I0. J0.03
G1 X0.0152
X0.9788
G3 Y0.9769 I0. J0.03
G1 X0.9276
X0.0664
G2 Y1.037 I0. J0.03
G1 X0.1343
X0.8597
G0 Z0.05
X0.7879 Y-0.1048
G1 Z-0.0746 F5.
X0.7592
X0.2348 F59.
X0.1364
G2 Y-0.0447 I0. J0.03
G1 X0.8576
X0.926
G3 Y0.0154 I0. J0.03
G1 X0.068
X0.0166
G2 Y0.0755 I0. J0.03
G1 X0.9774
X1.0168
G3 Y0.1356 I0. J0.03
G1 X-0.0228
X-0.0531
G2 Y0.1957 I0. J0.03
G1 X1.0471
X1.0695
G3 Y0.2558 I0. J0.03
G1 X-0.0755
X-0.0907
G2 Y0.3159 I0. J0.03
G1 X1.0847
X1.0938
G3 Y0.376 I0. J0.03
G1 X-0.0998
X-0.103
G2 Y0.4361 I0. J0.03
G1 X1.097
G3 Y0.4962 I0. J0.03
G1 X-0.103
G2 Y0.5562 I0. J0.03
G1 X1.097
G3 Y0.6163 I0. J0.03
G1 X1.094
X-0.1
G2 Y0.6764 I0. J0.03
G1 X-0.091
X1.085
G3 Y0.7365 I0. J0.03
G1 X1.07
X-0.076
G2 Y0.7966 I0. J0.03
G1 X-0.0539
X1.0479
G3 Y0.8567 I0. J0.03
G1 X1.0177
X-0.0237
G2 Y0.9168 I0. J0.03
G1 X0.0152
X0.9788
G3 Y0.9769 I0. J0.03
G1 X0.9276
X0.0664
G2 Y1.037 I0. J0.03
G1 X0.1343
X0.8597
G0 Z0.05
X0.7879 Y-0.1048
G1 Z-0.0766 F5.
X0.7592
X0.2348 F59.
X0.1364
G2 Y-0.0447 I0. J0.03
G1 X0.8576
X0.926
G3 Y0.0154 I0. J0.03
G1 X0.068
X0.0166
G2 Y0.0755 I0. J0.03
G1 X0.9774
X1.0168
G3 Y0.1356 I0. J0.03
G1 X-0.0228
X-0.0531
G2 Y0.1957 I0. J0.03
G1 X1.0471
X1.0695
G3 Y0.2558 I0. J0.03
G1 X-0.0755
X-0.0907
G2 Y0.3159 I0. J0.03
G1 X1.0847
X1.0938
G3 Y0.376 I0. J0.03
G1 X-0.0998
X-0.103
G2 Y0.4361 I0. J0.03
G1 X1.097
G3 Y0.4962 I0. J0.03
G1 X-0.103
G2 Y0.5562 I0. J0.03
G1 X1.097
G3 Y0.6163 I0. J0.03
G1 X1.094
X-0.1
G2 Y0.6764 I0. J0.03
G1 X-0.091
X1.085
G3 Y0.7365 I0. J0.03
G1 X1.07
X-0.076
G2 Y0.7966 I0. J0.03
G1 X-0.0539
X1.0479
G3 Y0.8567 I0. J0.03
G1 X1.0177
X-0.0237
G2 Y0.9168 I0. J0.03
G1 X0.0152
X0.9788
G3 Y0.9769 I0. J0.03
G1 X0.9276
X0.0664
G2 Y1.037 I0. J0.03
G1 X0.1343
X0.8597
G0 Z0.05
X0.7879 Y-0.1048
G1 Z-0.0786 F5.
X0.7592
X0.2348 F59.
X0.1364
G2 Y-0.0447 I0. J0.03
G1 X0.8576
X0.926
G3 Y0.0154 I0. J0.03
G1 X0.068
X0.0166
G2 Y0.0755 I0. J0.03
G1 X0.9774
X1.0168
G3 Y0.1356 I0. J0.03
G1 X-0.0228
X-0.0531
G2 Y0.1957 I0. J0.03
G1 X1.0471
X1.0695
G3 Y0.2558 I0. J0.03
G1 X-0.0755
X-0.0907
G2 Y0.3159 I0. J0.03
G1 X1.0847
X1.0938
G3 Y0.376 I0. J0.03
G1 X-0.0998
X-0.103
G2 Y0.4361 I0. J0.03
G1 X1.097
G3 Y0.4962 I0. J0.03
G1 X-0.103
G2 Y0.5562 I0. J0.03
G1 X1.097
G3 Y0.6163 I0. J0.03
G1 X1.094
X-0.1
G2 Y0.6764 I0. J0.03
G1 X-0.091
X1.085
G3 Y0.7365 I0. J0.03
G1 X1.07
X-0.076
G2 Y0.7966 I0. J0.03
G1 X-0.0539
X1.0479
G3 Y0.8567 I0. J0.03
G1 X1.0177
X-0.0237
G2 Y0.9168 I0. J0.03
G1 X0.0152
X0.9788
G3 Y0.9769 I0. J0.03
G1 X0.9276
X0.0664
G2 Y1.037 I0. J0.03
G1 X0.1343
X0.8597
G0 Z0.05
X0.7879 Y-0.1048
G1 Z-0.0806 F5.
X0.7592
X0.2348 F59.
X0.1364
G2 Y-0.0447 I0. J0.03
G1 X0.8576
X0.926
G3 Y0.0154 I0. J0.03
G1 X0.068
X0.0166
G2 Y0.0755 I0. J0.03
G1 X0.9774
X1.0168
G3 Y0.1356 I0. J0.03
G1 X-0.0228
X-0.0531
G2 Y0.1957 I0. J0.03
G1 X1.0471
X1.0695
G3 Y0.2558 I0. J0.03
G1 X-0.0755
X-0.0907
G2 Y0.3159 I0. J0.03
G1 X1.0847
X1.0938
G3 Y0.376 I0. J0.03
G1 X-0.0998
X-0.103
G2 Y0.4361 I0. J0.03
G1 X1.097
G3 Y0.4962 I0. J0.03
G1 X-0.103
G2 Y0.5562 I0. J0.03
G1 X1.097
G3 Y0.6163 I0. J0.03
G1 X1.094
X-0.1
G2 Y0.6764 I0. J0.03
G1 X-0.091
X1.085
G3 Y0.7365 I0. J0.03
G1 X1.07
X-0.076
G2 Y0.7966 I0. J0.03
G1 X-0.0539
X1.0479
G3 Y0.8567 I0. J0.03
G1 X1.0177
X-0.0237
G2 Y0.9168 I0. J0.03
G1 X0.0152
X0.9788
G3 Y0.9769 I0. J0.03
G1 X0.9276
X0.0664
G2 Y1.037 I0. J0.03
G1 X0.1343
X0.8597
G0 Z0.05
X0.7879 Y-0.1048
G1 Z-0.0826 F5.
X0.7592
X0.2348 F59.
X0.1364
G2 Y-0.0447 I0. J0.03
G1 X0.8576
X0.926
G3 Y0.0154 I0. J0.03
G1 X0.068
X0.0166
G2 Y0.0755 I0. J0.03
G1 X0.9774
X1.0168
G3 Y0.1356 I0. J0.03
G1 X-0.0228
X-0.0531
G2 Y0.1957 I0. J0.03
G1 X1.0471
X1.0695
G3 Y0.2558 I0. J0.03
G1 X-0.0755
X-0.0907
G2 Y0.3159 I0. J0.03
G1 X1.0847
X1.0938
G3 Y0.376 I0. J0.03
G1 X-0.0998
X-0.103
G2 Y0.4361 I0. J0.03
G1 X1.097
G3 Y0.4962 I0. J0.03
G1 X-0.103
G2 Y0.5562 I0. J0.03
G1 X1.097
G3 Y0.6163 I0. J0.03
G1 X1.094
X-0.1
G2 Y0.6764 I0. J0.03
G1 X-0.091
X1.085
G3 Y0.7365 I0. J0.03
G1 X1.07
X-0.076
G2 Y0.7966 I0. J0.03
G1 X-0.0539
X1.0479
G3 Y0.8567 I0. J0.03
G1 X1.0177
X-0.0237
G2 Y0.9168 I0. J0.03
G1 X0.0152
X0.9788
G3 Y0.9769 I0. J0.03
G1 X0.9276
X0.0664
G2 Y1.037 I0. J0.03
G1 X0.1343
X0.8597
G0 Z0.05
X0.7879 Y-0.1048
G1 Z-0.0846 F5.
X0.7592
X0.2348 F59.
X0.1364
G2 Y-0.0447 I0. J0.03
G1 X0.8576
X0.926
G3 Y0.0154 I0. J0.03
G1 X0.068
X0.0166
G2 Y0.0755 I0. J0.03
G1 X0.9774
X1.0168
G3 Y0.1356 I0. J0.03
G1 X-0.0228
X-0.0531
G2 Y0.1957 I0. J0.03
G1 X1.0471
X1.0695
G3 Y0.2558 I0. J0.03
G1 X-0.0755
X-0.0907
G2 Y0.3159 I0. J0.03
G1 X1.0847
X1.0938
G3 Y0.376 I0. J0.03
G1 X-0.0998
X-0.103
G2 Y0.4361 I0. J0.03
G1 X1.097
G3 Y0.4962 I0. J0.03
G1 X-0.103
G2 Y0.5562 I0. J0.03
G1 X1.097
G3 Y0.6163 I0. J0.03
G1 X1.094
X-0.1
G2 Y0.6764 I0. J0.03
G1 X-0.091
X1.085
G3 Y0.7365 I0. J0.03
G1 X1.07
X-0.076
G2 Y0.7966 I0. J0.03
G1 X-0.0539
X1.0479
G3 Y0.8567 I0. J0.03
G1 X1.0177
X-0.0237
G2 Y0.9168 I0. J0.03
G1 X0.0152
X0.9788
G3 Y0.9769 I0. J0.03
G1 X0.9276
X0.0664
G2 Y1.037 I0. J0.03
G1 X0.1343
X0.8597
G0 Z0.05
X0.7879 Y-0.1048
G1 Z-0.0866 F5.
X0.7592
X0.2348 F59.
X0.1364
G2 Y-0.0447 I0. J0.03
G1 X0.8576
X0.926
G3 Y0.0154 I0. J0.03
G1 X0.068
X0.0166
G2 Y0.0755 I0. J0.03
G1 X0.9774
X1.0168
G3 Y0.1356 I0. J0.03
G1 X-0.0228
X-0.0531
G2 Y0.1957 I0. J0.03
G1 X1.0471
X1.0695
G3 Y0.2558 I0. J0.03
G1 X-0.0755
X-0.0907
G2 Y0.3159 I0. J0.03
G1 X1.0847
X1.0938
G3 Y0.376 I0. J0.03
G1 X-0.0998
X-0.103
G2 Y0.4361 I0. J0.03
G1 X1.097
G3 Y0.4962 I0. J0.03
G1 X-0.103
G2 Y0.5562 I0. J0.03
G1 X1.097
G3 Y0.6163 I0. J0.03
G1 X1.094
X-0.1
G2 Y0.6764 I0. J0.03
G1 X-0.091
X1.085
G3 Y0.7365 I0. J0.03
G1 X1.07
X-0.076
G2 Y0.7966 I0. J0.03
G1 X-0.0539
X1.0479
G3 Y0.8567 I0. J0.03
G1 X1.0177
X-0.0237
G2 Y0.9168 I0. J0.03
G1 X0.0152
X0.9788
G3 Y0.9769 I0. J0.03
G1 X0.9276
X0.0664
G2 Y1.037 I0. J0.03
G1 X0.1343
X0.8597
G0 Z0.05
X0.7879 Y-0.1048
G1 Z-0.0886 F5.
X0.7592
X0.2348 F59.
X0.1364
G2 Y-0.0447 I0. J0.03
G1 X0.8576
X0.926
G3 Y0.0154 I0. J0.03
G1 X0.068
X0.0166
G2 Y0.0755 I0. J0.03
G1 X0.9774
X1.0168
G3 Y0.1356 I0. J0.03
G1 X-0.0228
X-0.0531
G2 Y0.1957 I0. J0.03
G1 X1.0471
X1.0695
G3 Y0.2558 I0. J0.03
G1 X-0.0755
X-0.0907
G2 Y0.3159 I0. J0.03
G1 X1.0847
X1.0938
G3 Y0.376 I0. J0.03
G1 X-0.0998
X-0.103
G2 Y0.4361 I0. J0.03
G1 X1.097
G3 Y0.4962 I0. J0.03
G1 X-0.103
G2 Y0.5562 I0. J0.03
G1 X1.097
G3 Y0.6163 I0. J0.03
G1 X1.094
X-0.1
G2 Y0.6764 I0. J0.03
G1 X-0.091
X1.085
G3 Y0.7365 I0. J0.03
G1 X1.07
X-0.076
G2 Y0.7966 I0. J0.03
G1 X-0.0539
X1.0479
G3 Y0.8567 I0. J0.03
G1 X1.0177
X-0.0237
G2 Y0.9168 I0. J0.03
G1 X0.0152
X0.9788
G3 Y0.9769 I0. J0.03
G1 X0.9276
X0.0664
G2 Y1.037 I0. J0.03
G1 X0.1343
X0.8597
G0 Z0.05
X0.7879 Y-0.1048
G1 Z-0.0906 F5.
X0.7592
X0.2348 F59.
X0.1364
G2 Y-0.0447 I0. J0.03
G1 X0.8576
X0.926
G3 Y0.0154 I0. J0.03
G1 X0.068
X0.0166
G2 Y0.0755 I0. J0.03
G1 X0.9774
X1.0168
G3 Y0.1356 I0. J0.03
G1 X-0.0228
X-0.0531
G2 Y0.1957 I0. J0.03
G1 X1.0471
X1.0695
G3 Y0.2558 I0. J0.03
G1 X-0.0755
X-0.0907
G2 Y0.3159 I0. J0.03
G1 X1.0847
X1.0938
G3 Y0.376 I0. J0.03
G1 X-0.0998
X-0.103
G2 Y0.4361 I0. J0.03
G1 X1.097
G3 Y0.4962 I0. J0.03
G1 X-0.103
G2 Y0.5562 I0. J0.03
G1 X1.097
G3 Y0.6163 I0. J0.03
G1 X1.094
X-0.1
G2 Y0.6764 I0. J0.03
G1 X-0.091
X1.085
G3 Y0.7365 I0. J0.03
G1 X1.07
X-0.076
G2 Y0.7966 I0. J0.03
G1 X-0.0539
X1.0479
G3 Y0.8567 I0. J0.03
G1 X1.0177
X-0.0237
G2 Y0.9168 I0. J0.03
G1 X0.0152
X0.9788
G3 Y0.9769 I0. J0.03
G1 X0.9276
X0.0664
G2 Y1.037 I0. J0.03
G1 X0.1343
X0.8597
G0 Z0.05
X0.7879 Y-0.1048
G1 Z-0.0926 F5.
X0.7592
X0.2348 F59.
X0.1364
G2 Y-0.0447 I0. J0.03
G1 X0.8576
X0.926
G3 Y0.0154 I0. J0.03
G1 X0.068
X0.0166
G2 Y0.0755 I0. J0.03
G1 X0.9774
X1.0168
G3 Y0.1356 I0. J0.03
G1 X-0.0228
X-0.0531
G2 Y0.1957 I0. J0.03
G1 X1.0471
X1.0695
G3 Y0.2558 I0. J0.03
G1 X-0.0755
X-0.0907
G2 Y0.3159 I0. J0.03
G1 X1.0847
X1.0938
G3 Y0.376 I0. J0.03
G1 X-0.0998
X-0.103
G2 Y0.4361 I0. J0.03
G1 X1.097
G3 Y0.4962 I0. J0.03
G1 X-0.103
G2 Y0.5562 I0. J0.03
G1 X1.097
G3 Y0.6163 I0. J0.03
G1 X1.094
X-0.1
G2 Y0.6764 I0. J0.03
G1 X-0.091
X1.085
G3 Y0.7365 I0. J0.03
G1 X1.07
X-0.076
G2 Y0.7966 I0. J0.03
G1 X-0.0539
X1.0479
G3 Y0.8567 I0. J0.03
G1 X1.0177
X-0.0237
G2 Y0.9168 I0. J0.03
G1 X0.0152
X0.9788
G3 Y0.9769 I0. J0.03
G1 X0.9276
X0.0664
G2 Y1.037 I0. J0.03
G1 X0.1343
X0.8597
G0 Z0.05
X0.7879 Y-0.1048
G1 Z-0.0946 F5.
X0.7592
X0.2348 F59.
X0.1364
G2 Y-0.0447 I0. J0.03
G1 X0.8576
X0.926
G3 Y0.0154 I0. J0.03
G1 X0.068
X0.0166
G2 Y0.0755 I0. J0.03
G1 X0.9774
X1.0168
G3 Y0.1356 I0. J0.03
G1 X-0.0228
X-0.0531
G2 Y0.1957 I0. J0.03
G1 X1.0471
X1.0695
G3 Y0.2558 I0. J0.03
G1 X-0.0755
X-0.0907
G2 Y0.3159 I0. J0.03
G1 X1.0847
X1.0938
G3 Y0.376 I0. J0.03
G1 X-0.0998
X-0.103
G2 Y0.4361 I0. J0.03
G1 X1.097
G3 Y0.4962 I0. J0.03
G1 X-0.103
G2 Y0.5562 I0. J0.03
G1 X1.097
G3 Y0.6163 I0. J0.03
G1 X1.094
X-0.1
G2 Y0.6764 I0. J0.03
G1 X-0.091
X1.085
G3 Y0.7365 I0. J0.03
G1 X1.07
X-0.076
G2 Y0.7966 I0. J0.03
G1 X-0.0539
X1.0479
G3 Y0.8567 I0. J0.03
G1 X1.0177
X-0.0237
G2 Y0.9168 I0. J0.03
G1 X0.0152
X0.9788
G3 Y0.9769 I0. J0.03
G1 X0.9276
X0.0664
G2 Y1.037 I0. J0.03
G1 X0.1343
X0.8597
G0 Z0.05
X0.7879 Y-0.1048
G1 Z-0.0966 F5.
X0.7592
X0.2348 F59.
X0.1364
G2 Y-0.0447 I0. J0.03
G1 X0.8576
X0.926
G3 Y0.0154 I0. J0.03
G1 X0.068
X0.0166
G2 Y0.0755 I0. J0.03
G1 X0.9774
X1.0168
G3 Y0.1356 I0. J0.03
G1 X-0.0228
X-0.0531
G2 Y0.1957 I0. J0.03
G1 X1.0471
X1.0695
G3 Y0.2558 I0. J0.03
G1 X-0.0755
X-0.0907
G2 Y0.3159 I0. J0.03
G1 X1.0847
X1.0938
G3 Y0.376 I0. J0.03
G1 X-0.0998
X-0.103
G2 Y0.4361 I0. J0.03
G1 X1.097
G3 Y0.4962 I0. J0.03
G1 X-0.103
G2 Y0.5562 I0. J0.03
G1 X1.097
G3 Y0.6163 I0. J0.03
G1 X1.094
X-0.1
G2 Y0.6764 I0. J0.03
G1 X-0.091
X1.085
G3 Y0.7365 I0. J0.03
G1 X1.07
X-0.076
G2 Y0.7966 I0. J0.03
G1 X-0.0539
X1.0479
G3 Y0.8567 I0. J0.03
G1 X1.0177
X-0.0237
G2 Y0.9168 I0. J0.03
G1 X0.0152
X0.9788
G3 Y0.9769 I0. J0.03
G1 X0.9276
X0.0664
G2 Y1.037 I0. J0.03
G1 X0.1343
X0.8597
G0 Z0.05
X0.7879 Y-0.1048
G1 Z-0.0986 F5.
X0.7592
X0.2348 F59.
X0.1364
G2 Y-0.0447 I0. J0.03
G1 X0.8576
X0.926
G3 Y0.0154 I0. J0.03
G1 X0.068
X0.0166
G2 Y0.0755 I0. J0.03
G1 X0.9774
X1.0168
G3 Y0.1356 I0. J0.03
G1 X-0.0228
X-0.0531
G2 Y0.1957 I0. J0.03
G1 X1.0471
X1.0695
G3 Y0.2558 I0. J0.03
G1 X-0.0755
X-0.0907
G2 Y0.3159 I0. J0.03
G1 X1.0847
X1.0938
G3 Y0.376 I0. J0.03
G1 X-0.0998
X-0.103
G2 Y0.4361 I0. J0.03
G1 X1.097
G3 Y0.4962 I0. J0.03
G1 X-0.103
G2 Y0.5562 I0. J0.03
G1 X1.097
G3 Y0.6163 I0. J0.03
G1 X1.094
X-0.1
G2 Y0.6764 I0. J0.03
G1 X-0.091
X1.085
G3 Y0.7365 I0. J0.03
G1 X1.07
X-0.076
G2 Y0.7966 I0. J0.03
G1 X-0.0539
X1.0479
G3 Y0.8567 I0. J0.03
G1 X1.0177
X-0.0237
G2 Y0.9168 I0. J0.03
G1 X0.0152
X0.9788
G3 Y0.9769 I0. J0.03
G1 X0.9276
X0.0664
G2 Y1.037 I0. J0.03
G1 X0.1343
X0.8597
G0 Z0.05
X0.7879 Y-0.1048
G1 Z-0.1006 F5.
X0.7592
X0.2348 F59.
X0.1364
G2 Y-0.0447 I0. J0.03
G1 X0.8576
X0.926
G3 Y0.0154 I0. J0.03
G1 X0.068
X0.0166
G2 Y0.0755 I0. J0.03
G1 X0.9774
X1.0168
G3 Y0.1356 I0. J0.03
G1 X-0.0228
X-0.0531
G2 Y0.1957 I0. J0.03
G1 X1.0471
X1.0695
G3 Y0.2558 I0. J0.03
G1 X-0.0755
X-0.0907
G2 Y0.3159 I0. J0.03
G1 X1.0847
X1.0938
G3 Y0.376 I0. J0.03
G1 X-0.0998
X-0.103
G2 Y0.4361 I0. J0.03
G1 X1.097
G3 Y0.4962 I0. J0.03
G1 X-0.103
G2 Y0.5562 I0. J0.03
G1 X1.097
G3 Y0.6163 I0. J0.03
G1 X1.094
X-0.1
G2 Y0.6764 I0. J0.03
G1 X-0.091
X1.085
G3 Y0.7365 I0. J0.03
G1 X1.07
X-0.076
G2 Y0.7966 I0. J0.03
G1 X-0.0539
X1.0479
G3 Y0.8567 I0. J0.03
G1 X1.0177
X-0.0237
G2 Y0.9168 I0. J0.03
G1 X0.0152
X0.9788
G3 Y0.9769 I0. J0.03
G1 X0.9276
X0.0664
G2 Y1.037 I0. J0.03
G1 X0.1343
X0.8597
G0 Z0.05
X0.7879 Y-0.1048
G1 Z-0.1026 F5.
X0.7592
X0.2348 F59.
X0.1364
G2 Y-0.0447 I0. J0.03
G1 X0.8576
X0.926
G3 Y0.0154 I0. J0.03
G1 X0.068
X0.0166
G2 Y0.0755 I0. J0.03
G1 X0.9774
X1.0168
G3 Y0.1356 I0. J0.03
G1 X-0.0228
X-0.0531
G2 Y0.1957 I0. J0.03
G1 X1.0471
X1.0695
G3 Y0.2558 I0. J0.03
G1 X-0.0755
X-0.0907
G2 Y0.3159 I0. J0.03
G1 X1.0847
X1.0938
G3 Y0.376 I0. J0.03
G1 X-0.0998
X-0.103
G2 Y0.4361 I0. J0.03
G1 X1.097
G3 Y0.4962 I0. J0.03
G1 X-0.103
G2 Y0.5562 I0. J0.03
G1 X1.097
G3 Y0.6163 I0. J0.03
G1 X1.094
X-0.1
G2 Y0.6764 I0. J0.03
G1 X-0.091
X1.085
G3 Y0.7365 I0. J0.03
G1 X1.07
X-0.076
G2 Y0.7966 I0. J0.03
G1 X-0.0539
X1.0479
G3 Y0.8567 I0. J0.03
G1 X1.0177
X-0.0237
G2 Y0.9168 I0. J0.03
G1 X0.0152
X0.9788
G3 Y0.9769 I0. J0.03
G1 X0.9276
X0.0664
G2 Y1.037 I0. J0.03
G1 X0.1343
X0.8597
G0 Z0.05
X0.7879 Y-0.1048
G1 Z-0.1046 F5.
X0.7592
X0.2348 F59.
X0.1364
G2 Y-0.0447 I0. J0.03
G1 X0.8576
X0.926
G3 Y0.0154 I0. J0.03
G1 X0.068
X0.0166
G2 Y0.0755 I0. J0.03
G1 X0.9774
X1.0168
G3 Y0.1356 I0. J0.03
G1 X-0.0228
X-0.0531
G2 Y0.1957 I0. J0.03
G1 X1.0471
X1.0695
G3 Y0.2558 I0. J0.03
G1 X-0.0755
X-0.0907
G2 Y0.3159 I0. J0.03
G1 X1.0847
X1.0938
G3 Y0.376 I0. J0.03
G1 X-0.0998
X-0.103
G2 Y0.4361 I0. J0.03
G1 X1.097
G3 Y0.4962 I0. J0.03
G1 X-0.103
G2 Y0.5562 I0. J0.03
G1 X1.097
G3 Y0.6163 I0. J0.03
G1 X1.094
X-0.1
G2 Y0.6764 I0. J0.03
G1 X-0.091
X1.085
G3 Y0.7365 I0. J0.03
G1 X1.07
X-0.076
G2 Y0.7966 I0. J0.03
G1 X-0.0539
X1.0479
G3 Y0.8567 I0. J0.03
G1 X1.0177
X-0.0237
G2 Y0.9168 I0. J0.03
G1 X0.0152
X0.9788
G3 Y0.9769 I0. J0.03
G1 X0.9276
X0.0664
G2 Y1.037 I0. J0.03
G1 X0.1343
X0.8597
G0 Z0.05
X0.7879 Y-0.1048
G1 Z-0.1066 F5.
X0.7592
X0.2348 F59.
X0.1364
G2 Y-0.0447 I0. J0.03
G1 X0.8576
X0.926
G3 Y0.0154 I0. J0.03
G1 X0.068
X0.0166
G2 Y0.0755 I0. J0.03
G1 X0.9774
X1.0168
G3 Y0.1356 I0. J0.03
G1 X-0.0228
X-0.0531
G2 Y0.1957 I0. J0.03
G1 X1.0471
X1.0695
G3 Y0.2558 I0. J0.03
G1 X-0.0755
X-0.0907
G2 Y0.3159 I0. J0.03
G1 X1.0847
X1.0938
G3 Y0.376 I0. J0.03
G1 X-0.0998
X-0.103
G2 Y0.4361 I0. J0.03
G1 X1.097
G3 Y0.4962 I0. J0.03
G1 X-0.103
G2 Y0.5562 I0. J0.03
G1 X1.097
G3 Y0.6163 I0. J0.03
G1 X1.094
X-0.1
G2 Y0.6764 I0. J0.03
G1 X-0.091
X1.085
G3 Y0.7365 I0. J0.03
G1 X1.07
X-0.076
G2 Y0.7966 I0. J0.03
G1 X-0.0539
X1.0479
G3 Y0.8567 I0. J0.03
G1 X1.0177
X-0.0237
G2 Y0.9168 I0. J0.03
G1 X0.0152
X0.9788
G3 Y0.9769 I0. J0.03
G1 X0.9276
X0.0664
G2 Y1.037 I0. J0.03
G1 X0.1343
X0.8597
G0 Z0.05
X0.7879 Y-0.1048
G1 Z-0.1086 F5.
X0.7592
X0.2348 F59.
X0.1364
G2 Y-0.0447 I0. J0.03
G1 X0.8576
X0.926
G3 Y0.0154 I0. J0.03
G1 X0.068
X0.0166
G2 Y0.0755 I0. J0.03
G1 X0.9774
X1.0168
G3 Y0.1356 I0. J0.03
G1 X-0.0228
X-0.0531
G2 Y0.1957 I0. J0.03
G1 X1.0471
X1.0695
G3 Y0.2558 I0. J0.03
G1 X-0.0755
X-0.0907
G2 Y0.3159 I0. J0.03
G1 X1.0847
X1.0938
G3 Y0.376 I0. J0.03
G1 X-0.0998
X-0.103
G2 Y0.4361 I0. J0.03
G1 X1.097
G3 Y0.4962 I0. J0.03
G1 X-0.103
G2 Y0.5562 I0. J0.03
G1 X1.097
G3 Y0.6163 I0. J0.03
G1 X1.094
X-0.1
G2 Y0.6764 I0. J0.03
G1 X-0.091
X1.085
G3 Y0.7365 I0. J0.03
G1 X1.07
X-0.076
G2 Y0.7966 I0. J0.03
G1 X-0.0539
X1.0479
G3 Y0.8567 I0. J0.03
G1 X1.0177
X-0.0237
G2 Y0.9168 I0. J0.03
G1 X0.0152
X0.9788
G3 Y0.9769 I0. J0.03
G1 X0.9276
X0.0664
G2 Y1.037 I0. J0.03
G1 X0.1343
X0.8597
G0 Z0.05
X0.7879 Y-0.1048
G1 Z-0.1106 F5.
X0.7592
X0.2348 F59.
X0.1364
G2 Y-0.0447 I0. J0.03
G1 X0.8576
X0.926
G3 Y0.0154 I0. J0.03
G1 X0.068
X0.0166
G2 Y0.0755 I0. J0.03
G1 X0.9774
X1.0168
G3 Y0.1356 I0. J0.03
G1 X-0.0228
X-0.0531
G2 Y0.1957 I0. J0.03
G1 X1.0471
X1.0695
G3 Y0.2558 I0. J0.03
G1 X-0.0755
X-0.0907
G2 Y0.3159 I0. J0.03
G1 X1.0847
X1.0938
G3 Y0.376 I0. J0.03
G1 X-0.0998
X-0.103
G2 Y0.4361 I0. J0.03
G1 X1.097
G3 Y0.4962 I0. J0.03
G1 X-0.103
G2 Y0.5562 I0. J0.03
G1 X1.097
G3 Y0.6163 I0. J0.03
G1 X1.094
X-0.1
G2 Y0.6764 I0. J0.03
G1 X-0.091
X1.085
G3 Y0.7365 I0. J0.03
G1 X1.07
X-0.076
G2 Y0.7966 I0. J0.03
G1 X-0.0539
X1.0479
G3 Y0.8567 I0. J0.03
G1 X1.0177
X-0.0237
G2 Y0.9168 I0. J0.03
G1 X0.0152
X0.9788
G3 Y0.9769 I0. J0.03
G1 X0.9276
X0.0664
G2 Y1.037 I0. J0.03
G1 X0.1343
X0.8597
G0 Z0.05
X0.7879 Y-0.1048
G1 Z-0.1126 F5.
X0.7592
X0.2348 F59.
X0.1364
G2 Y-0.0447 I0. J0.03
G1 X0.8576
X0.926
G3 Y0.0154 I0. J0.03
G1 X0.068
X0.0166
G2 Y0.0755 I0. J0.03
G1 X0.9774
X1.0168
G3 Y0.1356 I0. J0.03
G1 X-0.0228
X-0.0531
G2 Y0.1957 I0. J0.03
G1 X1.0471
X1.0695
G3 Y0.2558 I0. J0.03
G1 X-0.0755
X-0.0907
G2 Y0.3159 I0. J0.03
G1 X1.0847
X1.0938
G3 Y0.376 I0. J0.03
G1 X-0.0998
X-0.103
G2 Y0.4361 I0. J0.03
G1 X1.097
G3 Y0.4962 I0. J0.03
G1 X-0.103
G2 Y0.5562 I0. J0.03
G1 X1.097
G3 Y0.6163 I0. J0.03
G1 X1.094
X-0.1
G2 Y0.6764 I0. J0.03
G1 X-0.091
X1.085
G3 Y0.7365 I0. J0.03
G1 X1.07
X-0.076
G2 Y0.7966 I0. J0.03
G1 X-0.0539
X1.0479
G3 Y0.8567 I0. J0.03
G1 X1.0177
X-0.0237
G2 Y0.9168 I0. J0.03
G1 X0.0152
X0.9788
G3 Y0.9769 I0. J0.03
G1 X0.9276
X0.0664
G2 Y1.037 I0. J0.03
G1 X0.1343
X0.8597
G0 Z0.05
X0.7879 Y-0.1048
G1 Z-0.1146 F5.
X0.7592
X0.2348 F59.
X0.1364
G2 Y-0.0447 I0. J0.03
G1 X0.8576
X0.926
G3 Y0.0154 I0. J0.03
G1 X0.068
X0.0166
G2 Y0.0755 I0. J0.03
G1 X0.9774
X1.0168
G3 Y0.1356 I0. J0.03
G1 X-0.0228
X-0.0531
G2 Y0.1957 I0. J0.03
G1 X1.0471
X1.0695
G3 Y0.2558 I0. J0.03
G1 X-0.0755
X-0.0907
G2 Y0.3159 I0. J0.03
G1 X1.0847
X1.0938
G3 Y0.376 I0. J0.03
G1 X-0.0998
X-0.103
G2 Y0.4361 I0. J0.03
G1 X1.097
G3 Y0.4962 I0. J0.03
G1 X-0.103
G2 Y0.5562 I0. J0.03
G1 X1.097
G3 Y0.6163 I0. J0.03
G1 X1.094
X-0.1
G2 Y0.6764 I0. J0.03
G1 X-0.091
X1.085
G3 Y0.7365 I0. J0.03
G1 X1.07
X-0.076
G2 Y0.7966 I0. J0.03
G1 X-0.0539
X1.0479
G3 Y0.8567 I0. J0.03
G1 X1.0177
X-0.0237
G2 Y0.9168 I0. J0.03
G1 X0.0152
X0.9788
G3 Y0.9769 I0. J0.03
G1 X0.9276
X0.0664
G2 Y1.037 I0. J0.03
G1 X0.1343
X0.8597
G0 Z0.05
X0.7879 Y-0.1048
G1 Z-0.1166 F5.
X0.7592
X0.2348 F59.
X0.1364
G2 Y-0.0447 I0. J0.03
G1 X0.8576
X0.926
G3 Y0.0154 I0. J0.03
G1 X0.068
X0.0166
G2 Y0.0755 I0. J0.03
G1 X0.9774
X1.0168
G3 Y0.1356 I0. J0.03
G1 X-0.0228
X-0.0531
G2 Y0.1957 I0. J0.03
G1 X1.0471
X1.0695
G3 Y0.2558 I0. J0.03
G1 X-0.0755
X-0.0907
G2 Y0.3159 I0. J0.03
G1 X1.0847
X1.0938
G3 Y0.376 I0. J0.03
G1 X-0.0998
X-0.103
G2 Y0.4361 I0. J0.03
G1 X1.097
G3 Y0.4962 I0. J0.03
G1 X-0.103
G2 Y0.5562 I0. J0.03
G1 X1.097
G3 Y0.6163 I0. J0.03
G1 X1.094
X-0.1
G2 Y0.6764 I0. J0.03
G1 X-0.091
X1.085
G3 Y0.7365 I0. J0.03
G1 X1.07
X-0.076
G2 Y0.7966 I0. J0.03
G1 X-0.0539
X1.0479
G3 Y0.8567 I0. J0.03
G1 X1.0177
X-0.0237
G2 Y0.9168 I0. J0.03
G1 X0.0152
X0.9788
G3 Y0.9769 I0. J0.03
G1 X0.9276
X0.0664
G2 Y1.037 I0. J0.03
G1 X0.1343
X0.8597
G0 Z0.05
X0.7879 Y-0.1048
G1 Z-0.1186 F5.
X0.7592
X0.2348 F59.
X0.1364
G2 Y-0.0447 I0. J0.03
G1 X0.8576
X0.926
G3 Y0.0154 I0. J0.03
G1 X0.068
X0.0166
G2 Y0.0755 I0. J0.03
G1 X0.9774
X1.0168
G3 Y0.1356 I0. J0.03
G1 X-0.0228
X-0.0531
G2 Y0.1957 I0. J0.03
G1 X1.0471
X1.0695
G3 Y0.2558 I0. J0.03
G1 X-0.0755
X-0.0907
G2 Y0.3159 I0. J0.03
G1 X1.0847
X1.0938
G3 Y0.376 I0. J0.03
G1 X-0.0998
X-0.103
G2 Y0.4361 I0. J0.03
G1 X1.097
G3 Y0.4962 I0. J0.03
G1 X-0.103
G2 Y0.5562 I0. J0.03
G1 X1.097
G3 Y0.6163 I0. J0.03
G1 X1.094
X-0.1
G2 Y0.6764 I0. J0.03
G1 X-0.091
X1.085
G3 Y0.7365 I0. J0.03
G1 X1.07
X-0.076
G2 Y0.7966 I0. J0.03
G1 X-0.0539
X1.0479
G3 Y0.8567 I0. J0.03
G1 X1.0177
X-0.0237
G2 Y0.9168 I0. J0.03
G1 X0.0152
X0.9788
G3 Y0.9769 I0. J0.03
G1 X0.9276
X0.0664
G2 Y1.037 I0. J0.03
G1 X0.1343
X0.8597
G0 Z0.05
X0.7879 Y-0.1048
G1 Z-0.1206 F5.
X0.7592
X0.2348 F59.
X0.1364
G2 Y-0.0447 I0. J0.03
G1 X0.8576
X0.926
G3 Y0.0154 I0. J0.03
G1 X0.068
X0.0166
G2 Y0.0755 I0. J0.03
G1 X0.9774
X1.0168
G3 Y0.1356 I0. J0.03
G1 X-0.0228
X-0.0531
G2 Y0.1957 I0. J0.03
G1 X1.0471
X1.0695
G3 Y0.2558 I0. J0.03
G1 X-0.0755
X-0.0907
G2 Y0.3159 I0. J0.03
G1 X1.0847
X1.0938
G3 Y0.376 I0. J0.03
G1 X-0.0998
X-0.103
G2 Y0.4361 I0. J0.03
G1 X1.097
G3 Y0.4962 I0. J0.03
G1 X-0.103
G2 Y0.5562 I0. J0.03
G1 X1.097
G3 Y0.6163 I0. J0.03
G1 X1.094
X-0.1
G2 Y0.6764 I0. J0.03
G1 X-0.091
X1.085
G3 Y0.7365 I0. J0.03
G1 X1.07
X-0.076
G2 Y0.7966 I0. J0.03
G1 X-0.0539
X1.0479
G3 Y0.8567 I0. J0.03
G1 X1.0177
X-0.0237
G2 Y0.9168 I0. J0.03
G1 X0.0152
X0.9788
G3 Y0.9769 I0. J0.03
G1 X0.9276
X0.0664
G2 Y1.037 I0. J0.03
G1 X0.1343
X0.8597
G0 Z0.05
X0.7879 Y-0.1048
G1 Z-0.1226 F5.
X0.7592
X0.2348 F59.
X0.1364
G2 Y-0.0447 I0. J0.03
G1 X0.8576
X0.926
G3 Y0.0154 I0. J0.03
G1 X0.068
X0.0166
G2 Y0.0755 I0. J0.03
G1 X0.9774
X1.0168
G3 Y0.1356 I0. J0.03
G1 X-0.0228
X-0.0531
G2 Y0.1957 I0. J0.03
G1 X1.0471
X1.0695
G3 Y0.2558 I0. J0.03
G1 X-0.0755
X-0.0907
G2 Y0.3159 I0. J0.03
G1 X1.0847
X1.0938
G3 Y0.376 I0. J0.03
G1 X-0.0998
X-0.103
G2 Y0.4361 I0. J0.03
G1 X1.097
G3 Y0.4962 I0. J0.03
G1 X-0.103
G2 Y0.5562 I0. J0.03
G1 X1.097
G3 Y0.6163 I0. J0.03
G1 X1.094
X-0.1
G2 Y0.6764 I0. J0.03
G1 X-0.091
X1.085
G3 Y0.7365 I0. J0.03
G1 X1.07
X-0.076
G2 Y0.7966 I0. J0.03
G1 X-0.0539
X1.0479
G3 Y0.8567 I0. J0.03
G1 X1.0177
X-0.0237
G2 Y0.9168 I0. J0.03
G1 X0.0152
X0.9788
G3 Y0.9769 I0. J0.03
G1 X0.9276
X0.0664
G2 Y1.037 I0. J0.03
G1 X0.1343
X0.8597
G0 Z0.05
X0.7879 Y-0.1048
G1 Z-0.1246 F5.
X0.7592
X0.2348 F59.
X0.1364
G2 Y-0.0447 I0. J0.03
G1 X0.8576
X0.926
G3 Y0.0154 I0. J0.03
G1 X0.068
X0.0166
G2 Y0.0755 I0. J0.03
G1 X0.9774
X1.0168
G3 Y0.1356 I0. J0.03
G1 X-0.0228
X-0.0531
G2 Y0.1957 I0. J0.03
G1 X1.0471
X1.0695
G3 Y0.2558 I0. J0.03
G1 X-0.0755
X-0.0907
G2 Y0.3159 I0. J0.03
G1 X1.0847
X1.0938
G3 Y0.376 I0. J0.03
G1 X-0.0998
X-0.103
G2 Y0.4361 I0. J0.03
G1 X1.097
G3 Y0.4962 I0. J0.03
G1 X-0.103
G2 Y0.5562 I0. J0.03
G1 X1.097
G3 Y0.6163 I0. J0.03
G1 X1.094
X-0.1
G2 Y0.6764 I0. J0.03
G1 X-0.091
X1.085
G3 Y0.7365 I0. J0.03
G1 X1.07
X-0.076
G2 Y0.7966 I0. J0.03
G1 X-0.0539
X1.0479
G3 Y0.8567 I0. J0.03
G1 X1.0177
X-0.0237
G2 Y0.9168 I0. J0.03
G1 X0.0152
X0.9788
G3 Y0.9769 I0. J0.03
G1 X0.9276
X0.0664
G2 Y1.037 I0. J0.03
G1 X0.1343
X0.8597
G0 Z0.05
X0.7879 Y-0.1048
G1 Z-0.1266 F5.
X0.7592
X0.2348 F59.
X0.1364
G2 Y-0.0447 I0. J0.03
G1 X0.8576
X0.926
G3 Y0.0154 I0. J0.03
G1 X0.068
X0.0166
G2 Y0.0755 I0. J0.03
G1 X0.9774
X1.0168
G3 Y0.1356 I0. J0.03
G1 X-0.0228
X-0.0531
G2 Y0.1957 I0. J0.03
G1 X1.0471
X1.0695
G3 Y0.2558 I0. J0.03
G1 X-0.0755
X-0.0907
G2 Y0.3159 I0. J0.03
G1 X1.0847
X1.0938
G3 Y0.376 I0. J0.03
G1 X-0.0998
X-0.103
G2 Y0.4361 I0. J0.03
G1 X1.097
G3 Y0.4962 I0. J0.03
G1 X-0.103
G2 Y0.5562 I0. J0.03
G1 X1.097
G3 Y0.6163 I0. J0.03
G1 X1.094
X-0.1
G2 Y0.6764 I0. J0.03
G1 X-0.091
X1.085
G3 Y0.7365 I0. J0.03
G1 X1.07
X-0.076
G2 Y0.7966 I0. J0.03
G1 X-0.0539
X1.0479
G3 Y0.8567 I0. J0.03
G1 X1.0177
X-0.0237
G2 Y0.9168 I0. J0.03
G1 X0.0152
X0.9788
G3 Y0.9769 I0. J0.03
G1 X0.9276
X0.0664
G2 Y1.037 I0. J0.03
G1 X0.1343
X0.8597
G0 Z0.05
X0.7879 Y-0.1048
G1 Z-0.1286 F5.
X0.7592
X0.2348 F59.
X0.1364
G2 Y-0.0447 I0. J0.03
G1 X0.8576
X0.926
G3 Y0.0154 I0. J0.03
G1 X0.068
X0.0166
G2 Y0.0755 I0. J0.03
G1 X0.9774
X1.0168
G3 Y0.1356 I0. J0.03
G1 X-0.0228
X-0.0531
G2 Y0.1957 I0. J0.03
G1 X1.0471
X1.0695
G3 Y0.2558 I0. J0.03
G1 X-0.0755
X-0.0907
G2 Y0.3159 I0. J0.03
G1 X1.0847
X1.0938
G3 Y0.376 I0. J0.03
G1 X-0.0998
X-0.103
G2 Y0.4361 I0. J0.03
G1 X1.097
G3 Y0.4962 I0. J0.03
G1 X-0.103
G2 Y0.5562 I0. J0.03
G1 X1.097
G3 Y0.6163 I0. J0.03
G1 X1.094
X-0.1
G2 Y0.6764 I0. J0.03
G1 X-0.091
X1.085
G3 Y0.7365 I0. J0.03
G1 X1.07
X-0.076
G2 Y0.7966 I0. J0.03
G1 X-0.0539
X1.0479
G3 Y0.8567 I0. J0.03
G1 X1.0177
X-0.0237
G2 Y0.9168 I0. J0.03
G1 X0.0152
X0.9788
G3 Y0.9769 I0. J0.03
G1 X0.9276
X0.0664
G2 Y1.037 I0. J0.03
G1 X0.1343
X0.8597
G0 Z0.05
X0.7879 Y-0.1048
G1 Z-0.1306 F5.
X0.7592
X0.2348 F59.
X0.1364
G2 Y-0.0447 I0. J0.03
G1 X0.8576
X0.926
G3 Y0.0154 I0. J0.03
G1 X0.068
X0.0166
G2 Y0.0755 I0. J0.03
G1 X0.9774
X1.0168
G3 Y0.1356 I0. J0.03
G1 X-0.0228
X-0.0531
G2 Y0.1957 I0. J0.03
G1 X1.0471
X1.0695
G3 Y0.2558 I0. J0.03
G1 X-0.0755
X-0.0907
G2 Y0.3159 I0. J0.03
G1 X1.0847
X1.0938
G3 Y0.376 I0. J0.03
G1 X-0.0998
X-0.103
G2 Y0.4361 I0. J0.03
G1 X1.097
G3 Y0.4962 I0. J0.03
G1 X-0.103
G2 Y0.5562 I0. J0.03
G1 X1.097
G3 Y0.6163 I0. J0.03
G1 X1.094
X-0.1
G2 Y0.6764 I0. J0.03
G1 X-0.091
X1.085
G3 Y0.7365 I0. J0.03
G1 X1.07
X-0.076
G2 Y0.7966 I0. J0.03
G1 X-0.0539
X1.0479
G3 Y0.8567 I0. J0.03
G1 X1.0177
X-0.0237
G2 Y0.9168 I0. J0.03
G1 X0.0152
X0.9788
G3 Y0.9769 I0. J0.03
G1 X0.9276
X0.0664
G2 Y1.037 I0. J0.03
G1 X0.1343
X0.8597
G0 Z0.05
X0.7879 Y-0.1048
G1 Z-0.1326 F5.
X0.7592
X0.2348 F59.
X0.1364
G2 Y-0.0447 I0. J0.03
G1 X0.8576
X0.926
G3 Y0.0154 I0. J0.03
G1 X0.068
X0.0166
G2 Y0.0755 I0. J0.03
G1 X0.9774
X1.0168
G3 Y0.1356 I0. J0.03
G1 X-0.0228
X-0.0531
G2 Y0.1957 I0. J0.03
G1 X1.0471
X1.0695
G3 Y0.2558 I0. J0.03
G1 X-0.0755
X-0.0907
G2 Y0.3159 I0. J0.03
G1 X1.0847
X1.0938
G3 Y0.376 I0. J0.03
G1 X-0.0998
X-0.103
G2 Y0.4361 I0. J0.03
G1 X1.097
G3 Y0.4962 I0. J0.03
G1 X-0.103
G2 Y0.5562 I0. J0.03
G1 X1.097
G3 Y0.6163 I0. J0.03
G1 X1.094
X-0.1
G2 Y0.6764 I0. J0.03
G1 X-0.091
X1.085
G3 Y0.7365 I0. J0.03
G1 X1.07
X-0.076
G2 Y0.7966 I0. J0.03
G1 X-0.0539
X1.0479
G3 Y0.8567 I0. J0.03
G1 X1.0177
X-0.0237
G2 Y0.9168 I0. J0.03
G1 X0.0152
X0.9788
G3 Y0.9769 I0. J0.03
G1 X0.9276
X0.0664
G2 Y1.037 I0. J0.03
G1 X0.1343
X0.8597
G0 Z0.05
X0.7879 Y-0.1048
G1 Z-0.1346 F5.
X0.7592
X0.2348 F59.
X0.1364
G2 Y-0.0447 I0. J0.03
G1 X0.8576
X0.926
G3 Y0.0154 I0. J0.03
G1 X0.068
X0.0166
G2 Y0.0755 I0. J0.03
G1 X0.9774
X1.0168
G3 Y0.1356 I0. J0.03
G1 X-0.0228
X-0.0531
G2 Y0.1957 I0. J0.03
G1 X1.0471
X1.0695
G3 Y0.2558 I0. J0.03
G1 X-0.0755
X-0.0907
G2 Y0.3159 I0. J0.03
G1 X1.0847
X1.0938
G3 Y0.376 I0. J0.03
G1 X-0.0998
X-0.103
G2 Y0.4361 I0. J0.03
G1 X1.097
G3 Y0.4962 I0. J0.03
G1 X-0.103
G2 Y0.5562 I0. J0.03
G1 X1.097
G3 Y0.6163 I0. J0.03
G1 X1.094
X-0.1
G2 Y0.6764 I0. J0.03
G1 X-0.091
X1.085
G3 Y0.7365 I0. J0.03
G1 X1.07
X-0.076
G2 Y0.7966 I0. J0.03
G1 X-0.0539
X1.0479
G3 Y0.8567 I0. J0.03
G1 X1.0177
X-0.0237
G2 Y0.9168 I0. J0.03
G1 X0.0152
X0.9788
G3 Y0.9769 I0. J0.03
G1 X0.9276
X0.0664
G2 Y1.037 I0. J0.03
G1 X0.1343
X0.8597
G0 Z0.05
X0.7879 Y-0.1048
G1 Z-0.1366 F5.
X0.7592
X0.2348 F59.
X0.1364
G2 Y-0.0447 I0. J0.03
G1 X0.8576
X0.926
G3 Y0.0154 I0. J0.03
G1 X0.068
X0.0166
G2 Y0.0755 I0. J0.03
G1 X0.9774
X1.0168
G3 Y0.1356 I0. J0.03
G1 X-0.0228
X-0.0531
G2 Y0.1957 I0. J0.03
G1 X1.0471
X1.0695
G3 Y0.2558 I0. J0.03
G1 X-0.0755
X-0.0907
G2 Y0.3159 I0. J0.03
G1 X1.0847
X1.0938
G3 Y0.376 I0. J0.03
G1 X-0.0998
X-0.103
G2 Y0.4361 I0. J0.03
G1 X1.097
G3 Y0.4962 I0. J0.03
G1 X-0.103
G2 Y0.5562 I0. J0.03
G1 X1.097
G3 Y0.6163 I0. J0.03
G1 X1.094
X-0.1
G2 Y0.6764 I0. J0.03
G1 X-0.091
X1.085
G3 Y0.7365 I0. J0.03
G1 X1.07
X-0.076
G2 Y0.7966 I0. J0.03
G1 X-0.0539
X1.0479
G3 Y0.8567 I0. J0.03
G1 X1.0177
X-0.0237
G2 Y0.9168 I0. J0.03
G1 X0.0152
X0.9788
G3 Y0.9769 I0. J0.03
G1 X0.9276
X0.0664
G2 Y1.037 I0. J0.03
G1 X0.1343
X0.8597
G0 Z0.05
X0.7879 Y-0.1048
G1 Z-0.1386 F5.
X0.7592
X0.2348 F59.
X0.1364
G2 Y-0.0447 I0. J0.03
G1 X0.8576
X0.926
G3 Y0.0154 I0. J0.03
G1 X0.068
X0.0166
G2 Y0.0755 I0. J0.03
G1 X0.9774
X1.0168
G3 Y0.1356 I0. J0.03
G1 X-0.0228
X-0.0531
G2 Y0.1957 I0. J0.03
G1 X1.0471
X1.0695
G3 Y0.2558 I0. J0.03
G1 X-0.0755
X-0.0907
G2 Y0.3159 I0. J0.03
G1 X1.0847
X1.0938
G3 Y0.376 I0. J0.03
G1 X-0.0998
X-0.103
G2 Y0.4361 I0. J0.03
G1 X1.097
G3 Y0.4962 I0. J0.03
G1 X-0.103
G2 Y0.5562 I0. J0.03
G1 X1.097
G3 Y0.6163 I0. J0.03
G1 X1.094
X-0.1
G2 Y0.6764 I0. J0.03
G1 X-0.091
X1.085
G3 Y0.7365 I0. J0.03
G1 X1.07
X-0.076
G2 Y0.7966 I0. J0.03
G1 X-0.0539
X1.0479
G3 Y0.8567 I0. J0.03
G1 X1.0177
X-0.0237
G2 Y0.9168 I0. J0.03
G1 X0.0152
X0.9788
G3 Y0.9769 I0. J0.03
G1 X0.9276
X0.0664
G2 Y1.037 I0. J0.03
G1 X0.1343
X0.8597
G0 Z0.05
X0.7879 Y-0.1048
G1 Z-0.1406 F5.
X0.7592
X0.2348 F59.
X0.1364
G2 Y-0.0447 I0. J0.03
G1 X0.8576
X0.926
G3 Y0.0154 I0. J0.03
G1 X0.068
X0.0166
G2 Y0.0755 I0. J0.03
G1 X0.9774
X1.0168
G3 Y0.1356 I0. J0.03
G1 X-0.0228
X-0.0531
G2 Y0.1957 I0. J0.03
G1 X1.0471
X1.0695
G3 Y0.2558 I0. J0.03
G1 X-0.0755
X-0.0907
G2 Y0.3159 I0. J0.03
G1 X1.0847
X1.0938
G3 Y0.376 I0. J0.03
G1 X-0.0998
X-0.103
G2 Y0.4361 I0. J0.03
G1 X1.097
G3 Y0.4962 I0. J0.03
G1 X-0.103
G2 Y0.5562 I0. J0.03
G1 X1.097
G3 Y0.6163 I0. J0.03
G1 X1.094
X-0.1
G2 Y0.6764 I0. J0.03
G1 X-0.091
X1.085
G3 Y0.7365 I0. J0.03
G1 X1.07
X-0.076
G2 Y0.7966 I0. J0.03
G1 X-0.0539
X1.0479
G3 Y0.8567 I0. J0.03
G1 X1.0177
X-0.0237
G2 Y0.9168 I0. J0.03
G1 X0.0152
X0.9788
G3 Y0.9769 I0. J0.03
G1 X0.9276
X0.0664
G2 Y1.037 I0. J0.03
G1 X0.1343
X0.8597
G0 Z0.05
X0.7879 Y-0.1048
G1 Z-0.1426 F5.
X0.7592
X0.2348 F59.
X0.1364
G2 Y-0.0447 I0. J0.03
G1 X0.8576
X0.926
G3 Y0.0154 I0. J0.03
G1 X0.068
X0.0166
G2 Y0.0755 I0. J0.03
G1 X0.9774
X1.0168
G3 Y0.1356 I0. J0.03
G1 X-0.0228
X-0.0531
G2 Y0.1957 I0. J0.03
G1 X1.0471
X1.0695
G3 Y0.2558 I0. J0.03
G1 X-0.0755
X-0.0907
G2 Y0.3159 I0. J0.03
G1 X1.0847
X1.0938
G3 Y0.376 I0. J0.03
G1 X-0.0998
X-0.103
G2 Y0.4361 I0. J0.03
G1 X1.097
G3 Y0.4962 I0. J0.03
G1 X-0.103
G2 Y0.5562 I0. J0.03
G1 X1.097
G3 Y0.6163 I0. J0.03
G1 X1.094
X-0.1
G2 Y0.6764 I0. J0.03
G1 X-0.091
X1.085
G3 Y0.7365 I0. J0.03
G1 X1.07
X-0.076
G2 Y0.7966 I0. J0.03
G1 X-0.0539
X1.0479
G3 Y0.8567 I0. J0.03
G1 X1.0177
X-0.0237
G2 Y0.9168 I0. J0.03
G1 X0.0152
X0.9788
G3 Y0.9769 I0. J0.03
G1 X0.9276
X0.0664
G2 Y1.037 I0. J0.03
G1 X0.1343
X0.8597
G0 Z0.05
X0.7879 Y-0.1048
G1 Z-0.1446 F5.
X0.7592
X0.2348 F59.
X0.1364
G2 Y-0.0447 I0. J0.03
G1 X0.8576
X0.926
G3 Y0.0154 I0. J0.03
G1 X0.068
X0.0166
G2 Y0.0755 I0. J0.03
G1 X0.9774
X1.0168
G3 Y0.1356 I0. J0.03
G1 X-0.0228
X-0.0531
G2 Y0.1957 I0. J0.03
G1 X1.0471
X1.0695
G3 Y0.2558 I0. J0.03
G1 X-0.0755
X-0.0907
G2 Y0.3159 I0. J0.03
G1 X1.0847
X1.0938
G3 Y0.376 I0. J0.03
G1 X-0.0998
X-0.103
G2 Y0.4361 I0. J0.03
G1 X1.097
G3 Y0.4962 I0. J0.03
G1 X-0.103
G2 Y0.5562 I0. J0.03
G1 X1.097
G3 Y0.6163 I0. J0.03
G1 X1.094
X-0.1
G2 Y0.6764 I0. J0.03
G1 X-0.091
X1.085
G3 Y0.7365 I0. J0.03
G1 X1.07
X-0.076
G2 Y0.7966 I0. J0.03
G1 X-0.0539
X1.0479
G3 Y0.8567 I0. J0.03
G1 X1.0177
X-0.0237
G2 Y0.9168 I0. J0.03
G1 X0.0152
X0.9788
G3 Y0.9769 I0. J0.03
G1 X0.9276
X0.0664
G2 Y1.037 I0. J0.03
G1 X0.1343
X0.8597
G0 Z0.05
X0.7879 Y-0.1048
G1 Z-0.1466 F5.
X0.7592
X0.2348 F59.
X0.1364
G2 Y-0.0447 I0. J0.03
G1 X0.8576
X0.926
G3 Y0.0154 I0. J0.03
G1 X0.068
X0.0166
G2 Y0.0755 I0. J0.03
G1 X0.9774
X1.0168
G3 Y0.1356 I0. J0.03
G1 X-0.0228
X-0.0531
G2 Y0.1957 I0. J0.03
G1 X1.0471
X1.0695
G3 Y0.2558 I0. J0.03
G1 X-0.0755
X-0.0907
G2 Y0.3159 I0. J0.03
G1 X1.0847
X1.0938
G3 Y0.376 I0. J0.03
G1 X-0.0998
X-0.103
G2 Y0.4361 I0. J0.03
G1 X1.097
G3 Y0.4962 I0. J0.03
G1 X-0.103
G2 Y0.5562 I0. J0.03
G1 X1.097
G3 Y0.6163 I0. J0.03
G1 X1.094
X-0.1
G2 Y0.6764 I0. J0.03
G1 X-0.091
X1.085
G3 Y0.7365 I0. J0.03
G1 X1.07
X-0.076
G2 Y0.7966 I0. J0.03
G1 X-0.0539
X1.0479
G3 Y0.8567 I0. J0.03
G1 X1.0177
X-0.0237
G2 Y0.9168 I0. J0.03
G1 X0.0152
X0.9788
G3 Y0.9769 I0. J0.03
G1 X0.9276
X0.0664
G2 Y1.037 I0. J0.03
G1 X0.1343
X0.8597
G0 Z0.05
X0.7879 Y-0.1048
G1 Z-0.1486 F5.
X0.7592
X0.2348 F59.
X0.1364
G2 Y-0.0447 I0. J0.03
G1 X0.8576
X0.926
G3 Y0.0154 I0. J0.03
G1 X0.068
X0.0166
G2 Y0.0755 I0. J0.03
G1 X0.9774
X1.0168
G3 Y0.1356 I0. J0.03
G1 X-0.0228
X-0.0531
G2 Y0.1957 I0. J0.03
G1 X1.0471
X1.0695
G3 Y0.2558 I0. J0.03
G1 X-0.0755
X-0.0907
G2 Y0.3159 I0. J0.03
G1 X1.0847
X1.0938
G3 Y0.376 I0. J0.03
G1 X-0.0998
X-0.103
G2 Y0.4361 I0. J0.03
G1 X1.097
G3 Y0.4962 I0. J0.03
G1 X-0.103
G2 Y0.5562 I0. J0.03
G1 X1.097
G3 Y0.6163 I0. J0.03
G1 X1.094
X-0.1
G2 Y0.6764 I0. J0.03
G1 X-0.091
X1.085
G3 Y0.7365 I0. J0.03
G1 X1.07
X-0.076
G2 Y0.7966 I0. J0.03
G1 X-0.0539
X1.0479
G3 Y0.8567 I0. J0.03
G1 X1.0177
X-0.0237
G2 Y0.9168 I0. J0.03
G1 X0.0152
X0.9788
G3 Y0.9769 I0. J0.03
G1 X0.9276
X0.0664
G2 Y1.037 I0. J0.03
G1 X0.1343
X0.8597
G0 Z0.05
X0.7879 Y-0.1048
G1 Z-0.1506 F5.
X0.7592
X0.2348 F59.
X0.1364
G2 Y-0.0447 I0. J0.03
G1 X0.8576
X0.926
G3 Y0.0154 I0. J0.03
G1 X0.068
X0.0166
G2 Y0.0755 I0. J0.03
G1 X0.9774
X1.0168
G3 Y0.1356 I0. J0.03
G1 X-0.0228
X-0.0531
G2 Y0.1957 I0. J0.03
G1 X1.0471
X1.0695
G3 Y0.2558 I0. J0.03
G1 X-0.0755
X-0.0907
G2 Y0.3159 I0. J0.03
G1 X1.0847
X1.0938
G3 Y0.376 I0. J0.03
G1 X-0.0998
X-0.103
G2 Y0.4361 I0. J0.03
G1 X1.097
G3 Y0.4962 I0. J0.03
G1 X-0.103
G2 Y0.5562 I0. J0.03
G1 X1.097
G3 Y0.6163 I0. J0.03
G1 X1.094
X-0.1
G2 Y0.6764 I0. J0.03
G1 X-0.091
X1.085
G3 Y0.7365 I0. J0.03
G1 X1.07
X-0.076
G2 Y0.7966 I0. J0.03
G1 X-0.0539
X1.0479
G3 Y0.8567 I0. J0.03
G1 X1.0177
X-0.0237
G2 Y0.9168 I0. J0.03
G1 X0.0152
X0.9788
G3 Y0.9769 I0. J0.03
G1 X0.9276
X0.0664
G2 Y1.037 I0. J0.03
G1 X0.1343
X0.8597
G0 Z0.05
X0.7879 Y-0.1048
G1 Z-0.1526 F5.
X0.7592
X0.2348 F59.
X0.1364
G2 Y-0.0447 I0. J0.03
G1 X0.8576
X0.926
G3 Y0.0154 I0. J0.03
G1 X0.068
X0.0166
G2 Y0.0755 I0. J0.03
G1 X0.9774
X1.0168
G3 Y0.1356 I0. J0.03
G1 X-0.0228
X-0.0531
G2 Y0.1957 I0. J0.03
G1 X1.0471
X1.0695
G3 Y0.2558 I0. J0.03
G1 X-0.0755
X-0.0907
G2 Y0.3159 I0. J0.03
G1 X1.0847
X1.0938
G3 Y0.376 I0. J0.03
G1 X-0.0998
X-0.103
G2 Y0.4361 I0. J0.03
G1 X1.097
G3 Y0.4962 I0. J0.03
G1 X-0.103
G2 Y0.5562 I0. J0.03
G1 X1.097
G3 Y0.6163 I0. J0.03
G1 X1.094
X-0.1
G2 Y0.6764 I0. J0.03
G1 X-0.091
X1.085
G3 Y0.7365 I0. J0.03
G1 X1.07
X-0.076
G2 Y0.7966 I0. J0.03
G1 X-0.0539
X1.0479
G3 Y0.8567 I0. J0.03
G1 X1.0177
X-0.0237
G2 Y0.9168 I0. J0.03
G1 X0.0152
X0.9788
G3 Y0.9769 I0. J0.03
G1 X0.9276
X0.0664
G2 Y1.037 I0. J0.03
G1 X0.1343
X0.8597
G0 Z0.05
X0.7879 Y-0.1048
G1 Z-0.1546 F5.
X0.7592
X0.2348 F59.
X0.1364
G2 Y-0.0447 I0. J0.03
G1 X0.8576
X0.926
G3 Y0.0154 I0. J0.03
G1 X0.068
X0.0166
G2 Y0.0755 I0. J0.03
G1 X0.9774
X1.0168
G3 Y0.1356 I0. J0.03
G1 X-0.0228
X-0.0531
G2 Y0.1957 I0. J0.03
G1 X1.0471
X1.0695
G3 Y0.2558 I0. J0.03
G1 X-0.0755
X-0.0907
G2 Y0.3159 I0. J0.03
G1 X1.0847
X1.0938
G3 Y0.376 I0. J0.03
G1 X-0.0998
X-0.103
G2 Y0.4361 I0. J0.03
G1 X1.097
G3 Y0.4962 I0. J0.03
G1 X-0.103
G2 Y0.5562 I0. J0.03
G1 X1.097
G3 Y0.6163 I0. J0.03
G1 X1.094
X-0.1
G2 Y0.6764 I0. J0.03
G1 X-0.091
X1.085
G3 Y0.7365 I0. J0.03
G1 X1.07
X-0.076
G2 Y0.7966 I0. J0.03
G1 X-0.0539
X1.0479
G3 Y0.8567 I0. J0.03
G1 X1.0177
X-0.0237
G2 Y0.9168 I0. J0.03
G1 X0.0152
X0.9788
G3 Y0.9769 I0. J0.03
G1 X0.9276
X0.0664
G2 Y1.037 I0. J0.03
G1 X0.1343
X0.8597
G0 Z0.05
X0.7879 Y-0.1048
G1 Z-0.1566 F5.
X0.7592
X0.2348 F59.
X0.1364
G2 Y-0.0447 I0. J0.03
G1 X0.8576
X0.926
G3 Y0.0154 I0. J0.03
G1 X0.068
X0.0166
G2 Y0.0755 I0. J0.03
G1 X0.9774
X1.0168
G3 Y0.1356 I0. J0.03
G1 X-0.0228
X-0.0531
G2 Y0.1957 I0. J0.03
G1 X1.0471
X1.0695
G3 Y0.2558 I0. J0.03
G1 X-0.0755
X-0.0907
G2 Y0.3159 I0. J0.03
G1 X1.0847
X1.0938
G3 Y0.376 I0. J0.03
G1 X-0.0998
X-0.103
G2 Y0.4361 I0. J0.03
G1 X1.097
G3 Y0.4962 I0. J0.03
G1 X-0.103
G2 Y0.5562 I0. J0.03
G1 X1.097
G3 Y0.6163 I0. J0.03
G1 X1.094
X-0.1
G2 Y0.6764 I0. J0.03
G1 X-0.091
X1.085
G3 Y0.7365 I0. J0.03
G1 X1.07
X-0.076
G2 Y0.7966 I0. J0.03
G1 X-0.0539
X1.0479
G3 Y0.8567 I0. J0.03
G1 X1.0177
X-0.0237
G2 Y0.9168 I0. J0.03
G1 X0.0152
X0.9788
G3 Y0.9769 I0. J0.03
G1 X0.9276
X0.0664
G2 Y1.037 I0. J0.03
G1 X0.1343
X0.8597
G0 Z0.05
X0.7879 Y-0.1048
G1 Z-0.1586 F5.
X0.7592
X0.2348 F59.
X0.1364
G2 Y-0.0447 I0. J0.03
G1 X0.8576
X0.926
G3 Y0.0154 I0. J0.03
G1 X0.068
X0.0166
G2 Y0.0755 I0. J0.03
G1 X0.9774
X1.0168
G3 Y0.1356 I0. J0.03
G1 X-0.0228
X-0.0531
G2 Y0.1957 I0. J0.03
G1 X1.0471
X1.0695
G3 Y0.2558 I0. J0.03
G1 X-0.0755
X-0.0907
G2 Y0.3159 I0. J0.03
G1 X1.0847
X1.0938
G3 Y0.376 I0. J0.03
G1 X-0.0998
X-0.103
G2 Y0.4361 I0. J0.03
G1 X1.097
G3 Y0.4962 I0. J0.03
G1 X-0.103
G2 Y0.5562 I0. J0.03
G1 X1.097
G3 Y0.6163 I0. J0.03
G1 X1.094
X-0.1
G2 Y0.6764 I0. J0.03
G1 X-0.091
X1.085
G3 Y0.7365 I0. J0.03
G1 X1.07
X-0.076
G2 Y0.7966 I0. J0.03
G1 X-0.0539
X1.0479
G3 Y0.8567 I0. J0.03
G1 X1.0177
X-0.0237
G2 Y0.9168 I0. J0.03
G1 X0.0152
X0.9788
G3 Y0.9769 I0. J0.03
G1 X0.9276
X0.0664
G2 Y1.037 I0. J0.03
G1 X0.1343
X0.8597
G0 Z0.05
X0.7879 Y-0.1048
G1 Z-0.1606 F5.
X0.7592
X0.2348 F59.
X0.1364
G2 Y-0.0447 I0. J0.03
G1 X0.8576
X0.926
G3 Y0.0154 I0. J0.03
G1 X0.068
X0.0166
G2 Y0.0755 I0. J0.03
G1 X0.9774
X1.0168
G3 Y0.1356 I0. J0.03
G1 X-0.0228
X-0.0531
G2 Y0.1957 I0. J0.03
G1 X1.0471
X1.0695
G3 Y0.2558 I0. J0.03
G1 X-0.0755
X-0.0907
G2 Y0.3159 I0. J0.03
G1 X1.0847
X1.0938
G3 Y0.376 I0. J0.03
G1 X-0.0998
X-0.103
G2 Y0.4361 I0. J0.03
G1 X1.097
G3 Y0.4962 I0. J0.03
G1 X-0.103
G2 Y0.5562 I0. J0.03
G1 X1.097
G3 Y0.6163 I0. J0.03
G1 X1.094
X-0.1
G2 Y0.6764 I0. J0.03
G1 X-0.091
X1.085
G3 Y0.7365 I0. J0.03
G1 X1.07
X-0.076
G2 Y0.7966 I0. J0.03
G1 X-0.0539
X1.0479
G3 Y0.8567 I0. J0.03
G1 X1.0177
X-0.0237
G2 Y0.9168 I0. J0.03
G1 X0.0152
X0.9788
G3 Y0.9769 I0. J0.03
G1 X0.9276
X0.0664
G2 Y1.037 I0. J0.03
G1 X0.1343
X0.8597
G0 Z0.05
X0.7879 Y-0.1048
G1 Z-0.1626 F5.
X0.7592
X0.2348 F59.
X0.1364
G2 Y-0.0447 I0. J0.03
G1 X0.8576
X0.926
G3 Y0.0154 I0. J0.03
G1 X0.068
X0.0166
G2 Y0.0755 I0. J0.03
G1 X0.9774
X1.0168
G3 Y0.1356 I0. J0.03
G1 X-0.0228
X-0.0531
G2 Y0.1957 I0. J0.03
G1 X1.0471
X1.0695
G3 Y0.2558 I0. J0.03
G1 X-0.0755
X-0.0907
G2 Y0.3159 I0. J0.03
G1 X1.0847
X1.0938
G3 Y0.376 I0. J0.03
G1 X-0.0998
X-0.103
G2 Y0.4361 I0. J0.03
G1 X1.097
G3 Y0.4962 I0. J0.03
G1 X-0.103
G2 Y0.5562 I0. J0.03
G1 X1.097
G3 Y0.6163 I0. J0.03
G1 X1.094
X-0.1
G2 Y0.6764 I0. J0.03
G1 X-0.091
X1.085
G3 Y0.7365 I0. J0.03
G1 X1.07
X-0.076
G2 Y0.7966 I0. J0.03
G1 X-0.0539
X1.0479
G3 Y0.8567 I0. J0.03
G1 X1.0177
X-0.0237
G2 Y0.9168 I0. J0.03
G1 X0.0152
X0.9788
G3 Y0.9769 I0. J0.03
G1 X0.9276
X0.0664
G2 Y1.037 I0. J0.03
G1 X0.1343
X0.8597
G0 Z0.05
X0.7879 Y-0.1048
G1 Z-0.1646 F5.
X0.7592
X0.2348 F59.
X0.1364
G2 Y-0.0447 I0. J0.03
G1 X0.8576
X0.926
G3 Y0.0154 I0. J0.03
G1 X0.068
X0.0166
G2 Y0.0755 I0. J0.03
G1 X0.9774
X1.0168
G3 Y0.1356 I0. J0.03
G1 X-0.0228
X-0.0531
G2 Y0.1957 I0. J0.03
G1 X1.0471
X1.0695
G3 Y0.2558 I0. J0.03
G1 X-0.0755
X-0.0907
G2 Y0.3159 I0. J0.03
G1 X1.0847
X1.0938
G3 Y0.376 I0. J0.03
G1 X-0.0998
X-0.103
G2 Y0.4361 I0. J0.03
G1 X1.097
G3 Y0.4962 I0. J0.03
G1 X-0.103
G2 Y0.5562 I0. J0.03
G1 X1.097
G3 Y0.6163 I0. J0.03
G1 X1.094
X-0.1
G2 Y0.6764 I0. J0.03
G1 X-0.091
X1.085
G3 Y0.7365 I0. J0.03
G1 X1.07
X-0.076
G2 Y0.7966 I0. J0.03
G1 X-0.0539
X1.0479
G3 Y0.8567 I0. J0.03
G1 X1.0177
X-0.0237
G2 Y0.9168 I0. J0.03
G1 X0.0152
X0.9788
G3 Y0.9769 I0. J0.03
G1 X0.9276
X0.0664
G2 Y1.037 I0. J0.03
G1 X0.1343
X0.8597
G0 Z0.05
X0.7879 Y-0.1048
G1 Z-0.1666 F5.
X0.7592
X0.2348 F59.
X0.1364
G2 Y-0.0447 I0. J0.03
G1 X0.8576
X0.926
G3 Y0.0154 I0. J0.03
G1 X0.068
X0.0166
G2 Y0.0755 I0. J0.03
G1 X0.9774
X1.0168
G3 Y0.1356 I0. J0.03
G1 X-0.0228
X-0.0531
G2 Y0.1957 I0. J0.03
G1 X1.0471
X1.0695
G3 Y0.2558 I0. J0.03
G1 X-0.0755
X-0.0907
G2 Y0.3159 I0. J0.03
G1 X1.0847
X1.0938
G3 Y0.376 I0. J0.03
G1 X-0.0998
X-0.103
G2 Y0.4361 I0. J0.03
G1 X1.097
G3 Y0.4962 I0. J0.03
G1 X-0.103
G2 Y0.5562 I0. J0.03
G1 X1.097
G3 Y0.6163 I0. J0.03
G1 X1.094
X-0.1
G2 Y0.6764 I0. J0.03
G1 X-0.091
X1.085
G3 Y0.7365 I0. J0.03
G1 X1.07
X-0.076
G2 Y0.7966 I0. J0.03
G1 X-0.0539
X1.0479
G3 Y0.8567 I0. J0.03
G1 X1.0177
X-0.0237
G2 Y0.9168 I0. J0.03
G1 X0.0152
X0.9788
G3 Y0.9769 I0. J0.03
G1 X0.9276
X0.0664
G2 Y1.037 I0. J0.03
G1 X0.1343
X0.8597
G0 Z0.05
X0.7879 Y-0.1048
G1 Z-0.1686 F5.
X0.7592
X0.2348 F59.
X0.1364
G2 Y-0.0447 I0. J0.03
G1 X0.8576
X0.926
G3 Y0.0154 I0. J0.03
G1 X0.068
X0.0166
G2 Y0.0755 I0. J0.03
G1 X0.9774
X1.0168
G3 Y0.1356 I0. J0.03
G1 X-0.0228
X-0.0531
G2 Y0.1957 I0. J0.03
G1 X1.0471
X1.0695
G3 Y0.2558 I0. J0.03
G1 X-0.0755
X-0.0907
G2 Y0.3159 I0. J0.03
G1 X1.0847
X1.0938
G3 Y0.376 I0. J0.03
G1 X-0.0998
X-0.103
G2 Y0.4361 I0. J0.03
G1 X1.097
G3 Y0.4962 I0. J0.03
G1 X-0.103
G2 Y0.5562 I0. J0.03
G1 X1.097
G3 Y0.6163 I0. J0.03
G1 X1.094
X-0.1
G2 Y0.6764 I0. J0.03
G1 X-0.091
X1.085
G3 Y0.7365 I0. J0.03
G1 X1.07
X-0.076
G2 Y0.7966 I0. J0.03
G1 X-0.0539
X1.0479
G3 Y0.8567 I0. J0.03
G1 X1.0177
X-0.0237
G2 Y0.9168 I0. J0.03
G1 X0.0152
X0.9788
G3 Y0.9769 I0. J0.03
G1 X0.9276
X0.0664
G2 Y1.037 I0. J0.03
G1 X0.1343
X0.8597
G0 Z0.05
X0.7879 Y-0.1048
G1 Z-0.1706 F5.
X0.7592
X0.2348 F59.
X0.1364
G2 Y-0.0447 I0. J0.03
G1 X0.8576
X0.926
G3 Y0.0154 I0. J0.03
G1 X0.068
X0.0166
G2 Y0.0755 I0. J0.03
G1 X0.9774
X1.0168
G3 Y0.1356 I0. J0.03
G1 X-0.0228
X-0.0531
G2 Y0.1957 I0. J0.03
G1 X1.0471
X1.0695
G3 Y0.2558 I0. J0.03
G1 X-0.0755
X-0.0907
G2 Y0.3159 I0. J0.03
G1 X1.0847
X1.0938
G3 Y0.376 I0. J0.03
G1 X-0.0998
X-0.103
G2 Y0.4361 I0. J0.03
G1 X1.097
G3 Y0.4962 I0. J0.03
G1 X-0.103
G2 Y0.5562 I0. J0.03
G1 X1.097
G3 Y0.6163 I0. J0.03
G1 X1.094
X-0.1
G2 Y0.6764 I0. J0.03
G1 X-0.091
X1.085
G3 Y0.7365 I0. J0.03
G1 X1.07
X-0.076
G2 Y0.7966 I0. J0.03
G1 X-0.0539
X1.0479
G3 Y0.8567 I0. J0.03
G1 X1.0177
X-0.0237
G2 Y0.9168 I0. J0.03
G1 X0.0152
X0.9788
G3 Y0.9769 I0. J0.03
G1 X0.9276
X0.0664
G2 Y1.037 I0. J0.03
G1 X0.1343
X0.8597
G0 Z0.05
X0.7879 Y-0.1048
G1 Z-0.1726 F5.
X0.7592
X0.2348 F59.
X0.1364
G2 Y-0.0447 I0. J0.03
G1 X0.8576
X0.926
G3 Y0.0154 I0. J0.03
G1 X0.068
X0.0166
G2 Y0.0755 I0. J0.03
G1 X0.9774
X1.0168
G3 Y0.1356 I0. J0.03
G1 X-0.0228
X-0.0531
G2 Y0.1957 I0. J0.03
G1 X1.0471
X1.0695
G3 Y0.2558 I0. J0.03
G1 X-0.0755
X-0.0907
G2 Y0.3159 I0. J0.03
G1 X1.0847
X1.0938
G3 Y0.376 I0. J0.03
G1 X-0.0998
X-0.103
G2 Y0.4361 I0. J0.03
G1 X1.097
G3 Y0.4962 I0. J0.03
G1 X-0.103
G2 Y0.5562 I0. J0.03
G1 X1.097
G3 Y0.6163 I0. J0.03
G1 X1.094
X-0.1
G2 Y0.6764 I0. J0.03
G1 X-0.091
X1.085
G3 Y0.7365 I0. J0.03
G1 X1.07
X-0.076
G2 Y0.7966 I0. J0.03
G1 X-0.0539
X1.0479
G3 Y0.8567 I0. J0.03
G1 X1.0177
X-0.0237
G2 Y0.9168 I0. J0.03
G1 X0.0152
X0.9788
G3 Y0.9769 I0. J0.03
G1 X0.9276
X0.0664
G2 Y1.037 I0. J0.03
G1 X0.1343
X0.8597
G0 Z0.05
X0.7879 Y-0.1048
G1 Z-0.1746 F5.
X0.7592
X0.2348 F59.
X0.1364
G2 Y-0.0447 I0. J0.03
G1 X0.8576
X0.926
G3 Y0.0154 I0. J0.03
G1 X0.068
X0.0166
G2 Y0.0755 I0. J0.03
G1 X0.9774
X1.0168
G3 Y0.1356 I0. J0.03
G1 X-0.0228
X-0.0531
G2 Y0.1957 I0. J0.03
G1 X1.0471
X1.0695
G3 Y0.2558 I0. J0.03
G1 X-0.0755
X-0.0907
G2 Y0.3159 I0. J0.03
G1 X1.0847
X1.0938
G3 Y0.376 I0. J0.03
G1 X-0.0998
X-0.103
G2 Y0.4361 I0. J0.03
G1 X1.097
G3 Y0.4962 I0. J0.03
G1 X-0.103
G2 Y0.5562 I0. J0.03
G1 X1.097
G3 Y0.6163 I0. J0.03
G1 X1.094
X-0.1
G2 Y0.6764 I0. J0.03
G1 X-0.091
X1.085
G3 Y0.7365 I0. J0.03
G1 X1.07
X-0.076
G2 Y0.7966 I0. J0.03
G1 X-0.0539
X1.0479
G3 Y0.8567 I0. J0.03
G1 X1.0177
X-0.0237
G2 Y0.9168 I0. J0.03
G1 X0.0152
X0.9788
G3 Y0.9769 I0. J0.03
G1 X0.9276
X0.0664
G2 Y1.037 I0. J0.03
G1 X0.1343
X0.8597
G0 Z0.05
X0.7879 Y-0.1048
G1 Z-0.1766 F5.
X0.7592
X0.2348 F59.
X0.1364
G2 Y-0.0447 I0. J0.03
G1 X0.8576
X0.926
G3 Y0.0154 I0. J0.03
G1 X0.068
X0.0166
G2 Y0.0755 I0. J0.03
G1 X0.9774
X1.0168
G3 Y0.1356 I0. J0.03
G1 X-0.0228
X-0.0531
G2 Y0.1957 I0. J0.03
G1 X1.0471
X1.0695
G3 Y0.2558 I0. J0.03
G1 X-0.0755
X-0.0907
G2 Y0.3159 I0. J0.03
G1 X1.0847
X1.0938
G3 Y0.376 I0. J0.03
G1 X-0.0998
X-0.103
G2 Y0.4361 I0. J0.03
G1 X1.097
G3 Y0.4962 I0. J0.03
G1 X-0.103
G2 Y0.5562 I0. J0.03
G1 X1.097
G3 Y0.6163 I0. J0.03
G1 X1.094
X-0.1
G2 Y0.6764 I0. J0.03
G1 X-0.091
X1.085
G3 Y0.7365 I0. J0.03
G1 X1.07
X-0.076
G2 Y0.7966 I0. J0.03
G1 X-0.0539
X1.0479
G3 Y0.8567 I0. J0.03
G1 X1.0177
X-0.0237
G2 Y0.9168 I0. J0.03
G1 X0.0152
X0.9788
G3 Y0.9769 I0. J0.03
G1 X0.9276
X0.0664
G2 Y1.037 I0. J0.03
G1 X0.1343
X0.8597
G0 Z0.05
X0.7879 Y-0.1048
G1 Z-0.1786 F5.
X0.7592
X0.2348 F59.
X0.1364
G2 Y-0.0447 I0. J0.03
G1 X0.8576
X0.926
G3 Y0.0154 I0. J0.03
G1 X0.068
X0.0166
G2 Y0.0755 I0. J0.03
G1 X0.9774
X1.0168
G3 Y0.1356 I0. J0.03
G1 X-0.0228
X-0.0531
G2 Y0.1957 I0. J0.03
G1 X1.0471
X1.0695
G3 Y0.2558 I0. J0.03
G1 X-0.0755
X-0.0907
G2 Y0.3159 I0. J0.03
G1 X1.0847
X1.0938
G3 Y0.376 I0. J0.03
G1 X-0.0998
X-0.103
G2 Y0.4361 I0. J0.03
G1 X1.097
G3 Y0.4962 I0. J0.03
G1 X-0.103
G2 Y0.5562 I0. J0.03
G1 X1.097
G3 Y0.6163 I0. J0.03
G1 X1.094
X-0.1
G2 Y0.6764 I0. J0.03
G1 X-0.091
X1.085
G3 Y0.7365 I0. J0.03
G1 X1.07
X-0.076
G2 Y0.7966 I0. J0.03
G1 X-0.0539
X1.0479
G3 Y0.8567 I0. J0.03
G1 X1.0177
X-0.0237
G2 Y0.9168 I0. J0.03
G1 X0.0152
X0.9788
G3 Y0.9769 I0. J0.03
G1 X0.9276
X0.0664
G2 Y1.037 I0. J0.03
G1 X0.1343
X0.8597
G0 Z0.05
X0.7879 Y-0.1048
G1 Z-0.1806 F5.
X0.7592
X0.2348 F59.
X0.1364
G2 Y-0.0447 I0. J0.03
G1 X0.8576
X0.926
G3 Y0.0154 I0. J0.03
G1 X0.068
X0.0166
G2 Y0.0755 I0. J0.03
G1 X0.9774
X1.0168
G3 Y0.1356 I0. J0.03
G1 X-0.0228
X-0.0531
G2 Y0.1957 I0. J0.03
G1 X1.0471
X1.0695
G3 Y0.2558 I0. J0.03
G1 X-0.0755
X-0.0907
G2 Y0.3159 I0. J0.03
G1 X1.0847
X1.0938
G3 Y0.376 I0. J0.03
G1 X-0.0998
X-0.103
G2 Y0.4361 I0. J0.03
G1 X1.097
G3 Y0.4962 I0. J0.03
G1 X-0.103
G2 Y0.5562 I0. J0.03
G1 X1.097
G3 Y0.6163 I0. J0.03
G1 X1.094
X-0.1
G2 Y0.6764 I0. J0.03
G1 X-0.091
X1.085
G3 Y0.7365 I0. J0.03
G1 X1.07
X-0.076
G2 Y0.7966 I0. J0.03
G1 X-0.0539
X1.0479
G3 Y0.8567 I0. J0.03
G1 X1.0177
X-0.0237
G2 Y0.9168 I0. J0.03
G1 X0.0152
X0.9788
G3 Y0.9769 I0. J0.03
G1 X0.9276
X0.0664
G2 Y1.037 I0. J0.03
G1 X0.1343
X0.8597
G0 Z0.05
X0.7879 Y-0.1048
G1 Z-0.1826 F5.
X0.7592
X0.2348 F59.
X0.1364
G2 Y-0.0447 I0. J0.03
G1 X0.8576
X0.926
G3 Y0.0154 I0. J0.03
G1 X0.068
X0.0166
G2 Y0.0755 I0. J0.03
G1 X0.9774
X1.0168
G3 Y0.1356 I0. J0.03
G1 X-0.0228
X-0.0531
G2 Y0.1957 I0. J0.03
G1 X1.0471
X1.0695
G3 Y0.2558 I0. J0.03
G1 X-0.0755
X-0.0907
G2 Y0.3159 I0. J0.03
G1 X1.0847
X1.0938
G3 Y0.376 I0. J0.03
G1 X-0.0998
X-0.103
G2 Y0.4361 I0. J0.03
G1 X1.097
G3 Y0.4962 I0. J0.03
G1 X-0.103
G2 Y0.5562 I0. J0.03
G1 X1.097
G3 Y0.6163 I0. J0.03
G1 X1.094
X-0.1
G2 Y0.6764 I0. J0.03
G1 X-0.091
X1.085
G3 Y0.7365 I0. J0.03
G1 X1.07
X-0.076
G2 Y0.7966 I0. J0.03
G1 X-0.0539
X1.0479
G3 Y0.8567 I0. J0.03
G1 X1.0177
X-0.0237
G2 Y0.9168 I0. J0.03
G1 X0.0152
X0.9788
G3 Y0.9769 I0. J0.03
G1 X0.9276
X0.0664
G2 Y1.037 I0. J0.03
G1 X0.1343
X0.8597
G0 Z0.05
X0.7879 Y-0.1048
G1 Z-0.1846 F5.
X0.7592
X0.2348 F59.
X0.1364
G2 Y-0.0447 I0. J0.03
G1 X0.8576
X0.926
G3 Y0.0154 I0. J0.03
G1 X0.068
X0.0166
G2 Y0.0755 I0. J0.03
G1 X0.9774
X1.0168
G3 Y0.1356 I0. J0.03
G1 X-0.0228
X-0.0531
G2 Y0.1957 I0. J0.03
G1 X1.0471
X1.0695
G3 Y0.2558 I0. J0.03
G1 X-0.0755
X-0.0907
G2 Y0.3159 I0. J0.03
G1 X1.0847
X1.0938
G3 Y0.376 I0. J0.03
G1 X-0.0998
X-0.103
G2 Y0.4361 I0. J0.03
G1 X1.097
G3 Y0.4962 I0. J0.03
G1 X-0.103
G2 Y0.5562 I0. J0.03
G1 X1.097
G3 Y0.6163 I0. J0.03
G1 X1.094
X-0.1
G2 Y0.6764 I0. J0.03
G1 X-0.091
X1.085
G3 Y0.7365 I0. J0.03
G1 X1.07
X-0.076
G2 Y0.7966 I0. J0.03
G1 X-0.0539
X1.0479
G3 Y0.8567 I0. J0.03
G1 X1.0177
X-0.0237
G2 Y0.9168 I0. J0.03
G1 X0.0152
X0.9788
G3 Y0.9769 I0. J0.03
G1 X0.9276
X0.0664
G2 Y1.037 I0. J0.03
G1 X0.1343
X0.8597
G0 Z0.05
X0.7879 Y-0.1048
G1 Z-0.1866 F5.
X0.7592
X0.2348 F59.
X0.1364
G2 Y-0.0447 I0. J0.03
G1 X0.8576
X0.926
G3 Y0.0154 I0. J0.03
G1 X0.068
X0.0166
G2 Y0.0755 I0. J0.03
G1 X0.9774
X1.0168
G3 Y0.1356 I0. J0.03
G1 X-0.0228
X-0.0531
G2 Y0.1957 I0. J0.03
G1 X1.0471
X1.0695
G3 Y0.2558 I0. J0.03
G1 X-0.0755
X-0.0907
G2 Y0.3159 I0. J0.03
G1 X1.0847
X1.0938
G3 Y0.376 I0. J0.03
G1 X-0.0998
X-0.103
G2 Y0.4361 I0. J0.03
G1 X1.097
G3 Y0.4962 I0. J0.03
G1 X-0.103
G2 Y0.5562 I0. J0.03
G1 X1.097
G3 Y0.6163 I0. J0.03
G1 X1.094
X-0.1
G2 Y0.6764 I0. J0.03
G1 X-0.091
X1.085
G3 Y0.7365 I0. J0.03
G1 X1.07
X-0.076
G2 Y0.7966 I0. J0.03
G1 X-0.0539
X1.0479
G3 Y0.8567 I0. J0.03
G1 X1.0177
X-0.0237
G2 Y0.9168 I0. J0.03
G1 X0.0152
X0.9788
G3 Y0.9769 I0. J0.03
G1 X0.9276
X0.0664
G2 Y1.037 I0. J0.03
G1 X0.1343
X0.8597
G0 Z0.05
X0.7879 Y-0.1048
G1 Z-0.1886 F5.
X0.7592
X0.2348 F59.
X0.1364
G2 Y-0.0447 I0. J0.03
G1 X0.8576
X0.926
G3 Y0.0154 I0. J0.03
G1 X0.068
X0.0166
G2 Y0.0755 I0. J0.03
G1 X0.9774
X1.0168
G3 Y0.1356 I0. J0.03
G1 X-0.0228
X-0.0531
G2 Y0.1957 I0. J0.03
G1 X1.0471
X1.0695
G3 Y0.2558 I0. J0.03
G1 X-0.0755
X-0.0907
G2 Y0.3159 I0. J0.03
G1 X1.0847
X1.0938
G3 Y0.376 I0. J0.03
G1 X-0.0998
X-0.103
G2 Y0.4361 I0. J0.03
G1 X1.097
G3 Y0.4962 I0. J0.03
G1 X-0.103
G2 Y0.5562 I0. J0.03
G1 X1.097
G3 Y0.6163 I0. J0.03
G1 X1.094
X-0.1
G2 Y0.6764 I0. J0.03
G1 X-0.091
X1.085
G3 Y0.7365 I0. J0.03
G1 X1.07
X-0.076
G2 Y0.7966 I0. J0.03
G1 X-0.0539
X1.0479
G3 Y0.8567 I0. J0.03
G1 X1.0177
X-0.0237
G2 Y0.9168 I0. J0.03
G1 X0.0152
X0.9788
G3 Y0.9769 I0. J0.03
G1 X0.9276
X0.0664
G2 Y1.037 I0. J0.03
G1 X0.1343
X0.8597
G0 Z0.05
X0.7879 Y-0.1048
G1 Z-0.1906 F5.
X0.7592
X0.2348 F59.
X0.1364
G2 Y-0.0447 I0. J0.03
G1 X0.8576
X0.926
G3 Y0.0154 I0. J0.03
G1 X0.068
X0.0166
G2 Y0.0755 I0. J0.03
G1 X0.9774
X1.0168
G3 Y0.1356 I0. J0.03
G1 X-0.0228
X-0.0531
G2 Y0.1957 I0. J0.03
G1 X1.0471
X1.0695
G3 Y0.2558 I0. J0.03
G1 X-0.0755
X-0.0907
G2 Y0.3159 I0. J0.03
G1 X1.0847
X1.0938
G3 Y0.376 I0. J0.03
G1 X-0.0998
X-0.103
G2 Y0.4361 I0. J0.03
G1 X1.097
G3 Y0.4962 I0. J0.03
G1 X-0.103
G2 Y0.5562 I0. J0.03
G1 X1.097
G3 Y0.6163 I0. J0.03
G1 X1.094
X-0.1
G2 Y0.6764 I0. J0.03
G1 X-0.091
X1.085
G3 Y0.7365 I0. J0.03
G1 X1.07
X-0.076
G2 Y0.7966 I0. J0.03
G1 X-0.0539
X1.0479
G3 Y0.8567 I0. J0.03
G1 X1.0177
X-0.0237
G2 Y0.9168 I0. J0.03
G1 X0.0152
X0.9788
G3 Y0.9769 I0. J0.03
G1 X0.9276
X0.0664
G2 Y1.037 I0. J0.03
G1 X0.1343
X0.8597
G0 Z0.05
X0.7879 Y-0.1048
G1 Z-0.1926 F5.
X0.7592
X0.2348 F59.
X0.1364
G2 Y-0.0447 I0. J0.03
G1 X0.8576
X0.926
G3 Y0.0154 I0. J0.03
G1 X0.068
X0.0166
G2 Y0.0755 I0. J0.03
G1 X0.9774
X1.0168
G3 Y0.1356 I0. J0.03
G1 X-0.0228
X-0.0531
G2 Y0.1957 I0. J0.03
G1 X1.0471
X1.0695
G3 Y0.2558 I0. J0.03
G1 X-0.0755
X-0.0907
G2 Y0.3159 I0. J0.03
G1 X1.0847
X1.0938
G3 Y0.376 I0. J0.03
G1 X-0.0998
X-0.103
G2 Y0.4361 I0. J0.03
G1 X1.097
G3 Y0.4962 I0. J0.03
G1 X-0.103
G2 Y0.5562 I0. J0.03
G1 X1.097
G3 Y0.6163 I0. J0.03
G1 X1.094
X-0.1
G2 Y0.6764 I0. J0.03
G1 X-0.091
X1.085
G3 Y0.7365 I0. J0.03
G1 X1.07
X-0.076
G2 Y0.7966 I0. J0.03
G1 X-0.0539
X1.0479
G3 Y0.8567 I0. J0.03
G1 X1.0177
X-0.0237
G2 Y0.9168 I0. J0.03
G1 X0.0152
X0.9788
G3 Y0.9769 I0. J0.03
G1 X0.9276
X0.0664
G2 Y1.037 I0. J0.03
G1 X0.1343
X0.8597
G0 Z0.05
X0.7879 Y-0.1048
G1 Z-0.1946 F5.
X0.7592
X0.2348 F59.
X0.1364
G2 Y-0.0447 I0. J0.03
G1 X0.8576
X0.926
G3 Y0.0154 I0. J0.03
G1 X0.068
X0.0166
G2 Y0.0755 I0. J0.03
G1 X0.9774
X1.0168
G3 Y0.1356 I0. J0.03
G1 X-0.0228
X-0.0531
G2 Y0.1957 I0. J0.03
G1 X1.0471
X1.0695
G3 Y0.2558 I0. J0.03
G1 X-0.0755
X-0.0907
G2 Y0.3159 I0. J0.03
G1 X1.0847
X1.0938
G3 Y0.376 I0. J0.03
G1 X-0.0998
X-0.103
G2 Y0.4361 I0. J0.03
G1 X1.097
G3 Y0.4962 I0. J0.03
G1 X-0.103
G2 Y0.5562 I0. J0.03
G1 X1.097
G3 Y0.6163 I0. J0.03
G1 X1.094
X-0.1
G2 Y0.6764 I0. J0.03
G1 X-0.091
X1.085
G3 Y0.7365 I0. J0.03
G1 X1.07
X-0.076
G2 Y0.7966 I0. J0.03
G1 X-0.0539
X1.0479
G3 Y0.8567 I0. J0.03
G1 X1.0177
X-0.0237
G2 Y0.9168 I0. J0.03
G1 X0.0152
X0.9788
G3 Y0.9769 I0. J0.03
G1 X0.9276
X0.0664
G2 Y1.037 I0. J0.03
G1 X0.1343
X0.8597
G0 Z0.05
X0.7879 Y-0.1048
G1 Z-0.1966 F5.
X0.7592
X0.2348 F59.
X0.1364
G2 Y-0.0447 I0. J0.03
G1 X0.8576
X0.926
G3 Y0.0154 I0. J0.03
G1 X0.068
X0.0166
G2 Y0.0755 I0. J0.03
G1 X0.9774
X1.0168
G3 Y0.1356 I0. J0.03
G1 X-0.0228
X-0.0531
G2 Y0.1957 I0. J0.03
G1 X1.0471
X1.0695
G3 Y0.2558 I0. J0.03
G1 X-0.0755
X-0.0907
G2 Y0.3159 I0. J0.03
G1 X1.0847
X1.0938
G3 Y0.376 I0. J0.03
G1 X-0.0998
X-0.103
G2 Y0.4361 I0. J0.03
G1 X1.097
G3 Y0.4962 I0. J0.03
G1 X-0.103
G2 Y0.5562 I0. J0.03
G1 X1.097
G3 Y0.6163 I0. J0.03
G1 X1.094
X-0.1
G2 Y0.6764 I0. J0.03
G1 X-0.091
X1.085
G3 Y0.7365 I0. J0.03
G1 X1.07
X-0.076
G2 Y0.7966 I0. J0.03
G1 X-0.0539
X1.0479
G3 Y0.8567 I0. J0.03
G1 X1.0177
X-0.0237
G2 Y0.9168 I0. J0.03
G1 X0.0152
X0.9788
G3 Y0.9769 I0. J0.03
G1 X0.9276
X0.0664
G2 Y1.037 I0. J0.03
G1 X0.1343
X0.8597
G0 Z0.05
X0.7879 Y-0.1048
G1 Z-0.1986 F5.
X0.7592
X0.2348 F59.
X0.1364
G2 Y-0.0447 I0. J0.03
G1 X0.8576
X0.926
G3 Y0.0154 I0. J0.03
G1 X0.068
X0.0166
G2 Y0.0755 I0. J0.03
G1 X0.9774
X1.0168
G3 Y0.1356 I0. J0.03
G1 X-0.0228
X-0.0531
G2 Y0.1957 I0. J0.03
G1 X1.0471
X1.0695
G3 Y0.2558 I0. J0.03
G1 X-0.0755
X-0.0907
G2 Y0.3159 I0. J0.03
G1 X1.0847
X1.0938
G3 Y0.376 I0. J0.03
G1 X-0.0998
X-0.103
G2 Y0.4361 I0. J0.03
G1 X1.097
G3 Y0.4962 I0. J0.03
G1 X-0.103
G2 Y0.5562 I0. J0.03
G1 X1.097
G3 Y0.6163 I0. J0.03
G1 X1.094
X-0.1
G2 Y0.6764 I0. J0.03
G1 X-0.091
X1.085
G3 Y0.7365 I0. J0.03
G1 X1.07
X-0.076
G2 Y0.7966 I0. J0.03
G1 X-0.0539
X1.0479
G3 Y0.8567 I0. J0.03
G1 X1.0177
X-0.0237
G2 Y0.9168 I0. J0.03
G1 X0.0152
X0.9788
G3 Y0.9769 I0. J0.03
G1 X0.9276
X0.0664
G2 Y1.037 I0. J0.03
G1 X0.1343
X0.8597
G0 Z0.05
X0.7879 Y-0.1048
G1 Z-0.2006 F5.
X0.7592
X0.2348 F59.
X0.1364
G2 Y-0.0447 I0. J0.03
G1 X0.8576
X0.926
G3 Y0.0154 I0. J0.03
G1 X0.068
X0.0166
G2 Y0.0755 I0. J0.03
G1 X0.9774
X1.0168
G3 Y0.1356 I0. J0.03
G1 X-0.0228
X-0.0531
G2 Y0.1957 I0. J0.03
G1 X1.0471
X1.0695
G3 Y0.2558 I0. J0.03
G1 X-0.0755
X-0.0907
G2 Y0.3159 I0. J0.03
G1 X1.0847
X1.0938
G3 Y0.376 I0. J0.03
G1 X-0.0998
X-0.103
G2 Y0.4361 I0. J0.03
G1 X1.097
G3 Y0.4962 I0. J0.03
G1 X-0.103
G2 Y0.5562 I0. J0.03
G1 X1.097
G3 Y0.6163 I0. J0.03
G1 X1.094
X-0.1
G2 Y0.6764 I0. J0.03
G1 X-0.091
X1.085
G3 Y0.7365 I0. J0.03
G1 X1.07
X-0.076
G2 Y0.7966 I0. J0.03
G1 X-0.0539
X1.0479
G3 Y0.8567 I0. J0.03
G1 X1.0177
X-0.0237
G2 Y0.9168 I0. J0.03
G1 X0.0152
X0.9788
G3 Y0.9769 I0. J0.03
G1 X0.9276
X0.0664
G2 Y1.037 I0. J0.03
G1 X0.1343
X0.8597
G0 Z0.05
X0.7879 Y-0.1048
G1 Z-0.2026 F5.
X0.7592
X0.2348 F59.
X0.1364
G2 Y-0.0447 I0. J0.03
G1 X0.8576
X0.926
G3 Y0.0154 I0. J0.03
G1 X0.068
X0.0166
G2 Y0.0755 I0. J0.03
G1 X0.9774
X1.0168
G3 Y0.1356 I0. J0.03
G1 X-0.0228
X-0.0531
G2 Y0.1957 I0. J0.03
G1 X1.0471
X1.0695
G3 Y0.2558 I0. J0.03
G1 X-0.0755
X-0.0907
G2 Y0.3159 I0. J0.03
G1 X1.0847
X1.0938
G3 Y0.376 I0. J0.03
G1 X-0.0998
X-0.103
G2 Y0.4361 I0. J0.03
G1 X1.097
G3 Y0.4962 I0. J0.03
G1 X-0.103
G2 Y0.5562 I0. J0.03
G1 X1.097
G3 Y0.6163 I0. J0.03
G1 X1.094
X-0.1
G2 Y0.6764 I0. J0.03
G1 X-0.091
X1.085
G3 Y0.7365 I0. J0.03
G1 X1.07
X-0.076
G2 Y0.7966 I0. J0.03
G1 X-0.0539
X1.0479
G3 Y0.8567 I0. J0.03
G1 X1.0177
X-0.0237
G2 Y0.9168 I0. J0.03
G1 X0.0152
X0.9788
G3 Y0.9769 I0. J0.03
G1 X0.9276
X0.0664
G2 Y1.037 I0. J0.03
G1 X0.1343
X0.8597
G0 Z0.05
X0.7879 Y-0.1048
G1 Z-0.2046 F5.
X0.7592
X0.2348 F59.
X0.1364
G2 Y-0.0447 I0. J0.03
G1 X0.8576
X0.926
G3 Y0.0154 I0. J0.03
G1 X0.068
X0.0166
G2 Y0.0755 I0. J0.03
G1 X0.9774
X1.0168
G3 Y0.1356 I0. J0.03
G1 X-0.0228
X-0.0531
G2 Y0.1957 I0. J0.03
G1 X1.0471
X1.0695
G3 Y0.2558 I0. J0.03
G1 X-0.0755
X-0.0907
G2 Y0.3159 I0. J0.03
G1 X1.0847
X1.0938
G3 Y0.376 I0. J0.03
G1 X-0.0998
X-0.103
G2 Y0.4361 I0. J0.03
G1 X1.097
G3 Y0.4962 I0. J0.03
G1 X-0.103
G2 Y0.5562 I0. J0.03
G1 X1.097
G3 Y0.6163 I0. J0.03
G1 X1.094
X-0.1
G2 Y0.6764 I0. J0.03
G1 X-0.091
X1.085
G3 Y0.7365 I0. J0.03
G1 X1.07
X-0.076
G2 Y0.7966 I0. J0.03
G1 X-0.0539
X1.0479
G3 Y0.8567 I0. J0.03
G1 X1.0177
X-0.0237
G2 Y0.9168 I0. J0.03
G1 X0.0152
X0.9788
G3 Y0.9769 I0. J0.03
G1 X0.9276
X0.0664
G2 Y1.037 I0. J0.03
G1 X0.1343
X0.8597
G0 Z0.05
X0.7879 Y-0.1048
G1 Z-0.2066 F5.
X0.7592
X0.2348 F59.
X0.1364
G2 Y-0.0447 I0. J0.03
G1 X0.8576
X0.926
G3 Y0.0154 I0. J0.03
G1 X0.068
X0.0166
G2 Y0.0755 I0. J0.03
G1 X0.9774
X1.0168
G3 Y0.1356 I0. J0.03
G1 X-0.0228
X-0.0531
G2 Y0.1957 I0. J0.03
G1 X1.0471
X1.0695
G3 Y0.2558 I0. J0.03
G1 X-0.0755
X-0.0907
G2 Y0.3159 I0. J0.03
G1 X1.0847
X1.0938
G3 Y0.376 I0. J0.03
G1 X-0.0998
X-0.103
G2 Y0.4361 I0. J0.03
G1 X1.097
G3 Y0.4962 I0. J0.03
G1 X-0.103
G2 Y0.5562 I0. J0.03
G1 X1.097
G3 Y0.6163 I0. J0.03
G1 X1.094
X-0.1
G2 Y0.6764 I0. J0.03
G1 X-0.091
X1.085
G3 Y0.7365 I0. J0.03
G1 X1.07
X-0.076
G2 Y0.7966 I0. J0.03
G1 X-0.0539
X1.0479
G3 Y0.8567 I0. J0.03
G1 X1.0177
X-0.0237
G2 Y0.9168 I0. J0.03
G1 X0.0152
X0.9788
G3 Y0.9769 I0. J0.03
G1 X0.9276
X0.0664
G2 Y1.037 I0. J0.03
G1 X0.1343
X0.8597
G0 Z0.05
X0.7879 Y-0.1048
G1 Z-0.2086 F5.
X0.7592
X0.2348 F59.
X0.1364
G2 Y-0.0447 I0. J0.03
G1 X0.8576
X0.926
G3 Y0.0154 I0. J0.03
G1 X0.068
X0.0166
G2 Y0.0755 I0. J0.03
G1 X0.9774
X1.0168
G3 Y0.1356 I0. J0.03
G1 X-0.0228
X-0.0531
G2 Y0.1957 I0. J0.03
G1 X1.0471
X1.0695
G3 Y0.2558 I0. J0.03
G1 X-0.0755
X-0.0907
G2 Y0.3159 I0. J0.03
G1 X1.0847
X1.0938
G3 Y0.376 I0. J0.03
G1 X-0.0998
X-0.103
G2 Y0.4361 I0. J0.03
G1 X1.097
G3 Y0.4962 I0. J0.03
G1 X-0.103
G2 Y0.5562 I0. J0.03
G1 X1.097
G3 Y0.6163 I0. J0.03
G1 X1.094
X-0.1
G2 Y0.6764 I0. J0.03
G1 X-0.091
X1.085
G3 Y0.7365 I0. J0.03
G1 X1.07
X-0.076
G2 Y0.7966 I0. J0.03
G1 X-0.0539
X1.0479
G3 Y0.8567 I0. J0.03
G1 X1.0177
X-0.0237
G2 Y0.9168 I0. J0.03
G1 X0.0152
X0.9788
G3 Y0.9769 I0. J0.03
G1 X0.9276
X0.0664
G2 Y1.037 I0. J0.03
G1 X0.1343
X0.8597
G0 Z0.05
X0.7879 Y-0.1048
G1 Z-0.2106 F5.
X0.7592
X0.2348 F59.
X0.1364
G2 Y-0.0447 I0. J0.03
G1 X0.8576
X0.926
G3 Y0.0154 I0. J0.03
G1 X0.068
X0.0166
G2 Y0.0755 I0. J0.03
G1 X0.9774
X1.0168
G3 Y0.1356 I0. J0.03
G1 X-0.0228
X-0.0531
G2 Y0.1957 I0. J0.03
G1 X1.0471
X1.0695
G3 Y0.2558 I0. J0.03
G1 X-0.0755
X-0.0907
G2 Y0.3159 I0. J0.03
G1 X1.0847
X1.0938
G3 Y0.376 I0. J0.03
G1 X-0.0998
X-0.103
G2 Y0.4361 I0. J0.03
G1 X1.097
G3 Y0.4962 I0. J0.03
G1 X-0.103
G2 Y0.5562 I0. J0.03
G1 X1.097
G3 Y0.6163 I0. J0.03
G1 X1.094
X-0.1
G2 Y0.6764 I0. J0.03
G1 X-0.091
X1.085
G3 Y0.7365 I0. J0.03
G1 X1.07
X-0.076
G2 Y0.7966 I0. J0.03
G1 X-0.0539
X1.0479
G3 Y0.8567 I0. J0.03
G1 X1.0177
X-0.0237
G2 Y0.9168 I0. J0.03
G1 X0.0152
X0.9788
G3 Y0.9769 I0. J0.03
G1 X0.9276
X0.0664
G2 Y1.037 I0. J0.03
G1 X0.1343
X0.8597
G0 Z0.05
X0.7879 Y-0.1048
G1 Z-0.2126 F5.
X0.7592
X0.2348 F59.
X0.1364
G2 Y-0.0447 I0. J0.03
G1 X0.8576
X0.926
G3 Y0.0154 I0. J0.03
G1 X0.068
X0.0166
G2 Y0.0755 I0. J0.03
G1 X0.9774
X1.0168
G3 Y0.1356 I0. J0.03
G1 X-0.0228
X-0.0531
G2 Y0.1957 I0. J0.03
G1 X1.0471
X1.0695
G3 Y0.2558 I0. J0.03
G1 X-0.0755
X-0.0907
G2 Y0.3159 I0. J0.03
G1 X1.0847
X1.0938
G3 Y0.376 I0. J0.03
G1 X-0.0998
X-0.103
G2 Y0.4361 I0. J0.03
G1 X1.097
G3 Y0.4962 I0. J0.03
G1 X-0.103
G2 Y0.5562 I0. J0.03
G1 X1.097
G3 Y0.6163 I0. J0.03
G1 X1.094
X-0.1
G2 Y0.6764 I0. J0.03
G1 X-0.091
X1.085
G3 Y0.7365 I0. J0.03
G1 X1.07
X-0.076
G2 Y0.7966 I0. J0.03
G1 X-0.0539
X1.0479
G3 Y0.8567 I0. J0.03
G1 X1.0177
X-0.0237
G2 Y0.9168 I0. J0.03
G1 X0.0152
X0.9788
G3 Y0.9769 I0. J0.03
G1 X0.9276
X0.0664
G2 Y1.037 I0. J0.03
G1 X0.1343
X0.8597
G0 Z0.05
X0.7879 Y-0.1048
G1 Z-0.2146 F5.
X0.7592
X0.2348 F59.
X0.1364
G2 Y-0.0447 I0. J0.03
G1 X0.8576
X0.926
G3 Y0.0154 I0. J0.03
G1 X0.068
X0.0166
G2 Y0.0755 I0. J0.03
G1 X0.9774
X1.0168
G3 Y0.1356 I0. J0.03
G1 X-0.0228
X-0.0531
G2 Y0.1957 I0. J0.03
G1 X1.0471
X1.0695
G3 Y0.2558 I0. J0.03
G1 X-0.0755
X-0.0907
G2 Y0.3159 I0. J0.03
G1 X1.0847
X1.0938
G3 Y0.376 I0. J0.03
G1 X-0.0998
X-0.103
G2 Y0.4361 I0. J0.03
G1 X1.097
G3 Y0.4962 I0. J0.03
G1 X-0.103
G2 Y0.5562 I0. J0.03
G1 X1.097
G3 Y0.6163 I0. J0.03
G1 X1.094
X-0.1
G2 Y0.6764 I0. J0.03
G1 X-0.091
X1.085
G3 Y0.7365 I0. J0.03
G1 X1.07
X-0.076
G2 Y0.7966 I0. J0.03
G1 X-0.0539
X1.0479
G3 Y0.8567 I0. J0.03
G1 X1.0177
X-0.0237
G2 Y0.9168 I0. J0.03
G1 X0.0152
X0.9788
G3 Y0.9769 I0. J0.03
G1 X0.9276
X0.0664
G2 Y1.037 I0. J0.03
G1 X0.1343
X0.8597
G0 Z0.05
X0.7879 Y-0.1048
G1 Z-0.2166 F5.
X0.7592
X0.2348 F59.
X0.1364
G2 Y-0.0447 I0. J0.03
G1 X0.8576
X0.926
G3 Y0.0154 I0. J0.03
G1 X0.068
X0.0166
G2 Y0.0755 I0. J0.03
G1 X0.9774
X1.0168
G3 Y0.1356 I0. J0.03
G1 X-0.0228
X-0.0531
G2 Y0.1957 I0. J0.03
G1 X1.0471
X1.0695
G3 Y0.2558 I0. J0.03
G1 X-0.0755
X-0.0907
G2 Y0.3159 I0. J0.03
G1 X1.0847
X1.0938
G3 Y0.376 I0. J0.03
G1 X-0.0998
X-0.103
G2 Y0.4361 I0. J0.03
G1 X1.097
G3 Y0.4962 I0. J0.03
G1 X-0.103
G2 Y0.5562 I0. J0.03
G1 X1.097
G3 Y0.6163 I0. J0.03
G1 X1.094
X-0.1
G2 Y0.6764 I0. J0.03
G1 X-0.091
X1.085
G3 Y0.7365 I0. J0.03
G1 X1.07
X-0.076
G2 Y0.7966 I0. J0.03
G1 X-0.0539
X1.0479
G3 Y0.8567 I0. J0.03
G1 X1.0177
X-0.0237
G2 Y0.9168 I0. J0.03
G1 X0.0152
X0.9788
G3 Y0.9769 I0. J0.03
G1 X0.9276
X0.0664
G2 Y1.037 I0. J0.03
G1 X0.1343
X0.8597
G0 Z0.05
X0.7879 Y-0.1048
G1 Z-0.2186 F5.
X0.7592
X0.2348 F59.
X0.1364
G2 Y-0.0447 I0. J0.03
G1 X0.8576
X0.926
G3 Y0.0154 I0. J0.03
G1 X0.068
X0.0166
G2 Y0.0755 I0. J0.03
G1 X0.9774
X1.0168
G3 Y0.1356 I0. J0.03
G1 X-0.0228
X-0.0531
G2 Y0.1957 I0. J0.03
G1 X1.0471
X1.0695
G3 Y0.2558 I0. J0.03
G1 X-0.0755
X-0.0907
G2 Y0.3159 I0. J0.03
G1 X1.0847
X1.0938
G3 Y0.376 I0. J0.03
G1 X-0.0998
X-0.103
G2 Y0.4361 I0. J0.03
G1 X1.097
G3 Y0.4962 I0. J0.03
G1 X-0.103
G2 Y0.5562 I0. J0.03
G1 X1.097
G3 Y0.6163 I0. J0.03
G1 X1.094
X-0.1
G2 Y0.6764 I0. J0.03
G1 X-0.091
X1.085
G3 Y0.7365 I0. J0.03
G1 X1.07
X-0.076
G2 Y0.7966 I0. J0.03
G1 X-0.0539
X1.0479
G3 Y0.8567 I0. J0.03
G1 X1.0177
X-0.0237
G2 Y0.9168 I0. J0.03
G1 X0.0152
X0.9788
G3 Y0.9769 I0. J0.03
G1 X0.9276
X0.0664
G2 Y1.037 I0. J0.03
G1 X0.1343
X0.8597
G0 Z0.05
X0.7879 Y-0.1048
G1 Z-0.2206 F5.
X0.7592
X0.2348 F59.
X0.1364
G2 Y-0.0447 I0. J0.03
G1 X0.8576
X0.926
G3 Y0.0154 I0. J0.03
G1 X0.068
X0.0166
G2 Y0.0755 I0. J0.03
G1 X0.9774
X1.0168
G3 Y0.1356 I0. J0.03
G1 X-0.0228
X-0.0531
G2 Y0.1957 I0. J0.03
G1 X1.0471
X1.0695
G3 Y0.2558 I0. J0.03
G1 X-0.0755
X-0.0907
G2 Y0.3159 I0. J0.03
G1 X1.0847
X1.0938
G3 Y0.376 I0. J0.03
G1 X-0.0998
X-0.103
G2 Y0.4361 I0. J0.03
G1 X1.097
G3 Y0.4962 I0. J0.03
G1 X-0.103
G2 Y0.5562 I0. J0.03
G1 X1.097
G3 Y0.6163 I0. J0.03
G1 X1.094
X-0.1
G2 Y0.6764 I0. J0.03
G1 X-0.091
X1.085
G3 Y0.7365 I0. J0.03
G1 X1.07
X-0.076
G2 Y0.7966 I0. J0.03
G1 X-0.0539
X1.0479
G3 Y0.8567 I0. J0.03
G1 X1.0177
X-0.0237
G2 Y0.9168 I0. J0.03
G1 X0.0152
X0.9788
G3 Y0.9769 I0. J0.03
G1 X0.9276
X0.0664
G2 Y1.037 I0. J0.03
G1 X0.1343
X0.8597
G0 Z0.05
X0.7879 Y-0.1048
G1 Z-0.2226 F5.
X0.7592
X0.2348 F59.
X0.1364
G2 Y-0.0447 I0. J0.03
G1 X0.8576
X0.926
G3 Y0.0154 I0. J0.03
G1 X0.068
X0.0166
G2 Y0.0755 I0. J0.03
G1 X0.9774
X1.0168
G3 Y0.1356 I0. J0.03
G1 X-0.0228
X-0.0531
G2 Y0.1957 I0. J0.03
G1 X1.0471
X1.0695
G3 Y0.2558 I0. J0.03
G1 X-0.0755
X-0.0907
G2 Y0.3159 I0. J0.03
G1 X1.0847
X1.0938
G3 Y0.376 I0. J0.03
G1 X-0.0998
X-0.103
G2 Y0.4361 I0. J0.03
G1 X1.097
G3 Y0.4962 I0. J0.03
G1 X-0.103
G2 Y0.5562 I0. J0.03
G1 X1.097
G3 Y0.6163 I0. J0.03
G1 X1.094
X-0.1
G2 Y0.6764 I0. J0.03
G1 X-0.091
X1.085
G3 Y0.7365 I0. J0.03
G1 X1.07
X-0.076
G2 Y0.7966 I0. J0.03
G1 X-0.0539
X1.0479
G3 Y0.8567 I0. J0.03
G1 X1.0177
X-0.0237
G2 Y0.9168 I0. J0.03
G1 X0.0152
X0.9788
G3 Y0.9769 I0. J0.03
G1 X0.9276
X0.0664
G2 Y1.037 I0. J0.03
G1 X0.1343
X0.8597
G0 Z0.05
X0.7879 Y-0.1048
G1 Z-0.2246 F5.
X0.7592
X0.2348 F59.
X0.1364
G2 Y-0.0447 I0. J0.03
G1 X0.8576
X0.926
G3 Y0.0154 I0. J0.03
G1 X0.068
X0.0166
G2 Y0.0755 I0. J0.03
G1 X0.9774
X1.0168
G3 Y0.1356 I0. J0.03
G1 X-0.0228
X-0.0531
G2 Y0.1957 I0. J0.03
G1 X1.0471
X1.0695
G3 Y0.2558 I0. J0.03
G1 X-0.0755
X-0.0907
G2 Y0.3159 I0. J0.03
G1 X1.0847
X1.0938
G3 Y0.376 I0. J0.03
G1 X-0.0998
X-0.103
G2 Y0.4361 I0. J0.03
G1 X1.097
G3 Y0.4962 I0. J0.03
G1 X-0.103
G2 Y0.5562 I0. J0.03
G1 X1.097
G3 Y0.6163 I0. J0.03
G1 X1.094
X-0.1
G2 Y0.6764 I0. J0.03
G1 X-0.091
X1.085
G3 Y0.7365 I0. J0.03
G1 X1.07
X-0.076
G2 Y0.7966 I0. J0.03
G1 X-0.0539
X1.0479
G3 Y0.8567 I0. J0.03
G1 X1.0177
X-0.0237
G2 Y0.9168 I0. J0.03
G1 X0.0152
X0.9788
G3 Y0.9769 I0. J0.03
G1 X0.9276
X0.0664
G2 Y1.037 I0. J0.03
G1 X0.1343
X0.8597
G0 Z0.05
X0.7879 Y-0.1048
G1 Z-0.2266 F5.
X0.7592
X0.2348 F59.
X0.1364
G2 Y-0.0447 I0. J0.03
G1 X0.8576
X0.926
G3 Y0.0154 I0. J0.03
G1 X0.068
X0.0166
G2 Y0.0755 I0. J0.03
G1 X0.9774
X1.0168
G3 Y0.1356 I0. J0.03
G1 X-0.0228
X-0.0531
G2 Y0.1957 I0. J0.03
G1 X1.0471
X1.0695
G3 Y0.2558 I0. J0.03
G1 X-0.0755
X-0.0907
G2 Y0.3159 I0. J0.03
G1 X1.0847
X1.0938
G3 Y0.376 I0. J0.03
G1 X-0.0998
X-0.103
G2 Y0.4361 I0. J0.03
G1 X1.097
G3 Y0.4962 I0. J0.03
G1 X-0.103
G2 Y0.5562 I0. J0.03
G1 X1.097
G3 Y0.6163 I0. J0.03
G1 X1.094
X-0.1
G2 Y0.6764 I0. J0.03
G1 X-0.091
X1.085
G3 Y0.7365 I0. J0.03
G1 X1.07
X-0.076
G2 Y0.7966 I0. J0.03
G1 X-0.0539
X1.0479
G3 Y0.8567 I0. J0.03
G1 X1.0177
X-0.0237
G2 Y0.9168 I0. J0.03
G1 X0.0152
X0.9788
G3 Y0.9769 I0. J0.03
G1 X0.9276
X0.0664
G2 Y1.037 I0. J0.03
G1 X0.1343
X0.8597
G0 Z0.05
X0.7879 Y-0.1048
G1 Z-0.2286 F5.
X0.7592
X0.2348 F59.
X0.1364
G2 Y-0.0447 I0. J0.03
G1 X0.8576
X0.926
G3 Y0.0154 I0. J0.03
G1 X0.068
X0.0166
G2 Y0.0755 I0. J0.03
G1 X0.9774
X1.0168
G3 Y0.1356 I0. J0.03
G1 X-0.0228
X-0.0531
G2 Y0.1957 I0. J0.03
G1 X1.0471
X1.0695
G3 Y0.2558 I0. J0.03
G1 X-0.0755
X-0.0907
G2 Y0.3159 I0. J0.03
G1 X1.0847
X1.0938
G3 Y0.376 I0. J0.03
G1 X-0.0998
X-0.103
G2 Y0.4361 I0. J0.03
G1 X1.097
G3 Y0.4962 I0. J0.03
G1 X-0.103
G2 Y0.5562 I0. J0.03
G1 X1.097
G3 Y0.6163 I0. J0.03
G1 X1.094
X-0.1
G2 Y0.6764 I0. J0.03
G1 X-0.091
X1.085
G3 Y0.7365 I0. J0.03
G1 X1.07
X-0.076
G2 Y0.7966 I0. J0.03
G1 X-0.0539
X1.0479
G3 Y0.8567 I0. J0.03
G1 X1.0177
X-0.0237
G2 Y0.9168 I0. J0.03
G1 X0.0152
X0.9788
G3 Y0.9769 I0. J0.03
G1 X0.9276
X0.0664
G2 Y1.037 I0. J0.03
G1 X0.1343
X0.8597
G0 Z0.05
X0.7879 Y-0.1048
G1 Z-0.2306 F5.
X0.7592
X0.2348 F59.
X0.1364
G2 Y-0.0447 I0. J0.03
G1 X0.8576
X0.926
G3 Y0.0154 I0. J0.03
G1 X0.068
X0.0166
G2 Y0.0755 I0. J0.03
G1 X0.9774
X1.0168
G3 Y0.1356 I0. J0.03
G1 X-0.0228
X-0.0531
G2 Y0.1957 I0. J0.03
G1 X1.0471
X1.0695
G3 Y0.2558 I0. J0.03
G1 X-0.0755
X-0.0907
G2 Y0.3159 I0. J0.03
G1 X1.0847
X1.0938
G3 Y0.376 I0. J0.03
G1 X-0.0998
X-0.103
G2 Y0.4361 I0. J0.03
G1 X1.097
G3 Y0.4962 I0. J0.03
G1 X-0.103
G2 Y0.5562 I0. J0.03
G1 X1.097
G3 Y0.6163 I0. J0.03
G1 X1.094
X-0.1
G2 Y0.6764 I0. J0.03
