(1001)
(FACING AND RAMP PATHS)
(T1  D=0.125 CR=0. - ZMIN=-0.251 - FLAT END MILL)
G0 G90 G94 G17
G20
G53 Z0.

(FACE1)
M5
M9
T1
S16500 M3
G55
M9
G0 X1.1729 Y0.2802
Z0.65
Z0.05
G1 Z0. F5.
X1.1442
X0.6198 F59.
X0.5214
G2 Y0.3403 I0. J0.03
G1 X1.2426
X1.311
G3 Y0.4004 I0. J0.03
G1 X0.453
X0.4016
G2 Y0.4605 I0. J0.03
G1 X1.3624
X1.4018
G3 Y0.5206 I0. J0.03
G1 X0.3622
X0.3319
G2 Y0.5807 I0. J0.03
G1 X1.4321
X1.4545
G3 Y0.6408 I0. J0.03
G1 X0.3095
X0.2943
G2 Y0.7009 I0. J0.03
G1 X1.4697
X1.4788
G3 Y0.761 I0. J0.03
G1 X0.2852
X0.282
G2 Y0.8211 I0. J0.03
G1 X1.482
G3 Y0.8812 I0. J0.03
G1 X0.282
G2 Y0.9412 I0. J0.03
G1 X1.482
G3 Y1.0013 I0. J0.03
G1 X1.479
X0.285
G2 Y1.0614 I0. J0.03
G1 X0.294
X1.47
G3 Y1.1215 I0. J0.03
G1 X1.455
X0.309
G2 Y1.1816 I0. J0.03
G1 X0.3311
X1.4329
G3 Y1.2417 I0. J0.03
G1 X1.4027
X0.3613
G2 Y1.3018 I0. J0.03
G1 X0.4002
X1.3638
G3 Y1.3619 I0. J0.03
G1 X1.3126
X0.4514
G2 Y1.422 I0. J0.03
G1 X0.5193
X1.2447
G0 Z0.05
X1.1729 Y0.2802
G1 Z-0.002 F5.
X1.1442
X0.6198 F59.
X0.5214
G2 Y0.3403 I0. J0.03
G1 X1.2426
X1.311
G3 Y0.4004 I0. J0.03
G1 X0.453
X0.4016
G2 Y0.4605 I0. J0.03
G1 X1.3624
X1.4018
G3 Y0.5206 I0. J0.03
G1 X0.3622
X0.3319
G2 Y0.5807 I0. J0.03
G1 X1.4321
X1.4545
G3 Y0.6408 I0. J0.03
G1 X0.3095
X0.2943
G2 Y0.7009 I0. J0.03
G1 X1.4697
X1.4788
G3 Y0.761 I0. J0.03
G1 X0.2852
X0.282
G2 Y0.8211 I0. J0.03
G1 X1.482
G3 Y0.8812 I0. J0.03
G1 X0.282
G2 Y0.9412 I0. J0.03
G1 X1.482
G3 Y1.0013 I0. J0.03
G1 X1.479
X0.285
G2 Y1.0614 I0. J0.03
G1 X0.294
X1.47
G3 Y1.1215 I0. J0.03
G1 X1.455
X0.309
G2 Y1.1816 I0. J0.03
G1 X0.3311
X1.4329
G3 Y1.2417 I0. J0.03
G1 X1.4027
X0.3613
G2 Y1.3018 I0. J0.03
G1 X0.4002
X1.3638
G3 Y1.3619 I0. J0.03
G1 X1.3126
X0.4514
G2 Y1.422 I0. J0.03
G1 X0.5193
X1.2447
G0 Z0.05
X1.1729 Y0.2802
G1 Z-0.004 F5.
X1.1442
X0.6198 F59.
X0.5214
G2 Y0.3403 I0. J0.03
G1 X1.2426
X1.311
G3 Y0.4004 I0. J0.03
G1 X0.453
X0.4016
G2 Y0.4605 I0. J0.03
G1 X1.3624
X1.4018
G3 Y0.5206 I0. J0.03
G1 X0.3622
X0.3319
G2 Y0.5807 I0. J0.03
G1 X1.4321
X1.4545
G3 Y0.6408 I0. J0.03
G1 X0.3095
X0.2943
G2 Y0.7009 I0. J0.03
G1 X1.4697
X1.4788
G3 Y0.761 I0. J0.03
G1 X0.2852
X0.282
G2 Y0.8211 I0. J0.03
G1 X1.482
G3 Y0.8812 I0. J0.03
G1 X0.282
G2 Y0.9412 I0. J0.03
G1 X1.482
G3 Y1.0013 I0. J0.03
G1 X1.479
X0.285
G2 Y1.0614 I0. J0.03
G1 X0.294
X1.47
G3 Y1.1215 I0. J0.03
G1 X1.455
X0.309
G2 Y1.1816 I0. J0.03
G1 X0.3311
X1.4329
G3 Y1.2417 I0. J0.03
G1 X1.4027
X0.3613
G2 Y1.3018 I0. J0.03
G1 X0.4002
X1.3638
G3 Y1.3619 I0. J0.03
G1 X1.3126
X0.4514
G2 Y1.422 I0. J0.03
G1 X0.5193
X1.2447
G0 Z0.05
X1.1729 Y0.2802
G1 Z-0.006 F5.
X1.1442
X0.6198 F59.
X0.5214
G2 Y0.3403 I0. J0.03
G1 X1.2426
X1.311
G3 Y0.4004 I0. J0.03
G1 X0.453
X0.4016
G2 Y0.4605 I0. J0.03
G1 X1.3624
X1.4018
G3 Y0.5206 I0. J0.03
G1 X0.3622
X0.3319
G2 Y0.5807 I0. J0.03
G1 X1.4321
X1.4545
G3 Y0.6408 I0. J0.03
G1 X0.3095
X0.2943
G2 Y0.7009 I0. J0.03
G1 X1.4697
X1.4788
G3 Y0.761 I0. J0.03
G1 X0.2852
X0.282
G2 Y0.8211 I0. J0.03
G1 X1.482
G3 Y0.8812 I0. J0.03
G1 X0.282
G2 Y0.9412 I0. J0.03
G1 X1.482
G3 Y1.0013 I0. J0.03
G1 X1.479
X0.285
G2 Y1.0614 I0. J0.03
G1 X0.294
X1.47
G3 Y1.1215 I0. J0.03
G1 X1.455
X0.309
G2 Y1.1816 I0. J0.03
G1 X0.3311
X1.4329
G3 Y1.2417 I0. J0.03
G1 X1.4027
X0.3613
G2 Y1.3018 I0. J0.03
G1 X0.4002
X1.3638
G3 Y1.3619 I0. J0.03
G1 X1.3126
X0.4514
G2 Y1.422 I0. J0.03
G1 X0.5193
X1.2447
G0 Z0.05
X1.1729 Y0.2802
G1 Z-0.008 F5.
X1.1442
X0.6198 F59.
X0.5214
G2 Y0.3403 I0. J0.03
G1 X1.2426
X1.311
G3 Y0.4004 I0. J0.03
G1 X0.453
X0.4016
G2 Y0.4605 I0. J0.03
G1 X1.3624
X1.4018
G3 Y0.5206 I0. J0.03
G1 X0.3622
X0.3319
G2 Y0.5807 I0. J0.03
G1 X1.4321
X1.4545
G3 Y0.6408 I0. J0.03
G1 X0.3095
X0.2943
G2 Y0.7009 I0. J0.03
G1 X1.4697
X1.4788
G3 Y0.761 I0. J0.03
G1 X0.2852
X0.282
G2 Y0.8211 I0. J0.03
G1 X1.482
G3 Y0.8812 I0. J0.03
G1 X0.282
G2 Y0.9412 I0. J0.03
G1 X1.482
G3 Y1.0013 I0. J0.03
G1 X1.479
X0.285
G2 Y1.0614 I0. J0.03
G1 X0.294
X1.47
G3 Y1.1215 I0. J0.03
G1 X1.455
X0.309
G2 Y1.1816 I0. J0.03
G1 X0.3311
X1.4329
G3 Y1.2417 I0. J0.03
G1 X1.4027
X0.3613
G2 Y1.3018 I0. J0.03
G1 X0.4002
X1.3638
G3 Y1.3619 I0. J0.03
G1 X1.3126
X0.4514
G2 Y1.422 I0. J0.03
G1 X0.5193
X1.2447
G0 Z0.05
X1.1729 Y0.2802
G1 Z-0.01 F5.
X1.1442
X0.6198 F59.
X0.5214
G2 Y0.3403 I0. J0.03
G1 X1.2426
X1.311
G3 Y0.4004 I0. J0.03
G1 X0.453
X0.4016
G2 Y0.4605 I0. J0.03
G1 X1.3624
X1.4018
G3 Y0.5206 I0. J0.03
G1 X0.3622
X0.3319
G2 Y0.5807 I0. J0.03
G1 X1.4321
X1.4545
G3 Y0.6408 I0. J0.03
G1 X0.3095
X0.2943
G2 Y0.7009 I0. J0.03
G1 X1.4697
X1.4788
G3 Y0.761 I0. J0.03
G1 X0.2852
X0.282
G2 Y0.8211 I0. J0.03
G1 X1.482
G3 Y0.8812 I0. J0.03
G1 X0.282
G2 Y0.9412 I0. J0.03
G1 X1.482
G3 Y1.0013 I0. J0.03
G1 X1.479
X0.285
G2 Y1.0614 I0. J0.03
G1 X0.294
X1.47
G3 Y1.1215 I0. J0.03
G1 X1.455
X0.309
G2 Y1.1816 I0. J0.03
G1 X0.3311
X1.4329
G3 Y1.2417 I0. J0.03
G1 X1.4027
X0.3613
G2 Y1.3018 I0. J0.03
G1 X0.4002
X1.3638
G3 Y1.3619 I0. J0.03
G1 X1.3126
X0.4514
G2 Y1.422 I0. J0.03
G1 X0.5193
X1.2447
G0 Z0.05
X1.1729 Y0.2802
G1 Z-0.012 F5.
X1.1442
X0.6198 F59.
X0.5214
G2 Y0.3403 I0. J0.03
G1 X1.2426
X1.311
G3 Y0.4004 I0. J0.03
G1 X0.453
X0.4016
G2 Y0.4605 I0. J0.03
G1 X1.3624
X1.4018
G3 Y0.5206 I0. J0.03
G1 X0.3622
X0.3319
G2 Y0.5807 I0. J0.03
G1 X1.4321
X1.4545
G3 Y0.6408 I0. J0.03
G1 X0.3095
X0.2943
G2 Y0.7009 I0. J0.03
G1 X1.4697
X1.4788
G3 Y0.761 I0. J0.03
G1 X0.2852
X0.282
G2 Y0.8211 I0. J0.03
G1 X1.482
G3 Y0.8812 I0. J0.03
G1 X0.282
G2 Y0.9412 I0. J0.03
G1 X1.482
G3 Y1.0013 I0. J0.03
G1 X1.479
X0.285
G2 Y1.0614 I0. J0.03
G1 X0.294
X1.47
G3 Y1.1215 I0. J0.03
G1 X1.455
X0.309
G2 Y1.1816 I0. J0.03
G1 X0.3311
X1.4329
G3 Y1.2417 I0. J0.03
G1 X1.4027
X0.3613
G2 Y1.3018 I0. J0.03
G1 X0.4002
X1.3638
G3 Y1.3619 I0. J0.03
G1 X1.3126
X0.4514
G2 Y1.422 I0. J0.03
G1 X0.5193
X1.2447
G0 Z0.05
X1.1729 Y0.2802
G1 Z-0.014 F5.
X1.1442
X0.6198 F59.
X0.5214
G2 Y0.3403 I0. J0.03
G1 X1.2426
X1.311
G3 Y0.4004 I0. J0.03
G1 X0.453
X0.4016
G2 Y0.4605 I0. J0.03
G1 X1.3624
X1.4018
G3 Y0.5206 I0. J0.03
G1 X0.3622
X0.3319
G2 Y0.5807 I0. J0.03
G1 X1.4321
X1.4545
G3 Y0.6408 I0. J0.03
G1 X0.3095
X0.2943
G2 Y0.7009 I0. J0.03
G1 X1.4697
X1.4788
G3 Y0.761 I0. J0.03
G1 X0.2852
X0.282
G2 Y0.8211 I0. J0.03
G1 X1.482
G3 Y0.8812 I0. J0.03
G1 X0.282
G2 Y0.9412 I0. J0.03
G1 X1.482
G3 Y1.0013 I0. J0.03
G1 X1.479
X0.285
G2 Y1.0614 I0. J0.03
G1 X0.294
X1.47
G3 Y1.1215 I0. J0.03
G1 X1.455
X0.309
G2 Y1.1816 I0. J0.03
G1 X0.3311
X1.4329
G3 Y1.2417 I0. J0.03
G1 X1.4027
X0.3613
G2 Y1.3018 I0. J0.03
G1 X0.4002
X1.3638
G3 Y1.3619 I0. J0.03
G1 X1.3126
X0.4514
G2 Y1.422 I0. J0.03
G1 X0.5193
X1.2447
G0 Z0.05
X1.1729 Y0.2802
G1 Z-0.016 F5.
X1.1442
X0.6198 F59.
X0.5214
G2 Y0.3403 I0. J0.03
G1 X1.2426
X1.311
G3 Y0.4004 I0. J0.03
G1 X0.453
X0.4016
G2 Y0.4605 I0. J0.03
G1 X1.3624
X1.4018
G3 Y0.5206 I0. J0.03
G1 X0.3622
X0.3319
G2 Y0.5807 I0. J0.03
G1 X1.4321
X1.4545
G3 Y0.6408 I0. J0.03
G1 X0.3095
X0.2943
G2 Y0.7009 I0. J0.03
G1 X1.4697
X1.4788
G3 Y0.761 I0. J0.03
G1 X0.2852
X0.282
G2 Y0.8211 I0. J0.03
G1 X1.482
G3 Y0.8812 I0. J0.03
G1 X0.282
G2 Y0.9412 I0. J0.03
G1 X1.482
G3 Y1.0013 I0. J0.03
G1 X1.479
X0.285
G2 Y1.0614 I0. J0.03
G1 X0.294
X1.47
G3 Y1.1215 I0. J0.03
G1 X1.455
X0.309
G2 Y1.1816 I0. J0.03
G1 X0.3311
X1.4329
G3 Y1.2417 I0. J0.03
G1 X1.4027
X0.3613
G2 Y1.3018 I0. J0.03
G1 X0.4002
X1.3638
G3 Y1.3619 I0. J0.03
G1 X1.3126
X0.4514
G2 Y1.422 I0. J0.03
G1 X0.5193
X1.2447
G0 Z0.05
X1.1729 Y0.2802
G1 Z-0.018 F5.
X1.1442
X0.6198 F59.
X0.5214
G2 Y0.3403 I0. J0.03
G1 X1.2426
X1.311
G3 Y0.4004 I0. J0.03
G1 X0.453
X0.4016
G2 Y0.4605 I0. J0.03
G1 X1.3624
X1.4018
G3 Y0.5206 I0. J0.03
G1 X0.3622
X0.3319
G2 Y0.5807 I0. J0.03
G1 X1.4321
X1.4545
G3 Y0.6408 I0. J0.03
G1 X0.3095
X0.2943
G2 Y0.7009 I0. J0.03
G1 X1.4697
X1.4788
G3 Y0.761 I0. J0.03
G1 X0.2852
X0.282
G2 Y0.8211 I0. J0.03
G1 X1.482
G3 Y0.8812 I0. J0.03
G1 X0.282
G2 Y0.9412 I0. J0.03
G1 X1.482
G3 Y1.0013 I0. J0.03
G1 X1.479
X0.285
G2 Y1.0614 I0. J0.03
G1 X0.294
X1.47
G3 Y1.1215 I0. J0.03
G1 X1.455
X0.309
G2 Y1.1816 I0. J0.03
G1 X0.3311
X1.4329
G3 Y1.2417 I0. J0.03
G1 X1.4027
X0.3613
G2 Y1.3018 I0. J0.03
G1 X0.4002
X1.3638
G3 Y1.3619 I0. J0.03
G1 X1.3126
X0.4514
G2 Y1.422 I0. J0.03
G1 X0.5193
X1.2447
G0 Z0.05
X1.1729 Y0.2802
G1 Z-0.02 F5.
X1.1442
X0.6198 F59.
X0.5214
G2 Y0.3403 I0. J0.03
G1 X1.2426
X1.311
G3 Y0.4004 I0. J0.03
G1 X0.453
X0.4016
G2 Y0.4605 I0. J0.03
G1 X1.3624
X1.4018
G3 Y0.5206 I0. J0.03
G1 X0.3622
X0.3319
G2 Y0.5807 I0. J0.03
G1 X1.4321
X1.4545
G3 Y0.6408 I0. J0.03
G1 X0.3095
X0.2943
G2 Y0.7009 I0. J0.03
G1 X1.4697
X1.4788
G3 Y0.761 I0. J0.03
G1 X0.2852
X0.282
G2 Y0.8211 I0. J0.03
G1 X1.482
G3 Y0.8812 I0. J0.03
G1 X0.282
G2 Y0.9412 I0. J0.03
G1 X1.482
G3 Y1.0013 I0. J0.03
G1 X1.479
X0.285
G2 Y1.0614 I0. J0.03
G1 X0.294
X1.47
G3 Y1.1215 I0. J0.03
G1 X1.455
X0.309
G2 Y1.1816 I0. J0.03
G1 X0.3311
X1.4329
G3 Y1.2417 I0. J0.03
G1 X1.4027
X0.3613
G2 Y1.3018 I0. J0.03
G1 X0.4002
X1.3638
G3 Y1.3619 I0. J0.03
G1 X1.3126
X0.4514
G2 Y1.422 I0. J0.03
G1 X0.5193
X1.2447
G0 Z0.05
X1.1729 Y0.2802
G1 Z-0.022 F5.
X1.1442
X0.6198 F59.
X0.5214
G2 Y0.3403 I0. J0.03
G1 X1.2426
X1.311
G3 Y0.4004 I0. J0.03
G1 X0.453
X0.4016
G2 Y0.4605 I0. J0.03
G1 X1.3624
X1.4018
G3 Y0.5206 I0. J0.03
G1 X0.3622
X0.3319
G2 Y0.5807 I0. J0.03
G1 X1.4321
X1.4545
G3 Y0.6408 I0. J0.03
G1 X0.3095
X0.2943
G2 Y0.7009 I0. J0.03
G1 X1.4697
X1.4788
G3 Y0.761 I0. J0.03
G1 X0.2852
X0.282
G2 Y0.8211 I0. J0.03
G1 X1.482
G3 Y0.8812 I0. J0.03
G1 X0.282
G2 Y0.9412 I0. J0.03
G1 X1.482
G3 Y1.0013 I0. J0.03
G1 X1.479
X0.285
G2 Y1.0614 I0. J0.03
G1 X0.294
X1.47
G3 Y1.1215 I0. J0.03
G1 X1.455
X0.309
G2 Y1.1816 I0. J0.03
G1 X0.3311
X1.4329
G3 Y1.2417 I0. J0.03
G1 X1.4027
X0.3613
G2 Y1.3018 I0. J0.03
G1 X0.4002
X1.3638
G3 Y1.3619 I0. J0.03
G1 X1.3126
X0.4514
G2 Y1.422 I0. J0.03
G1 X0.5193
X1.2447
G0 Z0.05
X1.1729 Y0.2802
G1 Z-0.024 F5.
X1.1442
X0.6198 F59.
X0.5214
G2 Y0.3403 I0. J0.03
G1 X1.2426
X1.311
G3 Y0.4004 I0. J0.03
G1 X0.453
X0.4016
G2 Y0.4605 I0. J0.03
G1 X1.3624
X1.4018
G3 Y0.5206 I0. J0.03
G1 X0.3622
X0.3319
G2 Y0.5807 I0. J0.03
G1 X1.4321
X1.4545
G3 Y0.6408 I0. J0.03
G1 X0.3095
X0.2943
G2 Y0.7009 I0. J0.03
G1 X1.4697
X1.4788
G3 Y0.761 I0. J0.03
G1 X0.2852
X0.282
G2 Y0.8211 I0. J0.03
G1 X1.482
G3 Y0.8812 I0. J0.03
G1 X0.282
G2 Y0.9412 I0. J0.03
G1 X1.482
G3 Y1.0013 I0. J0.03
G1 X1.479
X0.285
G2 Y1.0614 I0. J0.03
G1 X0.294
X1.47
G3 Y1.1215 I0. J0.03
G1 X1.455
X0.309
G2 Y1.1816 I0. J0.03
G1 X0.3311
X1.4329
G3 Y1.2417 I0. J0.03
G1 X1.4027
X0.3613
G2 Y1.3018 I0. J0.03
G1 X0.4002
X1.3638
G3 Y1.3619 I0. J0.03
G1 X1.3126
X0.4514
G2 Y1.422 I0. J0.03
G1 X0.5193
X1.2447
G0 Z0.05
X1.1729 Y0.2802
G1 Z-0.026 F5.
X1.1442
X0.6198 F59.
X0.5214
G2 Y0.3403 I0. J0.03
G1 X1.2426
X1.311
G3 Y0.4004 I0. J0.03
G1 X0.453
X0.4016
G2 Y0.4605 I0. J0.03
G1 X1.3624
X1.4018
G3 Y0.5206 I0. J0.03
G1 X0.3622
X0.3319
G2 Y0.5807 I0. J0.03
G1 X1.4321
X1.4545
G3 Y0.6408 I0. J0.03
G1 X0.3095
X0.2943
G2 Y0.7009 I0. J0.03
G1 X1.4697
X1.4788
G3 Y0.761 I0. J0.03
G1 X0.2852
X0.282
G2 Y0.8211 I0. J0.03
G1 X1.482
G3 Y0.8812 I0. J0.03
G1 X0.282
G2 Y0.9412 I0. J0.03
G1 X1.482
G3 Y1.0013 I0. J0.03
G1 X1.479
X0.285
G2 Y1.0614 I0. J0.03
G1 X0.294
X1.47
G3 Y1.1215 I0. J0.03
G1 X1.455
X0.309
G2 Y1.1816 I0. J0.03
G1 X0.3311
X1.4329
G3 Y1.2417 I0. J0.03
G1 X1.4027
X0.3613
G2 Y1.3018 I0. J0.03
G1 X0.4002
X1.3638
G3 Y1.3619 I0. J0.03
G1 X1.3126
X0.4514
G2 Y1.422 I0. J0.03
G1 X0.5193
X1.2447
G0 Z0.05
X1.1729 Y0.2802
G1 Z-0.028 F5.
X1.1442
X0.6198 F59.
X0.5214
G2 Y0.3403 I0. J0.03
G1 X1.2426
X1.311
G3 Y0.4004 I0. J0.03
G1 X0.453
X0.4016
G2 Y0.4605 I0. J0.03
G1 X1.3624
X1.4018
G3 Y0.5206 I0. J0.03
G1 X0.3622
X0.3319
G2 Y0.5807 I0. J0.03
G1 X1.4321
X1.4545
G3 Y0.6408 I0. J0.03
G1 X0.3095
X0.2943
G2 Y0.7009 I0. J0.03
G1 X1.4697
X1.4788
G3 Y0.761 I0. J0.03
G1 X0.2852
X0.282
G2 Y0.8211 I0. J0.03
G1 X1.482
G3 Y0.8812 I0. J0.03
G1 X0.282
G2 Y0.9412 I0. J0.03
G1 X1.482
G3 Y1.0013 I0. J0.03
G1 X1.479
X0.285
G2 Y1.0614 I0. J0.03
G1 X0.294
X1.47
G3 Y1.1215 I0. J0.03
G1 X1.455
X0.309
G2 Y1.1816 I0. J0.03
G1 X0.3311
X1.4329
G3 Y1.2417 I0. J0.03
G1 X1.4027
X0.3613
G2 Y1.3018 I0. J0.03
G1 X0.4002
X1.3638
G3 Y1.3619 I0. J0.03
G1 X1.3126
X0.4514
G2 Y1.422 I0. J0.03
G1 X0.5193
X1.2447
G0 Z0.05
X1.1729 Y0.2802
G1 Z-0.03 F5.
X1.1442
X0.6198 F59.
X0.5214
G2 Y0.3403 I0. J0.03
G1 X1.2426
X1.311
G3 Y0.4004 I0. J0.03
G1 X0.453
X0.4016
G2 Y0.4605 I0. J0.03
G1 X1.3624
X1.4018
G3 Y0.5206 I0. J0.03
G1 X0.3622
X0.3319
G2 Y0.5807 I0. J0.03
G1 X1.4321
X1.4545
G3 Y0.6408 I0. J0.03
G1 X0.3095
X0.2943
G2 Y0.7009 I0. J0.03
G1 X1.4697
X1.4788
G3 Y0.761 I0. J0.03
G1 X0.2852
X0.282
G2 Y0.8211 I0. J0.03
G1 X1.482
G3 Y0.8812 I0. J0.03
G1 X0.282
G2 Y0.9412 I0. J0.03
G1 X1.482
G3 Y1.0013 I0. J0.03
G1 X1.479
X0.285
G2 Y1.0614 I0. J0.03
G1 X0.294
X1.47
G3 Y1.1215 I0. J0.03
G1 X1.455
X0.309
G2 Y1.1816 I0. J0.03
G1 X0.3311
X1.4329
G3 Y1.2417 I0. J0.03
G1 X1.4027
X0.3613
G2 Y1.3018 I0. J0.03
G1 X0.4002
X1.3638
G3 Y1.3619 I0. J0.03
G1 X1.3126
X0.4514
G2 Y1.422 I0. J0.03
G1 X0.5193
X1.2447
G0 Z0.05
X1.1729 Y0.2802
G1 Z-0.032 F5.
X1.1442
X0.6198 F59.
X0.5214
G2 Y0.3403 I0. J0.03
G1 X1.2426
X1.311
G3 Y0.4004 I0. J0.03
G1 X0.453
X0.4016
G2 Y0.4605 I0. J0.03
G1 X1.3624
X1.4018
G3 Y0.5206 I0. J0.03
G1 X0.3622
X0.3319
G2 Y0.5807 I0. J0.03
G1 X1.4321
X1.4545
G3 Y0.6408 I0. J0.03
G1 X0.3095
X0.2943
G2 Y0.7009 I0. J0.03
G1 X1.4697
X1.4788
G3 Y0.761 I0. J0.03
G1 X0.2852
X0.282
G2 Y0.8211 I0. J0.03
G1 X1.482
G3 Y0.8812 I0. J0.03
G1 X0.282
G2 Y0.9412 I0. J0.03
G1 X1.482
G3 Y1.0013 I0. J0.03
G1 X1.479
X0.285
G2 Y1.0614 I0. J0.03
G1 X0.294
X1.47
G3 Y1.1215 I0. J0.03
G1 X1.455
X0.309
G2 Y1.1816 I0. J0.03
G1 X0.3311
X1.4329
G3 Y1.2417 I0. J0.03
G1 X1.4027
X0.3613
G2 Y1.3018 I0. J0.03
G1 X0.4002
X1.3638
G3 Y1.3619 I0. J0.03
G1 X1.3126
X0.4514
G2 Y1.422 I0. J0.03
G1 X0.5193
X1.2447
G0 Z0.05
X1.1729 Y0.2802
G1 Z-0.034 F5.
X1.1442
X0.6198 F59.
X0.5214
G2 Y0.3403 I0. J0.03
G1 X1.2426
X1.311
G3 Y0.4004 I0. J0.03
G1 X0.453
X0.4016
G2 Y0.4605 I0. J0.03
G1 X1.3624
X1.4018
G3 Y0.5206 I0. J0.03
G1 X0.3622
X0.3319
G2 Y0.5807 I0. J0.03
G1 X1.4321
X1.4545
G3 Y0.6408 I0. J0.03
G1 X0.3095
X0.2943
G2 Y0.7009 I0. J0.03
G1 X1.4697
X1.4788
G3 Y0.761 I0. J0.03
G1 X0.2852
X0.282
G2 Y0.8211 I0. J0.03
G1 X1.482
G3 Y0.8812 I0. J0.03
G1 X0.282
G2 Y0.9412 I0. J0.03
G1 X1.482
G3 Y1.0013 I0. J0.03
G1 X1.479
X0.285
G2 Y1.0614 I0. J0.03
G1 X0.294
X1.47
G3 Y1.1215 I0. J0.03
G1 X1.455
X0.309
G2 Y1.1816 I0. J0.03
G1 X0.3311
X1.4329
G3 Y1.2417 I0. J0.03
G1 X1.4027
X0.3613
G2 Y1.3018 I0. J0.03
G1 X0.4002
X1.3638
G3 Y1.3619 I0. J0.03
G1 X1.3126
X0.4514
G2 Y1.422 I0. J0.03
G1 X0.5193
X1.2447
G0 Z0.05
X1.1729 Y0.2802
G1 Z-0.036 F5.
X1.1442
X0.6198 F59.
X0.5214
G2 Y0.3403 I0. J0.03
G1 X1.2426
X1.311
G3 Y0.4004 I0. J0.03
G1 X0.453
X0.4016
G2 Y0.4605 I0. J0.03
G1 X1.3624
X1.4018
G3 Y0.5206 I0. J0.03
G1 X0.3622
X0.3319
G2 Y0.5807 I0. J0.03
G1 X1.4321
X1.4545
G3 Y0.6408 I0. J0.03
G1 X0.3095
X0.2943
G2 Y0.7009 I0. J0.03
G1 X1.4697
X1.4788
G3 Y0.761 I0. J0.03
G1 X0.2852
X0.282
G2 Y0.8211 I0. J0.03
G1 X1.482
G3 Y0.8812 I0. J0.03
G1 X0.282
G2 Y0.9412 I0. J0.03
G1 X1.482
G3 Y1.0013 I0. J0.03
G1 X1.479
X0.285
G2 Y1.0614 I0. J0.03
G1 X0.294
X1.47
G3 Y1.1215 I0. J0.03
G1 X1.455
X0.309
G2 Y1.1816 I0. J0.03
G1 X0.3311
X1.4329
G3 Y1.2417 I0. J0.03
G1 X1.4027
X0.3613
G2 Y1.3018 I0. J0.03
G1 X0.4002
X1.3638
G3 Y1.3619 I0. J0.03
G1 X1.3126
X0.4514
G2 Y1.422 I0. J0.03
G1 X0.5193
X1.2447
G0 Z0.05
X1.1729 Y0.2802
G1 Z-0.038 F5.
X1.1442
X0.6198 F59.
X0.5214
G2 Y0.3403 I0. J0.03
G1 X1.2426
X1.311
G3 Y0.4004 I0. J0.03
G1 X0.453
X0.4016
G2 Y0.4605 I0. J0.03
G1 X1.3624
X1.4018
G3 Y0.5206 I0. J0.03
G1 X0.3622
X0.3319
G2 Y0.5807 I0. J0.03
G1 X1.4321
X1.4545
G3 Y0.6408 I0. J0.03
G1 X0.3095
X0.2943
G2 Y0.7009 I0. J0.03
G1 X1.4697
X1.4788
G3 Y0.761 I0. J0.03
G1 X0.2852
X0.282
G2 Y0.8211 I0. J0.03
G1 X1.482
G3 Y0.8812 I0. J0.03
G1 X0.282
G2 Y0.9412 I0. J0.03
G1 X1.482
G3 Y1.0013 I0. J0.03
G1 X1.479
X0.285
G2 Y1.0614 I0. J0.03
G1 X0.294
X1.47
G3 Y1.1215 I0. J0.03
G1 X1.455
X0.309
G2 Y1.1816 I0. J0.03
G1 X0.3311
X1.4329
G3 Y1.2417 I0. J0.03
G1 X1.4027
X0.3613
G2 Y1.3018 I0. J0.03
G1 X0.4002
X1.3638
G3 Y1.3619 I0. J0.03
G1 X1.3126
X0.4514
G2 Y1.422 I0. J0.03
G1 X0.5193
X1.2447
G0 Z0.05
X1.1729 Y0.2802
G1 Z-0.04 F5.
X1.1442
X0.6198 F59.
X0.5214
G2 Y0.3403 I0. J0.03
G1 X1.2426
X1.311
G3 Y0.4004 I0. J0.03
G1 X0.453
X0.4016
G2 Y0.4605 I0. J0.03
G1 X1.3624
X1.4018
G3 Y0.5206 I0. J0.03
G1 X0.3622
X0.3319
G2 Y0.5807 I0. J0.03
G1 X1.4321
X1.4545
G3 Y0.6408 I0. J0.03
G1 X0.3095
X0.2943
G2 Y0.7009 I0. J0.03
G1 X1.4697
X1.4788
G3 Y0.761 I0. J0.03
G1 X0.2852
X0.282
G2 Y0.8211 I0. J0.03
G1 X1.482
G3 Y0.8812 I0. J0.03
G1 X0.282
G2 Y0.9412 I0. J0.03
G1 X1.482
G3 Y1.0013 I0. J0.03
G1 X1.479
X0.285
G2 Y1.0614 I0. J0.03
G1 X0.294
X1.47
G3 Y1.1215 I0. J0.03
G1 X1.455
X0.309
G2 Y1.1816 I0. J0.03
G1 X0.3311
X1.4329
G3 Y1.2417 I0. J0.03
G1 X1.4027
X0.3613
G2 Y1.3018 I0. J0.03
G1 X0.4002
X1.3638
G3 Y1.3619 I0. J0.03
G1 X1.3126
X0.4514
G2 Y1.422 I0. J0.03
G1 X0.5193
X1.2447
G0 Z0.05
X1.1729 Y0.2802
G1 Z-0.042 F5.
X1.1442
X0.6198 F59.
X0.5214
G2 Y0.3403 I0. J0.03
G1 X1.2426
X1.311
G3 Y0.4004 I0. J0.03
G1 X0.453
X0.4016
G2 Y0.4605 I0. J0.03
G1 X1.3624
X1.4018
G3 Y0.5206 I0. J0.03
G1 X0.3622
X0.3319
G2 Y0.5807 I0. J0.03
G1 X1.4321
X1.4545
G3 Y0.6408 I0. J0.03
G1 X0.3095
X0.2943
G2 Y0.7009 I0. J0.03
G1 X1.4697
X1.4788
G3 Y0.761 I0. J0.03
G1 X0.2852
X0.282
G2 Y0.8211 I0. J0.03
G1 X1.482
G3 Y0.8812 I0. J0.03
G1 X0.282
G2 Y0.9412 I0. J0.03
G1 X1.482
G3 Y1.0013 I0. J0.03
G1 X1.479
X0.285
G2 Y1.0614 I0. J0.03
G1 X0.294
X1.47
G3 Y1.1215 I0. J0.03
G1 X1.455
X0.309
G2 Y1.1816 I0. J0.03
G1 X0.3311
X1.4329
G3 Y1.2417 I0. J0.03
G1 X1.4027
X0.3613
G2 Y1.3018 I0. J0.03
G1 X0.4002
X1.3638
G3 Y1.3619 I0. J0.03
G1 X1.3126
X0.4514
G2 Y1.422 I0. J0.03
G1 X0.5193
X1.2447
G0 Z0.05
X1.1729 Y0.2802
G1 Z-0.044 F5.
X1.1442
X0.6198 F59.
X0.5214
G2 Y0.3403 I0. J0.03
G1 X1.2426
X1.311
G3 Y0.4004 I0. J0.03
G1 X0.453
X0.4016
G2 Y0.4605 I0. J0.03
G1 X1.3624
X1.4018
G3 Y0.5206 I0. J0.03
G1 X0.3622
X0.3319
G2 Y0.5807 I0. J0.03
G1 X1.4321
X1.4545
G3 Y0.6408 I0. J0.03
G1 X0.3095
X0.2943
G2 Y0.7009 I0. J0.03
G1 X1.4697
X1.4788
G3 Y0.761 I0. J0.03
G1 X0.2852
X0.282
G2 Y0.8211 I0. J0.03
G1 X1.482
G3 Y0.8812 I0. J0.03
G1 X0.282
G2 Y0.9412 I0. J0.03
G1 X1.482
G3 Y1.0013 I0. J0.03
G1 X1.479
X0.285
G2 Y1.0614 I0. J0.03
G1 X0.294
X1.47
G3 Y1.1215 I0. J0.03
G1 X1.455
X0.309
G2 Y1.1816 I0. J0.03
G1 X0.3311
X1.4329
G3 Y1.2417 I0. J0.03
G1 X1.4027
X0.3613
G2 Y1.3018 I0. J0.03
G1 X0.4002
X1.3638
G3 Y1.3619 I0. J0.03
G1 X1.3126
X0.4514
G2 Y1.422 I0. J0.03
G1 X0.5193
X1.2447
G0 Z0.05
X1.1729 Y0.2802
G1 Z-0.046 F5.
X1.1442
X0.6198 F59.
X0.5214
G2 Y0.3403 I0. J0.03
G1 X1.2426
X1.311
G3 Y0.4004 I0. J0.03
G1 X0.453
X0.4016
G2 Y0.4605 I0. J0.03
G1 X1.3624
X1.4018
G3 Y0.5206 I0. J0.03
G1 X0.3622
X0.3319
G2 Y0.5807 I0. J0.03
G1 X1.4321
X1.4545
G3 Y0.6408 I0. J0.03
G1 X0.3095
X0.2943
G2 Y0.7009 I0. J0.03
G1 X1.4697
X1.4788
G3 Y0.761 I0. J0.03
G1 X0.2852
X0.282
G2 Y0.8211 I0. J0.03
G1 X1.482
G3 Y0.8812 I0. J0.03
G1 X0.282
G2 Y0.9412 I0. J0.03
G1 X1.482
G3 Y1.0013 I0. J0.03
G1 X1.479
X0.285
G2 Y1.0614 I0. J0.03
G1 X0.294
X1.47
G3 Y1.1215 I0. J0.03
G1 X1.455
X0.309
G2 Y1.1816 I0. J0.03
G1 X0.3311
X1.4329
G3 Y1.2417 I0. J0.03
G1 X1.4027
X0.3613
G2 Y1.3018 I0. J0.03
G1 X0.4002
X1.3638
G3 Y1.3619 I0. J0.03
G1 X1.3126
X0.4514
G2 Y1.422 I0. J0.03
G1 X0.5193
X1.2447
G0 Z0.05
X1.1729 Y0.2802
G1 Z-0.048 F5.
X1.1442
X0.6198 F59.
X0.5214
G2 Y0.3403 I0. J0.03
G1 X1.2426
X1.311
G3 Y0.4004 I0. J0.03
G1 X0.453
X0.4016
G2 Y0.4605 I0. J0.03
G1 X1.3624
X1.4018
G3 Y0.5206 I0. J0.03
G1 X0.3622
X0.3319
G2 Y0.5807 I0. J0.03
G1 X1.4321
X1.4545
G3 Y0.6408 I0. J0.03
G1 X0.3095
X0.2943
G2 Y0.7009 I0. J0.03
G1 X1.4697
X1.4788
G3 Y0.761 I0. J0.03
G1 X0.2852
X0.282
G2 Y0.8211 I0. J0.03
G1 X1.482
G3 Y0.8812 I0. J0.03
G1 X0.282
G2 Y0.9412 I0. J0.03
G1 X1.482
G3 Y1.0013 I0. J0.03
G1 X1.479
X0.285
G2 Y1.0614 I0. J0.03
G1 X0.294
X1.47
G3 Y1.1215 I0. J0.03
G1 X1.455
X0.309
G2 Y1.1816 I0. J0.03
G1 X0.3311
X1.4329
G3 Y1.2417 I0. J0.03
G1 X1.4027
X0.3613
G2 Y1.3018 I0. J0.03
G1 X0.4002
X1.3638
G3 Y1.3619 I0. J0.03
G1 X1.3126
X0.4514
G2 Y1.422 I0. J0.03
G1 X0.5193
X1.2447
G0 Z0.05
X1.1729 Y0.2802
G1 Z-0.05 F5.
X1.1442
X0.6198 F59.
X0.5214
G2 Y0.3403 I0. J0.03
G1 X1.2426
X1.311
G3 Y0.4004 I0. J0.03
G1 X0.453
X0.4016
G2 Y0.4605 I0. J0.03
G1 X1.3624
X1.4018
G3 Y0.5206 I0. J0.03
G1 X0.3622
X0.3319
G2 Y0.5807 I0. J0.03
G1 X1.4321
X1.4545
G3 Y0.6408 I0. J0.03
G1 X0.3095
X0.2943
G2 Y0.7009 I0. J0.03
G1 X1.4697
X1.4788
G3 Y0.761 I0. J0.03
G1 X0.2852
X0.282
G2 Y0.8211 I0. J0.03
G1 X1.482
G3 Y0.8812 I0. J0.03
G1 X0.282
G2 Y0.9412 I0. J0.03
G1 X1.482
G3 Y1.0013 I0. J0.03
G1 X1.479
X0.285
G2 Y1.0614 I0. J0.03
G1 X0.294
X1.47
G3 Y1.1215 I0. J0.03
G1 X1.455
X0.309
G2 Y1.1816 I0. J0.03
G1 X0.3311
X1.4329
G3 Y1.2417 I0. J0.03
G1 X1.4027
X0.3613
G2 Y1.3018 I0. J0.03
G1 X0.4002
X1.3638
G3 Y1.3619 I0. J0.03
G1 X1.3126
X0.4514
G2 Y1.422 I0. J0.03
G1 X0.5193
X1.2447
G0 Z0.05
X1.1729 Y0.2802
G1 Z-0.052 F5.
X1.1442
X0.6198 F59.
X0.5214
G2 Y0.3403 I0. J0.03
G1 X1.2426
X1.311
G3 Y0.4004 I0. J0.03
G1 X0.453
X0.4016
G2 Y0.4605 I0. J0.03
G1 X1.3624
X1.4018
G3 Y0.5206 I0. J0.03
G1 X0.3622
X0.3319
G2 Y0.5807 I0. J0.03
G1 X1.4321
X1.4545
G3 Y0.6408 I0. J0.03
G1 X0.3095
X0.2943
G2 Y0.7009 I0. J0.03
G1 X1.4697
X1.4788
G3 Y0.761 I0. J0.03
G1 X0.2852
X0.282
G2 Y0.8211 I0. J0.03
G1 X1.482
G3 Y0.8812 I0. J0.03
G1 X0.282
G2 Y0.9412 I0. J0.03
G1 X1.482
G3 Y1.0013 I0. J0.03
G1 X1.479
X0.285
G2 Y1.0614 I0. J0.03
G1 X0.294
X1.47
G3 Y1.1215 I0. J0.03
G1 X1.455
X0.309
G2 Y1.1816 I0. J0.03
G1 X0.3311
X1.4329
G3 Y1.2417 I0. J0.03
G1 X1.4027
X0.3613
G2 Y1.3018 I0. J0.03
G1 X0.4002
X1.3638
G3 Y1.3619 I0. J0.03
G1 X1.3126
X0.4514
G2 Y1.422 I0. J0.03
G1 X0.5193
X1.2447
G0 Z0.05
X1.1729 Y0.2802
G1 Z-0.054 F5.
X1.1442
X0.6198 F59.
X0.5214
G2 Y0.3403 I0. J0.03
G1 X1.2426
X1.311
G3 Y0.4004 I0. J0.03
G1 X0.453
X0.4016
G2 Y0.4605 I0. J0.03
G1 X1.3624
X1.4018
G3 Y0.5206 I0. J0.03
G1 X0.3622
X0.3319
G2 Y0.5807 I0. J0.03
G1 X1.4321
X1.4545
G3 Y0.6408 I0. J0.03
G1 X0.3095
X0.2943
G2 Y0.7009 I0. J0.03
G1 X1.4697
X1.4788
G3 Y0.761 I0. J0.03
G1 X0.2852
X0.282
G2 Y0.8211 I0. J0.03
G1 X1.482
G3 Y0.8812 I0. J0.03
G1 X0.282
G2 Y0.9412 I0. J0.03
G1 X1.482
G3 Y1.0013 I0. J0.03
G1 X1.479
X0.285
G2 Y1.0614 I0. J0.03
G1 X0.294
X1.47
G3 Y1.1215 I0. J0.03
G1 X1.455
X0.309
G2 Y1.1816 I0. J0.03
G1 X0.3311
X1.4329
G3 Y1.2417 I0. J0.03
G1 X1.4027
X0.3613
G2 Y1.3018 I0. J0.03
G1 X0.4002
X1.3638
G3 Y1.3619 I0. J0.03
G1 X1.3126
X0.4514
G2 Y1.422 I0. J0.03
G1 X0.5193
X1.2447
G0 Z0.05
X1.1729 Y0.2802
G1 Z-0.056 F5.
X1.1442
X0.6198 F59.
X0.5214
G2 Y0.3403 I0. J0.03
G1 X1.2426
X1.311
G3 Y0.4004 I0. J0.03
G1 X0.453
X0.4016
G2 Y0.4605 I0. J0.03
G1 X1.3624
X1.4018
G3 Y0.5206 I0. J0.03
G1 X0.3622
X0.3319
G2 Y0.5807 I0. J0.03
G1 X1.4321
X1.4545
G3 Y0.6408 I0. J0.03
G1 X0.3095
X0.2943
G2 Y0.7009 I0. J0.03
G1 X1.4697
X1.4788
G3 Y0.761 I0. J0.03
G1 X0.2852
X0.282
G2 Y0.8211 I0. J0.03
G1 X1.482
G3 Y0.8812 I0. J0.03
G1 X0.282
G2 Y0.9412 I0. J0.03
G1 X1.482
G3 Y1.0013 I0. J0.03
G1 X1.479
X0.285
G2 Y1.0614 I0. J0.03
G1 X0.294
X1.47
G3 Y1.1215 I0. J0.03
G1 X1.455
X0.309
G2 Y1.1816 I0. J0.03
G1 X0.3311
X1.4329
G3 Y1.2417 I0. J0.03
G1 X1.4027
X0.3613
G2 Y1.3018 I0. J0.03
G1 X0.4002
X1.3638
G3 Y1.3619 I0. J0.03
G1 X1.3126
X0.4514
G2 Y1.422 I0. J0.03
G1 X0.5193
X1.2447
G0 Z0.05
X1.1729 Y0.2802
G1 Z-0.058 F5.
X1.1442
X0.6198 F59.
X0.5214
G2 Y0.3403 I0. J0.03
G1 X1.2426
X1.311
G3 Y0.4004 I0. J0.03
G1 X0.453
X0.4016
G2 Y0.4605 I0. J0.03
G1 X1.3624
X1.4018
G3 Y0.5206 I0. J0.03
G1 X0.3622
X0.3319
G2 Y0.5807 I0. J0.03
G1 X1.4321
X1.4545
G3 Y0.6408 I0. J0.03
G1 X0.3095
X0.2943
G2 Y0.7009 I0. J0.03
G1 X1.4697
X1.4788
G3 Y0.761 I0. J0.03
G1 X0.2852
X0.282
G2 Y0.8211 I0. J0.03
G1 X1.482
G3 Y0.8812 I0. J0.03
G1 X0.282
G2 Y0.9412 I0. J0.03
G1 X1.482
G3 Y1.0013 I0. J0.03
G1 X1.479
X0.285
G2 Y1.0614 I0. J0.03
G1 X0.294
X1.47
G3 Y1.1215 I0. J0.03
G1 X1.455
X0.309
G2 Y1.1816 I0. J0.03
G1 X0.3311
X1.4329
G3 Y1.2417 I0. J0.03
G1 X1.4027
X0.3613
G2 Y1.3018 I0. J0.03
G1 X0.4002
X1.3638
G3 Y1.3619 I0. J0.03
G1 X1.3126
X0.4514
G2 Y1.422 I0. J0.03
G1 X0.5193
X1.2447
G0 Z0.05
X1.1729 Y0.2802
G1 Z-0.06 F5.
X1.1442
X0.6198 F59.
X0.5214
G2 Y0.3403 I0. J0.03
G1 X1.2426
X1.311
G3 Y0.4004 I0. J0.03
G1 X0.453
X0.4016
G2 Y0.4605 I0. J0.03
G1 X1.3624
X1.4018
G3 Y0.5206 I0. J0.03
G1 X0.3622
X0.3319
G2 Y0.5807 I0. J0.03
G1 X1.4321
X1.4545
G3 Y0.6408 I0. J0.03
G1 X0.3095
X0.2943
G2 Y0.7009 I0. J0.03
G1 X1.4697
X1.4788
G3 Y0.761 I0. J0.03
G1 X0.2852
X0.282
G2 Y0.8211 I0. J0.03
G1 X1.482
G3 Y0.8812 I0. J0.03
G1 X0.282
G2 Y0.9412 I0. J0.03
G1 X1.482
G3 Y1.0013 I0. J0.03
G1 X1.479
X0.285
G2 Y1.0614 I0. J0.03
G1 X0.294
X1.47
G3 Y1.1215 I0. J0.03
G1 X1.455
X0.309
G2 Y1.1816 I0. J0.03
G1 X0.3311
X1.4329
G3 Y1.2417 I0. J0.03
G1 X1.4027
X0.3613
G2 Y1.3018 I0. J0.03
G1 X0.4002
X1.3638
G3 Y1.3619 I0. J0.03
G1 X1.3126
X0.4514
G2 Y1.422 I0. J0.03
G1 X0.5193
X1.2447
G0 Z0.05
X1.1729 Y0.2802
G1 Z-0.062 F5.
X1.1442
X0.6198 F59.
X0.5214
G2 Y0.3403 I0. J0.03
G1 X1.2426
X1.311
G3 Y0.4004 I0. J0.03
G1 X0.453
X0.4016
G2 Y0.4605 I0. J0.03
G1 X1.3624
X1.4018
G3 Y0.5206 I0. J0.03
G1 X0.3622
X0.3319
G2 Y0.5807 I0. J0.03
G1 X1.4321
X1.4545
G3 Y0.6408 I0. J0.03
G1 X0.3095
X0.2943
G2 Y0.7009 I0. J0.03
G1 X1.4697
X1.4788
G3 Y0.761 I0. J0.03
G1 X0.2852
X0.282
G2 Y0.8211 I0. J0.03
G1 X1.482
G3 Y0.8812 I0. J0.03
G1 X0.282
G2 Y0.9412 I0. J0.03
G1 X1.482
G3 Y1.0013 I0. J0.03
G1 X1.479
X0.285
G2 Y1.0614 I0. J0.03
G1 X0.294
X1.47
G3 Y1.1215 I0. J0.03
G1 X1.455
X0.309
G2 Y1.1816 I0. J0.03
G1 X0.3311
X1.4329
G3 Y1.2417 I0. J0.03
G1 X1.4027
X0.3613
G2 Y1.3018 I0. J0.03
G1 X0.4002
X1.3638
G3 Y1.3619 I0. J0.03
G1 X1.3126
X0.4514
G2 Y1.422 I0. J0.03
G1 X0.5193
X1.2447
G0 Z0.05
X1.1729 Y0.2802
G1 Z-0.064 F5.
X1.1442
X0.6198 F59.
X0.5214
G2 Y0.3403 I0. J0.03
G1 X1.2426
X1.311
G3 Y0.4004 I0. J0.03
G1 X0.453
X0.4016
G2 Y0.4605 I0. J0.03
G1 X1.3624
X1.4018
G3 Y0.5206 I0. J0.03
G1 X0.3622
X0.3319
G2 Y0.5807 I0. J0.03
G1 X1.4321
X1.4545
G3 Y0.6408 I0. J0.03
G1 X0.3095
X0.2943
G2 Y0.7009 I0. J0.03
G1 X1.4697
X1.4788
G3 Y0.761 I0. J0.03
G1 X0.2852
X0.282
G2 Y0.8211 I0. J0.03
G1 X1.482
G3 Y0.8812 I0. J0.03
G1 X0.282
G2 Y0.9412 I0. J0.03
G1 X1.482
G3 Y1.0013 I0. J0.03
G1 X1.479
X0.285
G2 Y1.0614 I0. J0.03
G1 X0.294
X1.47
G3 Y1.1215 I0. J0.03
G1 X1.455
X0.309
G2 Y1.1816 I0. J0.03
G1 X0.3311
X1.4329
G3 Y1.2417 I0. J0.03
G1 X1.4027
X0.3613
G2 Y1.3018 I0. J0.03
G1 X0.4002
X1.3638
G3 Y1.3619 I0. J0.03
G1 X1.3126
X0.4514
G2 Y1.422 I0. J0.03
G1 X0.5193
X1.2447
G0 Z0.05
X1.1729 Y0.2802
G1 Z-0.066 F5.
X1.1442
X0.6198 F59.
X0.5214
G2 Y0.3403 I0. J0.03
G1 X1.2426
X1.311
G3 Y0.4004 I0. J0.03
G1 X0.453
X0.4016
G2 Y0.4605 I0. J0.03
G1 X1.3624
X1.4018
G3 Y0.5206 I0. J0.03
G1 X0.3622
X0.3319
G2 Y0.5807 I0. J0.03
G1 X1.4321
X1.4545
G3 Y0.6408 I0. J0.03
G1 X0.3095
X0.2943
G2 Y0.7009 I0. J0.03
G1 X1.4697
X1.4788
G3 Y0.761 I0. J0.03
G1 X0.2852
X0.282
G2 Y0.8211 I0. J0.03
G1 X1.482
G3 Y0.8812 I0. J0.03
G1 X0.282
G2 Y0.9412 I0. J0.03
G1 X1.482
G3 Y1.0013 I0. J0.03
G1 X1.479
X0.285
G2 Y1.0614 I0. J0.03
G1 X0.294
X1.47
G3 Y1.1215 I0. J0.03
G1 X1.455
X0.309
G2 Y1.1816 I0. J0.03
G1 X0.3311
X1.4329
G3 Y1.2417 I0. J0.03
G1 X1.4027
X0.3613
G2 Y1.3018 I0. J0.03
G1 X0.4002
X1.3638
G3 Y1.3619 I0. J0.03
G1 X1.3126
X0.4514
G2 Y1.422 I0. J0.03
G1 X0.5193
X1.2447
G0 Z0.05
X1.1729 Y0.2802
G1 Z-0.068 F5.
X1.1442
X0.6198 F59.
X0.5214
G2 Y0.3403 I0. J0.03
G1 X1.2426
X1.311
G3 Y0.4004 I0. J0.03
G1 X0.453
X0.4016
G2 Y0.4605 I0. J0.03
G1 X1.3624
X1.4018
G3 Y0.5206 I0. J0.03
G1 X0.3622
X0.3319
G2 Y0.5807 I0. J0.03
G1 X1.4321
X1.4545
G3 Y0.6408 I0. J0.03
G1 X0.3095
X0.2943
G2 Y0.7009 I0. J0.03
G1 X1.4697
X1.4788
G3 Y0.761 I0. J0.03
G1 X0.2852
X0.282
G2 Y0.8211 I0. J0.03
G1 X1.482
G3 Y0.8812 I0. J0.03
G1 X0.282
G2 Y0.9412 I0. J0.03
G1 X1.482
G3 Y1.0013 I0. J0.03
G1 X1.479
X0.285
G2 Y1.0614 I0. J0.03
G1 X0.294
X1.47
G3 Y1.1215 I0. J0.03
G1 X1.455
X0.309
G2 Y1.1816 I0. J0.03
G1 X0.3311
X1.4329
G3 Y1.2417 I0. J0.03
G1 X1.4027
X0.3613
G2 Y1.3018 I0. J0.03
G1 X0.4002
X1.3638
G3 Y1.3619 I0. J0.03
G1 X1.3126
X0.4514
G2 Y1.422 I0. J0.03
G1 X0.5193
X1.2447
G0 Z0.05
X1.1729 Y0.2802
G1 Z-0.07 F5.
X1.1442
X0.6198 F59.
X0.5214
G2 Y0.3403 I0. J0.03
G1 X1.2426
X1.311
G3 Y0.4004 I0. J0.03
G1 X0.453
X0.4016
G2 Y0.4605 I0. J0.03
G1 X1.3624
X1.4018
G3 Y0.5206 I0. J0.03
G1 X0.3622
X0.3319
G2 Y0.5807 I0. J0.03
G1 X1.4321
X1.4545
G3 Y0.6408 I0. J0.03
G1 X0.3095
X0.2943
G2 Y0.7009 I0. J0.03
G1 X1.4697
X1.4788
G3 Y0.761 I0. J0.03
G1 X0.2852
X0.282
G2 Y0.8211 I0. J0.03
G1 X1.482
G3 Y0.8812 I0. J0.03
G1 X0.282
G2 Y0.9412 I0. J0.03
G1 X1.482
G3 Y1.0013 I0. J0.03
G1 X1.479
X0.285
G2 Y1.0614 I0. J0.03
G1 X0.294
X1.47
G3 Y1.1215 I0. J0.03
G1 X1.455
X0.309
G2 Y1.1816 I0. J0.03
G1 X0.3311
X1.4329
G3 Y1.2417 I0. J0.03
G1 X1.4027
X0.3613
G2 Y1.3018 I0. J0.03
G1 X0.4002
X1.3638
G3 Y1.3619 I0. J0.03
G1 X1.3126
X0.4514
G2 Y1.422 I0. J0.03
G1 X0.5193
X1.2447
G0 Z0.05
X1.1729 Y0.2802
G1 Z-0.072 F5.
X1.1442
X0.6198 F59.
X0.5214
G2 Y0.3403 I0. J0.03
G1 X1.2426
X1.311
G3 Y0.4004 I0. J0.03
G1 X0.453
X0.4016
G2 Y0.4605 I0. J0.03
G1 X1.3624
X1.4018
G3 Y0.5206 I0. J0.03
G1 X0.3622
X0.3319
G2 Y0.5807 I0. J0.03
G1 X1.4321
X1.4545
G3 Y0.6408 I0. J0.03
G1 X0.3095
X0.2943
G2 Y0.7009 I0. J0.03
G1 X1.4697
X1.4788
G3 Y0.761 I0. J0.03
G1 X0.2852
X0.282
G2 Y0.8211 I0. J0.03
G1 X1.482
G3 Y0.8812 I0. J0.03
G1 X0.282
G2 Y0.9412 I0. J0.03
G1 X1.482
G3 Y1.0013 I0. J0.03
G1 X1.479
X0.285
G2 Y1.0614 I0. J0.03
G1 X0.294
X1.47
G3 Y1.1215 I0. J0.03
G1 X1.455
X0.309
G2 Y1.1816 I0. J0.03
G1 X0.3311
X1.4329
G3 Y1.2417 I0. J0.03
G1 X1.4027
X0.3613
G2 Y1.3018 I0. J0.03
G1 X0.4002
X1.3638
G3 Y1.3619 I0. J0.03
G1 X1.3126
X0.4514
G2 Y1.422 I0. J0.03
G1 X0.5193
X1.2447
G0 Z0.05
X1.1729 Y0.2802
G1 Z-0.074 F5.
X1.1442
X0.6198 F59.
X0.5214
G2 Y0.3403 I0. J0.03
G1 X1.2426
X1.311
G3 Y0.4004 I0. J0.03
G1 X0.453
X0.4016
G2 Y0.4605 I0. J0.03
G1 X1.3624
X1.4018
G3 Y0.5206 I0. J0.03
G1 X0.3622
X0.3319
G2 Y0.5807 I0. J0.03
G1 X1.4321
X1.4545
G3 Y0.6408 I0. J0.03
G1 X0.3095
X0.2943
G2 Y0.7009 I0. J0.03
G1 X1.4697
X1.4788
G3 Y0.761 I0. J0.03
G1 X0.2852
X0.282
G2 Y0.8211 I0. J0.03
G1 X1.482
G3 Y0.8812 I0. J0.03
G1 X0.282
G2 Y0.9412 I0. J0.03
G1 X1.482
G3 Y1.0013 I0. J0.03
G1 X1.479
X0.285
G2 Y1.0614 I0. J0.03
G1 X0.294
X1.47
G3 Y1.1215 I0. J0.03
G1 X1.455
X0.309
G2 Y1.1816 I0. J0.03
G1 X0.3311
X1.4329
G3 Y1.2417 I0. J0.03
G1 X1.4027
X0.3613
G2 Y1.3018 I0. J0.03
G1 X0.4002
X1.3638
G3 Y1.3619 I0. J0.03
G1 X1.3126
X0.4514
G2 Y1.422 I0. J0.03
G1 X0.5193
X1.2447
G0 Z0.05
X1.1729 Y0.2802
G1 Z-0.076 F5.
X1.1442
X0.6198 F59.
X0.5214
G2 Y0.3403 I0. J0.03
G1 X1.2426
X1.311
G3 Y0.4004 I0. J0.03
G1 X0.453
X0.4016
G2 Y0.4605 I0. J0.03
G1 X1.3624
X1.4018
G3 Y0.5206 I0. J0.03
G1 X0.3622
X0.3319
G2 Y0.5807 I0. J0.03
G1 X1.4321
X1.4545
G3 Y0.6408 I0. J0.03
G1 X0.3095
X0.2943
G2 Y0.7009 I0. J0.03
G1 X1.4697
X1.4788
G3 Y0.761 I0. J0.03
G1 X0.2852
X0.282
G2 Y0.8211 I0. J0.03
G1 X1.482
G3 Y0.8812 I0. J0.03
G1 X0.282
G2 Y0.9412 I0. J0.03
G1 X1.482
G3 Y1.0013 I0. J0.03
G1 X1.479
X0.285
G2 Y1.0614 I0. J0.03
G1 X0.294
X1.47
G3 Y1.1215 I0. J0.03
G1 X1.455
X0.309
G2 Y1.1816 I0. J0.03
G1 X0.3311
X1.4329
G3 Y1.2417 I0. J0.03
G1 X1.4027
X0.3613
G2 Y1.3018 I0. J0.03
G1 X0.4002
X1.3638
G3 Y1.3619 I0. J0.03
G1 X1.3126
X0.4514
G2 Y1.422 I0. J0.03
G1 X0.5193
X1.2447
G0 Z0.05
X1.1729 Y0.2802
G1 Z-0.078 F5.
X1.1442
X0.6198 F59.
X0.5214
G2 Y0.3403 I0. J0.03
G1 X1.2426
X1.311
G3 Y0.4004 I0. J0.03
G1 X0.453
X0.4016
G2 Y0.4605 I0. J0.03
G1 X1.3624
X1.4018
G3 Y0.5206 I0. J0.03
G1 X0.3622
X0.3319
G2 Y0.5807 I0. J0.03
G1 X1.4321
X1.4545
G3 Y0.6408 I0. J0.03
G1 X0.3095
X0.2943
G2 Y0.7009 I0. J0.03
G1 X1.4697
X1.4788
G3 Y0.761 I0. J0.03
G1 X0.2852
X0.282
G2 Y0.8211 I0. J0.03
G1 X1.482
G3 Y0.8812 I0. J0.03
G1 X0.282
G2 Y0.9412 I0. J0.03
G1 X1.482
G3 Y1.0013 I0. J0.03
G1 X1.479
X0.285
G2 Y1.0614 I0. J0.03
G1 X0.294
X1.47
G3 Y1.1215 I0. J0.03
G1 X1.455
X0.309
G2 Y1.1816 I0. J0.03
G1 X0.3311
X1.4329
G3 Y1.2417 I0. J0.03
G1 X1.4027
X0.3613
G2 Y1.3018 I0. J0.03
G1 X0.4002
X1.3638
G3 Y1.3619 I0. J0.03
G1 X1.3126
X0.4514
G2 Y1.422 I0. J0.03
G1 X0.5193
X1.2447
G0 Z0.05
X1.1729 Y0.2802
G1 Z-0.08 F5.
X1.1442
X0.6198 F59.
X0.5214
G2 Y0.3403 I0. J0.03
G1 X1.2426
X1.311
G3 Y0.4004 I0. J0.03
G1 X0.453
X0.4016
G2 Y0.4605 I0. J0.03
G1 X1.3624
X1.4018
G3 Y0.5206 I0. J0.03
G1 X0.3622
X0.3319
G2 Y0.5807 I0. J0.03
G1 X1.4321
X1.4545
G3 Y0.6408 I0. J0.03
G1 X0.3095
X0.2943
G2 Y0.7009 I0. J0.03
G1 X1.4697
X1.4788
G3 Y0.761 I0. J0.03
G1 X0.2852
X0.282
G2 Y0.8211 I0. J0.03
G1 X1.482
G3 Y0.8812 I0. J0.03
G1 X0.282
G2 Y0.9412 I0. J0.03
G1 X1.482
G3 Y1.0013 I0. J0.03
G1 X1.479
X0.285
G2 Y1.0614 I0. J0.03
G1 X0.294
X1.47
G3 Y1.1215 I0. J0.03
G1 X1.455
X0.309
G2 Y1.1816 I0. J0.03
G1 X0.3311
X1.4329
G3 Y1.2417 I0. J0.03
G1 X1.4027
X0.3613
G2 Y1.3018 I0. J0.03
G1 X0.4002
X1.3638
G3 Y1.3619 I0. J0.03
G1 X1.3126
X0.4514
G2 Y1.422 I0. J0.03
G1 X0.5193
X1.2447
G0 Z0.05
X1.1729 Y0.2802
G1 Z-0.082 F5.
X1.1442
X0.6198 F59.
X0.5214
G2 Y0.3403 I0. J0.03
G1 X1.2426
X1.311
G3 Y0.4004 I0. J0.03
G1 X0.453
X0.4016
G2 Y0.4605 I0. J0.03
G1 X1.3624
X1.4018
G3 Y0.5206 I0. J0.03
G1 X0.3622
X0.3319
G2 Y0.5807 I0. J0.03
G1 X1.4321
X1.4545
G3 Y0.6408 I0. J0.03
G1 X0.3095
X0.2943
G2 Y0.7009 I0. J0.03
G1 X1.4697
X1.4788
G3 Y0.761 I0. J0.03
G1 X0.2852
X0.282
G2 Y0.8211 I0. J0.03
G1 X1.482
G3 Y0.8812 I0. J0.03
G1 X0.282
G2 Y0.9412 I0. J0.03
G1 X1.482
G3 Y1.0013 I0. J0.03
G1 X1.479
X0.285
G2 Y1.0614 I0. J0.03
G1 X0.294
X1.47
G3 Y1.1215 I0. J0.03
G1 X1.455
X0.309
G2 Y1.1816 I0. J0.03
G1 X0.3311
X1.4329
G3 Y1.2417 I0. J0.03
G1 X1.4027
X0.3613
G2 Y1.3018 I0. J0.03
G1 X0.4002
X1.3638
G3 Y1.3619 I0. J0.03
G1 X1.3126
X0.4514
G2 Y1.422 I0. J0.03
G1 X0.5193
X1.2447
G0 Z0.05
X1.1729 Y0.2802
G1 Z-0.084 F5.
X1.1442
X0.6198 F59.
X0.5214
G2 Y0.3403 I0. J0.03
G1 X1.2426
X1.311
G3 Y0.4004 I0. J0.03
G1 X0.453
X0.4016
G2 Y0.4605 I0. J0.03
G1 X1.3624
X1.4018
G3 Y0.5206 I0. J0.03
G1 X0.3622
X0.3319
G2 Y0.5807 I0. J0.03
G1 X1.4321
X1.4545
G3 Y0.6408 I0. J0.03
G1 X0.3095
X0.2943
G2 Y0.7009 I0. J0.03
G1 X1.4697
X1.4788
G3 Y0.761 I0. J0.03
G1 X0.2852
X0.282
G2 Y0.8211 I0. J0.03
G1 X1.482
G3 Y0.8812 I0. J0.03
G1 X0.282
G2 Y0.9412 I0. J0.03
G1 X1.482
G3 Y1.0013 I0. J0.03
G1 X1.479
X0.285
G2 Y1.0614 I0. J0.03
G1 X0.294
X1.47
G3 Y1.1215 I0. J0.03
G1 X1.455
X0.309
G2 Y1.1816 I0. J0.03
G1 X0.3311
X1.4329
G3 Y1.2417 I0. J0.03
G1 X1.4027
X0.3613
G2 Y1.3018 I0. J0.03
G1 X0.4002
X1.3638
G3 Y1.3619 I0. J0.03
G1 X1.3126
X0.4514
G2 Y1.422 I0. J0.03
G1 X0.5193
X1.2447
G0 Z0.05
X1.1729 Y0.2802
G1 Z-0.086 F5.
X1.1442
X0.6198 F59.
X0.5214
G2 Y0.3403 I0. J0.03
G1 X1.2426
X1.311
G3 Y0.4004 I0. J0.03
G1 X0.453
X0.4016
G2 Y0.4605 I0. J0.03
G1 X1.3624
X1.4018
G3 Y0.5206 I0. J0.03
G1 X0.3622
X0.3319
G2 Y0.5807 I0. J0.03
G1 X1.4321
X1.4545
G3 Y0.6408 I0. J0.03
G1 X0.3095
X0.2943
G2 Y0.7009 I0. J0.03
G1 X1.4697
X1.4788
G3 Y0.761 I0. J0.03
G1 X0.2852
X0.282
G2 Y0.8211 I0. J0.03
G1 X1.482
G3 Y0.8812 I0. J0.03
G1 X0.282
G2 Y0.9412 I0. J0.03
G1 X1.482
G3 Y1.0013 I0. J0.03
G1 X1.479
X0.285
G2 Y1.0614 I0. J0.03
G1 X0.294
X1.47
G3 Y1.1215 I0. J0.03
G1 X1.455
X0.309
G2 Y1.1816 I0. J0.03
G1 X0.3311
X1.4329
G3 Y1.2417 I0. J0.03
G1 X1.4027
X0.3613
G2 Y1.3018 I0. J0.03
G1 X0.4002
X1.3638
G3 Y1.3619 I0. J0.03
G1 X1.3126
X0.4514
G2 Y1.422 I0. J0.03
G1 X0.5193
X1.2447
G0 Z0.05
X1.1729 Y0.2802
G1 Z-0.088 F5.
X1.1442
X0.6198 F59.
X0.5214
G2 Y0.3403 I0. J0.03
G1 X1.2426
X1.311
G3 Y0.4004 I0. J0.03
G1 X0.453
X0.4016
G2 Y0.4605 I0. J0.03
G1 X1.3624
X1.4018
G3 Y0.5206 I0. J0.03
G1 X0.3622
X0.3319
G2 Y0.5807 I0. J0.03
G1 X1.4321
X1.4545
G3 Y0.6408 I0. J0.03
G1 X0.3095
X0.2943
G2 Y0.7009 I0. J0.03
G1 X1.4697
X1.4788
G3 Y0.761 I0. J0.03
G1 X0.2852
X0.282
G2 Y0.8211 I0. J0.03
G1 X1.482
G3 Y0.8812 I0. J0.03
G1 X0.282
G2 Y0.9412 I0. J0.03
G1 X1.482
G3 Y1.0013 I0. J0.03
G1 X1.479
X0.285
G2 Y1.0614 I0. J0.03
G1 X0.294
X1.47
G3 Y1.1215 I0. J0.03
G1 X1.455
X0.309
G2 Y1.1816 I0. J0.03
G1 X0.3311
X1.4329
G3 Y1.2417 I0. J0.03
G1 X1.4027
X0.3613
G2 Y1.3018 I0. J0.03
G1 X0.4002
X1.3638
G3 Y1.3619 I0. J0.03
G1 X1.3126
X0.4514
G2 Y1.422 I0. J0.03
G1 X0.5193
X1.2447
G0 Z0.05
X1.1729 Y0.2802
G1 Z-0.09 F5.
X1.1442
X0.6198 F59.
X0.5214
G2 Y0.3403 I0. J0.03
G1 X1.2426
X1.311
G3 Y0.4004 I0. J0.03
G1 X0.453
X0.4016
G2 Y0.4605 I0. J0.03
G1 X1.3624
X1.4018
G3 Y0.5206 I0. J0.03
G1 X0.3622
X0.3319
G2 Y0.5807 I0. J0.03
G1 X1.4321
X1.4545
G3 Y0.6408 I0. J0.03
G1 X0.3095
X0.2943
G2 Y0.7009 I0. J0.03
G1 X1.4697
X1.4788
G3 Y0.761 I0. J0.03
G1 X0.2852
X0.282
G2 Y0.8211 I0. J0.03
G1 X1.482
G3 Y0.8812 I0. J0.03
G1 X0.282
G2 Y0.9412 I0. J0.03
G1 X1.482
G3 Y1.0013 I0. J0.03
G1 X1.479
X0.285
G2 Y1.0614 I0. J0.03
G1 X0.294
X1.47
G3 Y1.1215 I0. J0.03
G1 X1.455
X0.309
G2 Y1.1816 I0. J0.03
G1 X0.3311
X1.4329
G3 Y1.2417 I0. J0.03
G1 X1.4027
X0.3613
G2 Y1.3018 I0. J0.03
G1 X0.4002
X1.3638
G3 Y1.3619 I0. J0.03
G1 X1.3126
X0.4514
G2 Y1.422 I0. J0.03
G1 X0.5193
X1.2447
G0 Z0.05
X1.1729 Y0.2802
G1 Z-0.092 F5.
X1.1442
X0.6198 F59.
X0.5214
G2 Y0.3403 I0. J0.03
G1 X1.2426
X1.311
G3 Y0.4004 I0. J0.03
G1 X0.453
X0.4016
G2 Y0.4605 I0. J0.03
G1 X1.3624
X1.4018
G3 Y0.5206 I0. J0.03
G1 X0.3622
X0.3319
G2 Y0.5807 I0. J0.03
G1 X1.4321
X1.4545
G3 Y0.6408 I0. J0.03
G1 X0.3095
X0.2943
G2 Y0.7009 I0. J0.03
G1 X1.4697
X1.4788
G3 Y0.761 I0. J0.03
G1 X0.2852
X0.282
G2 Y0.8211 I0. J0.03
G1 X1.482
G3 Y0.8812 I0. J0.03
G1 X0.282
G2 Y0.9412 I0. J0.03
G1 X1.482
G3 Y1.0013 I0. J0.03
G1 X1.479
X0.285
G2 Y1.0614 I0. J0.03
G1 X0.294
X1.47
G3 Y1.1215 I0. J0.03
G1 X1.455
X0.309
G2 Y1.1816 I0. J0.03
G1 X0.3311
X1.4329
G3 Y1.2417 I0. J0.03
G1 X1.4027
X0.3613
G2 Y1.3018 I0. J0.03
G1 X0.4002
X1.3638
G3 Y1.3619 I0. J0.03
G1 X1.3126
X0.4514
G2 Y1.422 I0. J0.03
G1 X0.5193
X1.2447
G0 Z0.05
X1.1729 Y0.2802
G1 Z-0.094 F5.
X1.1442
X0.6198 F59.
X0.5214
G2 Y0.3403 I0. J0.03
G1 X1.2426
X1.311
G3 Y0.4004 I0. J0.03
G1 X0.453
X0.4016
G2 Y0.4605 I0. J0.03
G1 X1.3624
X1.4018
G3 Y0.5206 I0. J0.03
G1 X0.3622
X0.3319
G2 Y0.5807 I0. J0.03
G1 X1.4321
X1.4545
G3 Y0.6408 I0. J0.03
G1 X0.3095
X0.2943
G2 Y0.7009 I0. J0.03
G1 X1.4697
X1.4788
G3 Y0.761 I0. J0.03
G1 X0.2852
X0.282
G2 Y0.8211 I0. J0.03
G1 X1.482
G3 Y0.8812 I0. J0.03
G1 X0.282
G2 Y0.9412 I0. J0.03
G1 X1.482
G3 Y1.0013 I0. J0.03
G1 X1.479
X0.285
G2 Y1.0614 I0. J0.03
G1 X0.294
X1.47
G3 Y1.1215 I0. J0.03
G1 X1.455
X0.309
G2 Y1.1816 I0. J0.03
G1 X0.3311
X1.4329
G3 Y1.2417 I0. J0.03
G1 X1.4027
X0.3613
G2 Y1.3018 I0. J0.03
G1 X0.4002
X1.3638
G3 Y1.3619 I0. J0.03
G1 X1.3126
X0.4514
G2 Y1.422 I0. J0.03
G1 X0.5193
X1.2447
G0 Z0.05
X1.1729 Y0.2802
G1 Z-0.096 F5.
X1.1442
X0.6198 F59.
X0.5214
G2 Y0.3403 I0. J0.03
G1 X1.2426
X1.311
G3 Y0.4004 I0. J0.03
G1 X0.453
X0.4016
G2 Y0.4605 I0. J0.03
G1 X1.3624
X1.4018
G3 Y0.5206 I0. J0.03
G1 X0.3622
X0.3319
G2 Y0.5807 I0. J0.03
G1 X1.4321
X1.4545
G3 Y0.6408 I0. J0.03
G1 X0.3095
X0.2943
G2 Y0.7009 I0. J0.03
G1 X1.4697
X1.4788
G3 Y0.761 I0. J0.03
G1 X0.2852
X0.282
G2 Y0.8211 I0. J0.03
G1 X1.482
G3 Y0.8812 I0. J0.03
G1 X0.282
G2 Y0.9412 I0. J0.03
G1 X1.482
G3 Y1.0013 I0. J0.03
G1 X1.479
X0.285
G2 Y1.0614 I0. J0.03
G1 X0.294
X1.47
G3 Y1.1215 I0. J0.03
G1 X1.455
X0.309
G2 Y1.1816 I0. J0.03
G1 X0.3311
X1.4329
G3 Y1.2417 I0. J0.03
G1 X1.4027
X0.3613
G2 Y1.3018 I0. J0.03
G1 X0.4002
X1.3638
G3 Y1.3619 I0. J0.03
G1 X1.3126
X0.4514
G2 Y1.422 I0. J0.03
G1 X0.5193
X1.2447
G0 Z0.05
X1.1729 Y0.2802
G1 Z-0.098 F5.
X1.1442
X0.6198 F59.
X0.5214
G2 Y0.3403 I0. J0.03
G1 X1.2426
X1.311
G3 Y0.4004 I0. J0.03
G1 X0.453
X0.4016
G2 Y0.4605 I0. J0.03
G1 X1.3624
X1.4018
G3 Y0.5206 I0. J0.03
G1 X0.3622
X0.3319
G2 Y0.5807 I0. J0.03
G1 X1.4321
X1.4545
G3 Y0.6408 I0. J0.03
G1 X0.3095
X0.2943
G2 Y0.7009 I0. J0.03
G1 X1.4697
X1.4788
G3 Y0.761 I0. J0.03
G1 X0.2852
X0.282
G2 Y0.8211 I0. J0.03
G1 X1.482
G3 Y0.8812 I0. J0.03
G1 X0.282
G2 Y0.9412 I0. J0.03
G1 X1.482
G3 Y1.0013 I0. J0.03
G1 X1.479
X0.285
G2 Y1.0614 I0. J0.03
G1 X0.294
X1.47
G3 Y1.1215 I0. J0.03
G1 X1.455
X0.309
G2 Y1.1816 I0. J0.03
G1 X0.3311
X1.4329
G3 Y1.2417 I0. J0.03
G1 X1.4027
X0.3613
G2 Y1.3018 I0. J0.03
G1 X0.4002
X1.3638
G3 Y1.3619 I0. J0.03
G1 X1.3126
X0.4514
G2 Y1.422 I0. J0.03
G1 X0.5193
X1.2447
G0 Z0.05
X1.1729 Y0.2802
G1 Z-0.1 F5.
X1.1442
X0.6198 F59.
X0.5214
G2 Y0.3403 I0. J0.03
G1 X1.2426
X1.311
G3 Y0.4004 I0. J0.03
G1 X0.453
X0.4016
G2 Y0.4605 I0. J0.03
G1 X1.3624
X1.4018
G3 Y0.5206 I0. J0.03
G1 X0.3622
X0.3319
G2 Y0.5807 I0. J0.03
G1 X1.4321
X1.4545
G3 Y0.6408 I0. J0.03
G1 X0.3095
X0.2943
G2 Y0.7009 I0. J0.03
G1 X1.4697
X1.4788
G3 Y0.761 I0. J0.03
G1 X0.2852
X0.282
G2 Y0.8211 I0. J0.03
G1 X1.482
G3 Y0.8812 I0. J0.03
G1 X0.282
G2 Y0.9412 I0. J0.03
G1 X1.482
G3 Y1.0013 I0. J0.03
G1 X1.479
X0.285
G2 Y1.0614 I0. J0.03
G1 X0.294
X1.47
G3 Y1.1215 I0. J0.03
G1 X1.455
X0.309
G2 Y1.1816 I0. J0.03
G1 X0.3311
X1.4329
G3 Y1.2417 I0. J0.03
G1 X1.4027
X0.3613
G2 Y1.3018 I0. J0.03
G1 X0.4002
X1.3638
G3 Y1.3619 I0. J0.03
G1 X1.3126
X0.4514
G2 Y1.422 I0. J0.03
G1 X0.5193
X1.2447
G0 Z0.05
X1.1729 Y0.2802
G1 Z-0.102 F5.
X1.1442
X0.6198 F59.
X0.5214
G2 Y0.3403 I0. J0.03
G1 X1.2426
X1.311
G3 Y0.4004 I0. J0.03
G1 X0.453
X0.4016
G2 Y0.4605 I0. J0.03
G1 X1.3624
X1.4018
G3 Y0.5206 I0. J0.03
G1 X0.3622
X0.3319
G2 Y0.5807 I0. J0.03
G1 X1.4321
X1.4545
G3 Y0.6408 I0. J0.03
G1 X0.3095
X0.2943
G2 Y0.7009 I0. J0.03
G1 X1.4697
X1.4788
G3 Y0.761 I0. J0.03
G1 X0.2852
X0.282
G2 Y0.8211 I0. J0.03
G1 X1.482
G3 Y0.8812 I0. J0.03
G1 X0.282
G2 Y0.9412 I0. J0.03
G1 X1.482
G3 Y1.0013 I0. J0.03
G1 X1.479
X0.285
G2 Y1.0614 I0. J0.03
G1 X0.294
X1.47
G3 Y1.1215 I0. J0.03
G1 X1.455
X0.309
G2 Y1.1816 I0. J0.03
G1 X0.3311
X1.4329
G3 Y1.2417 I0. J0.03
G1 X1.4027
X0.3613
G2 Y1.3018 I0. J0.03
G1 X0.4002
X1.3638
G3 Y1.3619 I0. J0.03
G1 X1.3126
X0.4514
G2 Y1.422 I0. J0.03
G1 X0.5193
X1.2447
G0 Z0.05
X1.1729 Y0.2802
G1 Z-0.104 F5.
X1.1442
X0.6198 F59.
X0.5214
G2 Y0.3403 I0. J0.03
G1 X1.2426
X1.311
G3 Y0.4004 I0. J0.03
G1 X0.453
X0.4016
G2 Y0.4605 I0. J0.03
G1 X1.3624
X1.4018
G3 Y0.5206 I0. J0.03
G1 X0.3622
X0.3319
G2 Y0.5807 I0. J0.03
G1 X1.4321
X1.4545
G3 Y0.6408 I0. J0.03
G1 X0.3095
X0.2943
G2 Y0.7009 I0. J0.03
G1 X1.4697
X1.4788
G3 Y0.761 I0. J0.03
G1 X0.2852
X0.282
G2 Y0.8211 I0. J0.03
G1 X1.482
G3 Y0.8812 I0. J0.03
G1 X0.282
G2 Y0.9412 I0. J0.03
G1 X1.482
G3 Y1.0013 I0. J0.03
G1 X1.479
X0.285
G2 Y1.0614 I0. J0.03
G1 X0.294
X1.47
G3 Y1.1215 I0. J0.03
G1 X1.455
X0.309
G2 Y1.1816 I0. J0.03
G1 X0.3311
X1.4329
G3 Y1.2417 I0. J0.03
G1 X1.4027
X0.3613
G2 Y1.3018 I0. J0.03
G1 X0.4002
X1.3638
G3 Y1.3619 I0. J0.03
G1 X1.3126
X0.4514
G2 Y1.422 I0. J0.03
G1 X0.5193
X1.2447
G0 Z0.05
X1.1729 Y0.2802
G1 Z-0.106 F5.
X1.1442
X0.6198 F59.
X0.5214
G2 Y0.3403 I0. J0.03
G1 X1.2426
X1.311
G3 Y0.4004 I0. J0.03
G1 X0.453
X0.4016
G2 Y0.4605 I0. J0.03
G1 X1.3624
X1.4018
G3 Y0.5206 I0. J0.03
G1 X0.3622
X0.3319
G2 Y0.5807 I0. J0.03
G1 X1.4321
X1.4545
G3 Y0.6408 I0. J0.03
G1 X0.3095
X0.2943
G2 Y0.7009 I0. J0.03
G1 X1.4697
X1.4788
G3 Y0.761 I0. J0.03
G1 X0.2852
X0.282
G2 Y0.8211 I0. J0.03
G1 X1.482
G3 Y0.8812 I0. J0.03
G1 X0.282
G2 Y0.9412 I0. J0.03
G1 X1.482
G3 Y1.0013 I0. J0.03
G1 X1.479
X0.285
G2 Y1.0614 I0. J0.03
G1 X0.294
X1.47
G3 Y1.1215 I0. J0.03
G1 X1.455
X0.309
G2 Y1.1816 I0. J0.03
G1 X0.3311
X1.4329
G3 Y1.2417 I0. J0.03
G1 X1.4027
X0.3613
G2 Y1.3018 I0. J0.03
G1 X0.4002
X1.3638
G3 Y1.3619 I0. J0.03
G1 X1.3126
X0.4514
G2 Y1.422 I0. J0.03
G1 X0.5193
X1.2447
G0 Z0.05
X1.1729 Y0.2802
G1 Z-0.108 F5.
X1.1442
X0.6198 F59.
X0.5214
G2 Y0.3403 I0. J0.03
G1 X1.2426
X1.311
G3 Y0.4004 I0. J0.03
G1 X0.453
X0.4016
G2 Y0.4605 I0. J0.03
G1 X1.3624
X1.4018
G3 Y0.5206 I0. J0.03
G1 X0.3622
X0.3319
G2 Y0.5807 I0. J0.03
G1 X1.4321
X1.4545
G3 Y0.6408 I0. J0.03
G1 X0.3095
X0.2943
G2 Y0.7009 I0. J0.03
G1 X1.4697
X1.4788
G3 Y0.761 I0. J0.03
G1 X0.2852
X0.282
G2 Y0.8211 I0. J0.03
G1 X1.482
G3 Y0.8812 I0. J0.03
G1 X0.282
G2 Y0.9412 I0. J0.03
G1 X1.482
G3 Y1.0013 I0. J0.03
G1 X1.479
X0.285
G2 Y1.0614 I0. J0.03
G1 X0.294
X1.47
G3 Y1.1215 I0. J0.03
G1 X1.455
X0.309
G2 Y1.1816 I0. J0.03
G1 X0.3311
X1.4329
G3 Y1.2417 I0. J0.03
G1 X1.4027
X0.3613
G2 Y1.3018 I0. J0.03
G1 X0.4002
X1.3638
G3 Y1.3619 I0. J0.03
G1 X1.3126
X0.4514
G2 Y1.422 I0. J0.03
G1 X0.5193
X1.2447
G0 Z0.05
X1.1729 Y0.2802
G1 Z-0.11 F5.
X1.1442
X0.6198 F59.
X0.5214
G2 Y0.3403 I0. J0.03
G1 X1.2426
X1.311
G3 Y0.4004 I0. J0.03
G1 X0.453
X0.4016
G2 Y0.4605 I0. J0.03
G1 X1.3624
X1.4018
G3 Y0.5206 I0. J0.03
G1 X0.3622
X0.3319
G2 Y0.5807 I0. J0.03
G1 X1.4321
X1.4545
G3 Y0.6408 I0. J0.03
G1 X0.3095
X0.2943
G2 Y0.7009 I0. J0.03
G1 X1.4697
X1.4788
G3 Y0.761 I0. J0.03
G1 X0.2852
X0.282
G2 Y0.8211 I0. J0.03
G1 X1.482
G3 Y0.8812 I0. J0.03
G1 X0.282
G2 Y0.9412 I0. J0.03
G1 X1.482
G3 Y1.0013 I0. J0.03
G1 X1.479
X0.285
G2 Y1.0614 I0. J0.03
G1 X0.294
X1.47
G3 Y1.1215 I0. J0.03
G1 X1.455
X0.309
G2 Y1.1816 I0. J0.03
G1 X0.3311
X1.4329
G3 Y1.2417 I0. J0.03
G1 X1.4027
X0.3613
G2 Y1.3018 I0. J0.03
G1 X0.4002
X1.3638
G3 Y1.3619 I0. J0.03
G1 X1.3126
X0.4514
G2 Y1.422 I0. J0.03
G1 X0.5193
X1.2447
G0 Z0.05
X1.1729 Y0.2802
G1 Z-0.112 F5.
X1.1442
X0.6198 F59.
X0.5214
G2 Y0.3403 I0. J0.03
G1 X1.2426
X1.311
G3 Y0.4004 I0. J0.03
G1 X0.453
X0.4016
G2 Y0.4605 I0. J0.03
G1 X1.3624
X1.4018
G3 Y0.5206 I0. J0.03
G1 X0.3622
X0.3319
G2 Y0.5807 I0. J0.03
G1 X1.4321
X1.4545
G3 Y0.6408 I0. J0.03
G1 X0.3095
X0.2943
G2 Y0.7009 I0. J0.03
G1 X1.4697
X1.4788
G3 Y0.761 I0. J0.03
G1 X0.2852
X0.282
G2 Y0.8211 I0. J0.03
G1 X1.482
G3 Y0.8812 I0. J0.03
G1 X0.282
G2 Y0.9412 I0. J0.03
G1 X1.482
G3 Y1.0013 I0. J0.03
G1 X1.479
X0.285
G2 Y1.0614 I0. J0.03
G1 X0.294
X1.47
G3 Y1.1215 I0. J0.03
G1 X1.455
X0.309
G2 Y1.1816 I0. J0.03
G1 X0.3311
X1.4329
G3 Y1.2417 I0. J0.03
G1 X1.4027
X0.3613
G2 Y1.3018 I0. J0.03
G1 X0.4002
X1.3638
G3 Y1.3619 I0. J0.03
G1 X1.3126
X0.4514
G2 Y1.422 I0. J0.03
G1 X0.5193
X1.2447
G0 Z0.05
X1.1729 Y0.2802
G1 Z-0.114 F5.
X1.1442
X0.6198 F59.
X0.5214
G2 Y0.3403 I0. J0.03
G1 X1.2426
X1.311
G3 Y0.4004 I0. J0.03
G1 X0.453
X0.4016
G2 Y0.4605 I0. J0.03
G1 X1.3624
X1.4018
G3 Y0.5206 I0. J0.03
G1 X0.3622
X0.3319
G2 Y0.5807 I0. J0.03
G1 X1.4321
X1.4545
G3 Y0.6408 I0. J0.03
G1 X0.3095
X0.2943
G2 Y0.7009 I0. J0.03
G1 X1.4697
X1.4788
G3 Y0.761 I0. J0.03
G1 X0.2852
X0.282
G2 Y0.8211 I0. J0.03
G1 X1.482
G3 Y0.8812 I0. J0.03
G1 X0.282
G2 Y0.9412 I0. J0.03
G1 X1.482
G3 Y1.0013 I0. J0.03
G1 X1.479
X0.285
G2 Y1.0614 I0. J0.03
G1 X0.294
X1.47
G3 Y1.1215 I0. J0.03
G1 X1.455
X0.309
G2 Y1.1816 I0. J0.03
G1 X0.3311
X1.4329
G3 Y1.2417 I0. J0.03
G1 X1.4027
X0.3613
G2 Y1.3018 I0. J0.03
G1 X0.4002
X1.3638
G3 Y1.3619 I0. J0.03
G1 X1.3126
X0.4514
G2 Y1.422 I0. J0.03
G1 X0.5193
X1.2447
G0 Z0.05
X1.1729 Y0.2802
G1 Z-0.116 F5.
X1.1442
X0.6198 F59.
X0.5214
G2 Y0.3403 I0. J0.03
G1 X1.2426
X1.311
G3 Y0.4004 I0. J0.03
G1 X0.453
X0.4016
G2 Y0.4605 I0. J0.03
G1 X1.3624
X1.4018
G3 Y0.5206 I0. J0.03
G1 X0.3622
X0.3319
G2 Y0.5807 I0. J0.03
G1 X1.4321
X1.4545
G3 Y0.6408 I0. J0.03
G1 X0.3095
X0.2943
G2 Y0.7009 I0. J0.03
G1 X1.4697
X1.4788
G3 Y0.761 I0. J0.03
G1 X0.2852
X0.282
G2 Y0.8211 I0. J0.03
G1 X1.482
G3 Y0.8812 I0. J0.03
G1 X0.282
G2 Y0.9412 I0. J0.03
G1 X1.482
G3 Y1.0013 I0. J0.03
G1 X1.479
X0.285
G2 Y1.0614 I0. J0.03
G1 X0.294
X1.47
G3 Y1.1215 I0. J0.03
G1 X1.455
X0.309
G2 Y1.1816 I0. J0.03
G1 X0.3311
X1.4329
G3 Y1.2417 I0. J0.03
G1 X1.4027
X0.3613
G2 Y1.3018 I0. J0.03
G1 X0.4002
X1.3638
G3 Y1.3619 I0. J0.03
G1 X1.3126
X0.4514
G2 Y1.422 I0. J0.03
G1 X0.5193
X1.2447
G0 Z0.05
X1.1729 Y0.2802
G1 Z-0.118 F5.
X1.1442
X0.6198 F59.
X0.5214
G2 Y0.3403 I0. J0.03
G1 X1.2426
X1.311
G3 Y0.4004 I0. J0.03
G1 X0.453
X0.4016
G2 Y0.4605 I0. J0.03
G1 X1.3624
X1.4018
G3 Y0.5206 I0. J0.03
G1 X0.3622
X0.3319
G2 Y0.5807 I0. J0.03
G1 X1.4321
X1.4545
G3 Y0.6408 I0. J0.03
G1 X0.3095
X0.2943
G2 Y0.7009 I0. J0.03
G1 X1.4697
X1.4788
G3 Y0.761 I0. J0.03
G1 X0.2852
X0.282
G2 Y0.8211 I0. J0.03
G1 X1.482
G3 Y0.8812 I0. J0.03
G1 X0.282
G2 Y0.9412 I0. J0.03
G1 X1.482
G3 Y1.0013 I0. J0.03
G1 X1.479
X0.285
G2 Y1.0614 I0. J0.03
G1 X0.294
X1.47
G3 Y1.1215 I0. J0.03
G1 X1.455
X0.309
G2 Y1.1816 I0. J0.03
G1 X0.3311
X1.4329
G3 Y1.2417 I0. J0.03
G1 X1.4027
X0.3613
G2 Y1.3018 I0. J0.03
G1 X0.4002
X1.3638
G3 Y1.3619 I0. J0.03
G1 X1.3126
X0.4514
G2 Y1.422 I0. J0.03
G1 X0.5193
X1.2447
G0 Z0.05
X1.1729 Y0.2802
G1 Z-0.12 F5.
X1.1442
X0.6198 F59.
X0.5214
G2 Y0.3403 I0. J0.03
G1 X1.2426
X1.311
G3 Y0.4004 I0. J0.03
G1 X0.453
X0.4016
G2 Y0.4605 I0. J0.03
G1 X1.3624
X1.4018
G3 Y0.5206 I0. J0.03
G1 X0.3622
X0.3319
G2 Y0.5807 I0. J0.03
G1 X1.4321
X1.4545
G3 Y0.6408 I0. J0.03
G1 X0.3095
X0.2943
G2 Y0.7009 I0. J0.03
G1 X1.4697
X1.4788
G3 Y0.761 I0. J0.03
G1 X0.2852
X0.282
G2 Y0.8211 I0. J0.03
G1 X1.482
G3 Y0.8812 I0. J0.03
G1 X0.282
G2 Y0.9412 I0. J0.03
G1 X1.482
G3 Y1.0013 I0. J0.03
G1 X1.479
X0.285
G2 Y1.0614 I0. J0.03
G1 X0.294
X1.47
G3 Y1.1215 I0. J0.03
G1 X1.455
X0.309
G2 Y1.1816 I0. J0.03
G1 X0.3311
X1.4329
G3 Y1.2417 I0. J0.03
G1 X1.4027
X0.3613
G2 Y1.3018 I0. J0.03
G1 X0.4002
X1.3638
G3 Y1.3619 I0. J0.03
G1 X1.3126
X0.4514
G2 Y1.422 I0. J0.03
G1 X0.5193
X1.2447
G0 Z0.05
X1.1729 Y0.2802
G1 Z-0.122 F5.
X1.1442
X0.6198 F59.
X0.5214
G2 Y0.3403 I0. J0.03
G1 X1.2426
X1.311
G3 Y0.4004 I0. J0.03
G1 X0.453
X0.4016
G2 Y0.4605 I0. J0.03
G1 X1.3624
X1.4018
G3 Y0.5206 I0. J0.03
G1 X0.3622
X0.3319
G2 Y0.5807 I0. J0.03
G1 X1.4321
X1.4545
G3 Y0.6408 I0. J0.03
G1 X0.3095
X0.2943
G2 Y0.7009 I0. J0.03
G1 X1.4697
X1.4788
G3 Y0.761 I0. J0.03
G1 X0.2852
X0.282
G2 Y0.8211 I0. J0.03
G1 X1.482
G3 Y0.8812 I0. J0.03
G1 X0.282
G2 Y0.9412 I0. J0.03
G1 X1.482
G3 Y1.0013 I0. J0.03
G1 X1.479
X0.285
G2 Y1.0614 I0. J0.03
G1 X0.294
X1.47
G3 Y1.1215 I0. J0.03
G1 X1.455
X0.309
G2 Y1.1816 I0. J0.03
G1 X0.3311
X1.4329
G3 Y1.2417 I0. J0.03
G1 X1.4027
X0.3613
G2 Y1.3018 I0. J0.03
G1 X0.4002
X1.3638
G3 Y1.3619 I0. J0.03
G1 X1.3126
X0.4514
G2 Y1.422 I0. J0.03
G1 X0.5193
X1.2447
G0 Z0.05
X1.1729 Y0.2802
G1 Z-0.124 F5.
X1.1442
X0.6198 F59.
X0.5214
G2 Y0.3403 I0. J0.03
G1 X1.2426
X1.311
G3 Y0.4004 I0. J0.03
G1 X0.453
X0.4016
G2 Y0.4605 I0. J0.03
G1 X1.3624
X1.4018
G3 Y0.5206 I0. J0.03
G1 X0.3622
X0.3319
G2 Y0.5807 I0. J0.03
G1 X1.4321
X1.4545
G3 Y0.6408 I0. J0.03
G1 X0.3095
X0.2943
G2 Y0.7009 I0. J0.03
G1 X1.4697
X1.4788
G3 Y0.761 I0. J0.03
G1 X0.2852
X0.282
G2 Y0.8211 I0. J0.03
G1 X1.482
G3 Y0.8812 I0. J0.03
G1 X0.282
G2 Y0.9412 I0. J0.03
G1 X1.482
G3 Y1.0013 I0. J0.03
G1 X1.479
X0.285
G2 Y1.0614 I0. J0.03
G1 X0.294
X1.47
G3 Y1.1215 I0. J0.03
G1 X1.455
X0.309
G2 Y1.1816 I0. J0.03
G1 X0.3311
X1.4329
G3 Y1.2417 I0. J0.03
G1 X1.4027
X0.3613
G2 Y1.3018 I0. J0.03
G1 X0.4002
X1.3638
G3 Y1.3619 I0. J0.03
G1 X1.3126
X0.4514
G2 Y1.422 I0. J0.03
G1 X0.5193
X1.2447
G0 Z0.05
X1.1729 Y0.2802
G1 Z-0.126 F5.
X1.1442
X0.6198 F59.
X0.5214
G2 Y0.3403 I0. J0.03
G1 X1.2426
X1.311
G3 Y0.4004 I0. J0.03
G1 X0.453
X0.4016
G2 Y0.4605 I0. J0.03
G1 X1.3624
X1.4018
G3 Y0.5206 I0. J0.03
G1 X0.3622
X0.3319
G2 Y0.5807 I0. J0.03
G1 X1.4321
X1.4545
G3 Y0.6408 I0. J0.03
G1 X0.3095
X0.2943
G2 Y0.7009 I0. J0.03
G1 X1.4697
X1.4788
G3 Y0.761 I0. J0.03
G1 X0.2852
X0.282
G2 Y0.8211 I0. J0.03
G1 X1.482
G3 Y0.8812 I0. J0.03
G1 X0.282
G2 Y0.9412 I0. J0.03
G1 X1.482
G3 Y1.0013 I0. J0.03
G1 X1.479
X0.285
G2 Y1.0614 I0. J0.03
G1 X0.294
X1.47
G3 Y1.1215 I0. J0.03
G1 X1.455
X0.309
G2 Y1.1816 I0. J0.03
G1 X0.3311
X1.4329
G3 Y1.2417 I0. J0.03
G1 X1.4027
X0.3613
G2 Y1.3018 I0. J0.03
G1 X0.4002
X1.3638
G3 Y1.3619 I0. J0.03
G1 X1.3126
X0.4514
G2 Y1.422 I0. J0.03
G1 X0.5193
X1.2447
G0 Z0.65

(RAMP1)
G55
M9
G0 X0.8317 Y1.0142
Z0.6
Z-0.1114
G1 Z-0.1128 F5.
X0.8319 Y1.0143 Z-0.1141
X0.8323 Y1.0145 Z-0.1154
G3 X0.8327 Y1.0148 Z-0.1167 I-0.0286 J0.052
X0.8333 Y1.0151 Z-0.1179 I-0.029 J0.0518
X0.834 Y1.0155 Z-0.1191 I-0.0296 J0.0515
X0.8347 Y1.016 Z-0.1201 I-0.0303 J0.0511
X0.8356 Y1.0165 Z-0.121 I-0.031 J0.0506
X0.8365 Y1.0171 Z-0.1218 I-0.0319 J0.0501
X0.8375 Y1.0177 Z-0.1225 I-0.0328 J0.0495
X0.8385 Y1.0185 Z-0.1231 I-0.0338 J0.0488
X0.8395 Y1.0192 Z-0.1235 I-0.0348 J0.0481
X0.8406 Y1.0201 Z-0.1238 I-0.0359 J0.0473
X0.8417 Y1.0209 Z-0.1239 I-0.0369 J0.0465
X0.8625 Y1.0744 Z-0.126 I-0.038 J0.0456
Y1.0748 I-0.0589 J-0.0078
G1 X0.8551 Y1.1274
G3 X0.841 Y1.1381 I-0.0124 J-0.0017
G1 X0.8369 Y1.1375 F59.
X0.82 Y1.1339
X0.8144 Y1.1324
X0.8031 Y1.1291
X0.7975 Y1.1272 Z-0.1261
X0.7862 Y1.1231
X0.7806 Y1.1207
X0.7693 Y1.1157
X0.7639 Y1.1129
X0.7524 Y1.1068
X0.7468 Y1.1033
X0.7412 Y1.0998
X0.7355 Y1.0961
X0.7243 Y1.0879 Z-0.1262
X0.7202 Y1.0847
X0.713 Y1.0787
X0.7074 Y1.0738
X0.6961 Y1.063
X0.6953 Y1.0622
X0.6848 Y1.0506
X0.6805 Y1.0453
X0.6736 Y1.0364
X0.6718 Y1.034 Z-0.1263
X0.6623 Y1.02
X0.6606 Y1.0171
X0.6541 Y1.0059
X0.6512 Y1.0002
X0.6454 Y0.9885
X0.6433 Y0.9834
X0.6387 Y0.9721
X0.6368 Y0.9665
X0.6331 Y0.9552 Z-0.1264
X0.6316 Y0.9496
X0.6285 Y0.9372
X0.6276 Y0.9327
X0.6256 Y0.9214
X0.6248 Y0.9158
X0.6236 Y0.9045
X0.6231 Y0.8989
X0.6225 Y0.882
X0.6231 Y0.8651 Z-0.1265
X0.6236 Y0.8595
X0.6248 Y0.8482
X0.6256 Y0.8426
X0.6276 Y0.8313
X0.6285 Y0.8268
X0.6316 Y0.8144
X0.6331 Y0.8088
X0.6368 Y0.7975 Z-0.1266
X0.6387 Y0.7919
X0.6433 Y0.7806
X0.6454 Y0.7755
X0.6512 Y0.7638
X0.6541 Y0.7581
X0.6606 Y0.7469
X0.6623 Y0.744
X0.6718 Y0.73
X0.6736 Y0.7276 Z-0.1267
X0.6805 Y0.7187
X0.6848 Y0.7134
X0.6953 Y0.7018
X0.6961 Y0.701
X0.7074 Y0.6902
X0.713 Y0.6853
X0.7202 Y0.6793
X0.7243 Y0.6761
X0.7355 Y0.6679 Z-0.1268
X0.7412 Y0.6642
X0.7468 Y0.6607
X0.7524 Y0.6572
X0.7639 Y0.6511
X0.7693 Y0.6483
X0.7806 Y0.6433
X0.7862 Y0.6409
X0.7975 Y0.6368
X0.8031 Y0.6349 Z-0.1269
X0.8144 Y0.6316
X0.82 Y0.6301
X0.8369 Y0.6265
X0.8426 Y0.6257
X0.8538 Y0.6241
X0.8595 Y0.6236
X0.8707 Y0.6229
X0.8764 Y0.6227
X0.8876 Z-0.127
X0.8933 Y0.6229
X0.9045 Y0.6236
X0.9102 Y0.6241
X0.9214 Y0.6257
X0.9271 Y0.6265
X0.944 Y0.6301
X0.9496 Y0.6316
X0.9609 Y0.6349
X0.9665 Y0.6368 Z-0.1271
X0.9778 Y0.6409
X0.9834 Y0.6433
X0.9947 Y0.6483
X1.0001 Y0.6511
X1.0116 Y0.6572
X1.0172 Y0.6607
X1.0228 Y0.6642
X1.0285 Y0.6679
X1.0397 Y0.6761 Z-0.1272
X1.0438 Y0.6793
X1.051 Y0.6853
X1.0566 Y0.6902
X1.0679 Y0.701
X1.0687 Y0.7018
X1.0792 Y0.7134
X1.0835 Y0.7187
X1.0904 Y0.7276
X1.0922 Y0.73 Z-0.1273
X1.1017 Y0.744
X1.1034 Y0.7469
X1.1099 Y0.7581
X1.1128 Y0.7638
X1.1186 Y0.7755
X1.1207 Y0.7806
X1.1253 Y0.7919
X1.1272 Y0.7975
X1.1309 Y0.8088 Z-0.1274
X1.1324 Y0.8144
X1.1355 Y0.8268
X1.1364 Y0.8313
X1.1384 Y0.8426
X1.1392 Y0.8482
X1.1404 Y0.8595
X1.1409 Y0.8651
X1.1415 Y0.882
X1.1409 Y0.8989 Z-0.1275
X1.1404 Y0.9045
X1.1392 Y0.9158
X1.1384 Y0.9214
X1.1364 Y0.9327
X1.1355 Y0.9372
X1.1324 Y0.9496
X1.1309 Y0.9552
X1.1272 Y0.9665 Z-0.1276
X1.1253 Y0.9721
X1.1207 Y0.9834
X1.1186 Y0.9885
X1.1128 Y1.0002
X1.1099 Y1.0059
X1.1034 Y1.0171
X1.1017 Y1.02
X1.0922 Y1.034
X1.0904 Y1.0364 Z-0.1277
X1.0835 Y1.0453
X1.0792 Y1.0506
X1.0687 Y1.0622
X1.0679 Y1.063
X1.0566 Y1.0738
X1.051 Y1.0787
X1.0438 Y1.0847
X1.0397 Y1.0879
X1.0285 Y1.0961 Z-0.1278
X1.0228 Y1.0998
X1.0172 Y1.1033
X1.0116 Y1.1068
X1.0001 Y1.1129
X0.9947 Y1.1157
X0.9834 Y1.1207
X0.9778 Y1.1231
X0.9665 Y1.1272
X0.9609 Y1.1291 Z-0.1279
X0.9496 Y1.1324
X0.944 Y1.1339
X0.9271 Y1.1375
X0.9214 Y1.1383
X0.9102 Y1.1399
X0.9045 Y1.1404
X0.8933 Y1.1411
X0.8876 Y1.1413
X0.8764 Z-0.128
X0.8707 Y1.1411
X0.8595 Y1.1404
X0.8538 Y1.1399
X0.8426 Y1.1383
X0.841 Y1.1381
G0 Z0.2
X0.8276 Y1.0179
Z-0.1134
G1 Z-0.1148 F5.
X0.8278 Y1.018 Z-0.1161
X0.8282 Y1.0181 Z-0.1174
G3 X0.8287 Y1.0183 Z-0.1187 I-0.0177 J0.0494
X0.8293 Y1.0185 Z-0.1199 I-0.0182 J0.0493
X0.83 Y1.0188 Z-0.1211 I-0.0188 J0.049
X0.8308 Y1.0191 Z-0.1221 I-0.0195 J0.0487
X0.8318 Y1.0195 Z-0.123 I-0.0204 J0.0484
X0.8328 Y1.02 Z-0.1238 I-0.0213 J0.048
X0.8338 Y1.0205 Z-0.1245 I-0.0223 J0.0476
X0.8349 Y1.0211 Z-0.1251 I-0.0234 J0.047
X0.8361 Y1.0217 Z-0.1255 I-0.0245 J0.0465
X0.8373 Y1.0224 Z-0.1258 I-0.0256 J0.0458
X0.8384 Y1.0231 Z-0.1259 I-0.0268 J0.0452
X0.8625 Y1.0744 Z-0.128 I-0.028 J0.0445
Y1.0748 I-0.0521 J-0.0069
G1 X0.8551 Y1.1274
G3 X0.841 Y1.1381 I-0.0124 J-0.0017
G1 X0.8385 Y1.1377 F59.
X0.8361 Y1.1373
X0.8215 Y1.1342
X0.8119 Y1.1316
X0.8023 Y1.1289
X0.793 Y1.1255 Z-0.1281
X0.7837 Y1.1221
X0.7746 Y1.118
X0.7656 Y1.1138
X0.7568 Y1.1091
X0.7482 Y1.1042
X0.7398 Y1.0989
X0.7316 Y1.0933
X0.7236 Y1.0874 Z-0.1282
X0.7159 Y1.0811
X0.7083 Y1.0747
X0.7011 Y1.0678
X0.6941 Y1.0608
X0.6874 Y1.0534
X0.681 Y1.0459
X0.6749 Y1.0381
X0.6691 Y1.03 Z-0.1283
X0.6635 Y1.0218
X0.6584 Y1.0133
X0.6534 Y1.0047
X0.649 Y0.9958
X0.6447 Y0.9868
X0.6409 Y0.9776
X0.6374 Y0.9683
X0.6343 Y0.9589 Z-0.1284
X0.6315 Y0.9493
X0.6291 Y0.9397
X0.6271 Y0.9299
X0.6254 Y0.9202
X0.6242 Y0.9103
X0.6232 Y0.9004
X0.6228 Y0.8905
X0.6226 Y0.8805 Z-0.1285
X0.6229 Y0.8706
X0.6235 Y0.8607
X0.6245 Y0.8508
X0.6259 Y0.841
X0.6277 Y0.8312
X0.6298 Y0.8215
X0.6322 Y0.8119
X0.6352 Y0.8024
X0.6383 Y0.7929 Z-0.1286
X0.642 Y0.7837
X0.6459 Y0.7746
X0.6503 Y0.7656
X0.6549 Y0.7568
X0.6598 Y0.7482
X0.6651 Y0.7398
X0.6707 Y0.7316
X0.6767 Y0.7236 Z-0.1287
X0.6828 Y0.7158
X0.6894 Y0.7084
X0.6961 Y0.7011
X0.7032 Y0.6942
X0.7105 Y0.6874
X0.7181 Y0.681
X0.7259 Y0.6749
X0.734 Y0.669 Z-0.1288
X0.7423 Y0.6635
X0.7507 Y0.6583
X0.7594 Y0.6535
X0.7682 Y0.6488
X0.7773 Y0.6448
X0.7864 Y0.6409
X0.7957 Y0.6375
X0.8051 Y0.6343 Z-0.1289
X0.8147 Y0.6315
X0.8243 Y0.6292
X0.8341 Y0.6271
X0.8439 Y0.6255
X0.8537 Y0.6241
X0.8636 Y0.6233
X0.8735 Y0.6227
X0.8835 Z-0.129
X0.8934 Y0.6229
X0.9033 Y0.6236
X0.9132 Y0.6245
X0.923 Y0.6259
X0.9328 Y0.6277
X0.9425 Y0.6298
X0.9521 Y0.6324
X0.9617 Y0.6351
X0.971 Y0.6385 Z-0.1291
X0.9803 Y0.6419
X0.9894 Y0.646
X0.9984 Y0.6502
X1.0072 Y0.6549
X1.0158 Y0.6598
X1.0242 Y0.6651
X1.0324 Y0.6707
X1.0404 Y0.6766 Z-0.1292
X1.0481 Y0.6829
X1.0557 Y0.6893
X1.0629 Y0.6962
X1.0699 Y0.7032
X1.0766 Y0.7106
X1.083 Y0.7181
X1.0891 Y0.7259
X1.0949 Y0.734 Z-0.1293
X1.1005 Y0.7422
X1.1056 Y0.7507
X1.1106 Y0.7593
X1.115 Y0.7682
X1.1193 Y0.7772
X1.1231 Y0.7864
X1.1266 Y0.7957
X1.1297 Y0.8051 Z-0.1294
X1.1325 Y0.8147
X1.1349 Y0.8243
X1.1369 Y0.8341
X1.1386 Y0.8438
X1.1398 Y0.8537
X1.1408 Y0.8636
X1.1412 Y0.8735
X1.1414 Y0.8835 Z-0.1295
X1.1411 Y0.8934
X1.1405 Y0.9033
X1.1395 Y0.9132
X1.1381 Y0.923
X1.1363 Y0.9328
X1.1342 Y0.9425
X1.1318 Y0.9521
X1.1288 Y0.9616
X1.1257 Y0.9711 Z-0.1296
X1.122 Y0.9803
X1.1181 Y0.9894
X1.1137 Y0.9984
X1.1091 Y1.0072
X1.1042 Y1.0158
X1.0989 Y1.0242
X1.0933 Y1.0324
X1.0873 Y1.0404 Z-0.1297
X1.0812 Y1.0482
X1.0746 Y1.0556
X1.0679 Y1.0629
X1.0608 Y1.0698
X1.0535 Y1.0766
X1.0459 Y1.083
X1.0381 Y1.0891
X1.03 Y1.095 Z-0.1298
X1.0217 Y1.1005
X1.0133 Y1.1057
X1.0046 Y1.1105
X0.9958 Y1.1152
X0.9867 Y1.1192
X0.9776 Y1.1231
X0.9683 Y1.1265
X0.9589 Y1.1297 Z-0.1299
X0.9493 Y1.1325
X0.9397 Y1.1348
X0.9299 Y1.1369
X0.9201 Y1.1385
X0.9103 Y1.1399
X0.9004 Y1.1407
X0.8905 Y1.1413
X0.8805 Z-0.13
X0.8706 Y1.1411
X0.8607 Y1.1404
X0.8508 Y1.1395
X0.8408 Y1.1381
X0.8383 Y1.1377
X0.8359 Y1.1373
X0.8213 Y1.1342
X0.8117 Y1.1316
X0.8021 Y1.1289
X0.7928 Y1.1255 Z-0.1301
X0.7835 Y1.122
X0.7744 Y1.1179
X0.7654 Y1.1137
X0.7567 Y1.109
X0.7481 Y1.1041
X0.7396 Y1.0988
X0.7315 Y1.0931
X0.7234 Y1.0873 Z-0.1302
X0.7157 Y1.081
X0.7081 Y1.0746
X0.701 Y1.0677
X0.694 Y1.0607
X0.6873 Y1.0533
X0.6809 Y1.0457
X0.6747 Y1.0379
X0.6689 Y1.0298 Z-0.1303
X0.6634 Y1.0216
X0.6583 Y1.0131
X0.6533 Y1.0045
X0.6489 Y0.9956
X0.6446 Y0.9866
X0.6409 Y0.9774
X0.6373 Y0.9681
X0.6343 Y0.9587 Z-0.1304
X0.6315 Y0.9491
X0.6291 Y0.9395
X0.6271 Y0.9297
X0.6254 Y0.92
X0.6242 Y0.9101
X0.6232 Y0.9002
X0.6228 Y0.8903
X0.6226 Y0.8803 Z-0.1305
X0.6229 Y0.8704
X0.6235 Y0.8605
X0.6246 Y0.8506
X0.626 Y0.8408
X0.6277 Y0.831
X0.6299 Y0.8213
X0.6323 Y0.8117
X0.6353 Y0.8022
X0.6384 Y0.7927 Z-0.1306
X0.6421 Y0.7835
X0.646 Y0.7744
X0.6503 Y0.7654
X0.655 Y0.7566
X0.6599 Y0.748
X0.6652 Y0.7396
X0.6708 Y0.7314
X0.6768 Y0.7235 Z-0.1307
X0.6829 Y0.7157
X0.6895 Y0.7082
X0.6962 Y0.7009
X0.7034 Y0.694
X0.7107 Y0.6873
X0.7183 Y0.6809
X0.7261 Y0.6747
X0.7341 Y0.6689 Z-0.1308
X0.7424 Y0.6634
X0.7509 Y0.6582
X0.7596 Y0.6534
X0.7684 Y0.6488
X0.7774 Y0.6447
X0.7866 Y0.6408
X0.7959 Y0.6374
X0.8053 Y0.6342 Z-0.1309
X0.8149 Y0.6315
X0.8245 Y0.6291
X0.8342 Y0.6271
X0.8441 Y0.6255
X0.8539 Y0.6241
X0.8638 Y0.6233
X0.8737 Y0.6227
X0.8837 Z-0.131
X0.8936 Y0.6229
X0.9035 Y0.6236
X0.9134 Y0.6246
X0.9232 Y0.6259
X0.933 Y0.6277
X0.9427 Y0.6298
X0.9523 Y0.6324
X0.9619 Y0.6351
X0.9712 Y0.6385 Z-0.1311
X0.9805 Y0.642
X0.9896 Y0.6461
X0.9986 Y0.6503
X1.0073 Y0.655
X1.0159 Y0.6599
X1.0244 Y0.6652
X1.0325 Y0.6709
X1.0406 Y0.6767 Z-0.1312
X1.0483 Y0.683
X1.0559 Y0.6894
X1.063 Y0.6963
X1.07 Y0.7033
X1.0767 Y0.7107
X1.0831 Y0.7183
X1.0893 Y0.7261
X1.0951 Y0.7342 Z-0.1313
X1.1006 Y0.7424
X1.1057 Y0.7509
X1.1107 Y0.7595
X1.1151 Y0.7684
X1.1194 Y0.7774
X1.1231 Y0.7866
X1.1267 Y0.7959
X1.1297 Y0.8053 Z-0.1314
X1.1325 Y0.8149
X1.1349 Y0.8245
X1.1369 Y0.8343
X1.1386 Y0.844
X1.1398 Y0.8539
X1.1408 Y0.8638
X1.1412 Y0.8737
X1.1414 Y0.8837 Z-0.1315
X1.1411 Y0.8936
X1.1405 Y0.9035
X1.1394 Y0.9134
X1.138 Y0.9232
X1.1363 Y0.933
X1.1341 Y0.9427
X1.1317 Y0.9523
X1.1287 Y0.9618
X1.1256 Y0.9713 Z-0.1316
X1.1219 Y0.9805
X1.118 Y0.9896
X1.1137 Y0.9986
X1.109 Y1.0074
X1.1041 Y1.016
X1.0988 Y1.0244
X1.0932 Y1.0326
X1.0872 Y1.0405 Z-0.1317
X1.0811 Y1.0483
X1.0745 Y1.0558
X1.0678 Y1.0631
X1.0606 Y1.07
X1.0533 Y1.0767
X1.0457 Y1.0831
X1.0379 Y1.0893
X1.0299 Y1.0951 Z-0.1318
X1.0216 Y1.1006
X1.0131 Y1.1058
X1.0044 Y1.1106
X0.9956 Y1.1152
X0.9866 Y1.1193
X0.9774 Y1.1232
X0.9681 Y1.1266
X0.9587 Y1.1298 Z-0.1319
X0.9491 Y1.1325
X0.9395 Y1.1349
X0.9298 Y1.1369
X0.9199 Y1.1385
X0.9101 Y1.1399
X0.9002 Y1.1407
X0.8903 Y1.1413
X0.8803 Z-0.132
X0.8704 Y1.1411
X0.8605 Y1.1404
X0.8506 Y1.1394
X0.8406 Y1.138
X0.8381 Y1.1377
X0.8357 Y1.1372
X0.8211 Y1.1341
X0.8115 Y1.1315
X0.8019 Y1.1288
X0.7926 Y1.1254 Z-0.1321
X0.7833 Y1.1219
X0.7742 Y1.1179
X0.7653 Y1.1136
X0.7565 Y1.1089
X0.7479 Y1.104
X0.7395 Y1.0987
X0.7313 Y1.093
X0.7233 Y1.0872 Z-0.1322
X0.7156 Y1.0809
X0.708 Y1.0744
X0.7009 Y1.0675
X0.6938 Y1.0605
X0.6872 Y1.0531
X0.6807 Y1.0456
X0.6746 Y1.0377
X0.6688 Y1.0297 Z-0.1323
X0.6633 Y1.0214
X0.6582 Y1.0129
X0.6532 Y1.0043
X0.6488 Y0.9954
X0.6445 Y0.9864
X0.6408 Y0.9772
X0.6373 Y0.9679
X0.6342 Y0.9585 Z-0.1324
X0.6314 Y0.9489
X0.629 Y0.9393
X0.6271 Y0.9295
X0.6254 Y0.9198
X0.6242 Y0.9099
X0.6232 Y0.9
X0.6228 Y0.8901
X0.6226 Y0.8801 Z-0.1325
X0.6229 Y0.8702
X0.6235 Y0.8603
X0.6246 Y0.8504
X0.626 Y0.8406
X0.6277 Y0.8308
X0.6299 Y0.8211
X0.6323 Y0.8115
X0.6353 Y0.802
X0.6385 Y0.7926 Z-0.1326
X0.6422 Y0.7833
X0.6461 Y0.7742
X0.6504 Y0.7653
X0.6551 Y0.7565
X0.66 Y0.7479
X0.6654 Y0.7395
X0.6709 Y0.7312
X0.6769 Y0.7233 Z-0.1327
X0.683 Y0.7155
X0.6897 Y0.7081
X0.6964 Y0.7008
X0.7035 Y0.6939
X0.7108 Y0.6871
X0.7184 Y0.6807
X0.7263 Y0.6746
X0.7343 Y0.6688 Z-0.1328
X0.7426 Y0.6633
X0.751 Y0.6581
X0.7598 Y0.6533
X0.7685 Y0.6487
X0.7776 Y0.6446
X0.7868 Y0.6407
X0.7961 Y0.6373
X0.8055 Y0.6342 Z-0.1329
X0.8151 Y0.6314
X0.8247 Y0.6291
X0.8344 Y0.627
X0.8443 Y0.6255
X0.8541 Y0.6241
X0.864 Y0.6233
X0.8739 Y0.6227
X0.8839 Z-0.133
X0.8938 Y0.6229
X0.9037 Y0.6236
X0.9136 Y0.6246
X0.9234 Y0.626
X0.9332 Y0.6278
X0.9429 Y0.6299
X0.9525 Y0.6325
X0.9621 Y0.6352
X0.9714 Y0.6386 Z-0.1331
X0.9807 Y0.6421
X0.9898 Y0.6461
X0.9987 Y0.6504
X1.0075 Y0.6551
X1.0161 Y0.66
X1.0245 Y0.6653
X1.0327 Y0.671
X1.0407 Y0.6768 Z-0.1332
X1.0484 Y0.6831
X1.056 Y0.6896
X1.0631 Y0.6965
X1.0702 Y0.7035
X1.0768 Y0.7109
X1.0833 Y0.7184
X1.0894 Y0.7263
X1.0952 Y0.7343 Z-0.1333
X1.1007 Y0.7426
X1.1058 Y0.7511
X1.1108 Y0.7597
X1.1152 Y0.7686
X1.1195 Y0.7776
X1.1232 Y0.7868
X1.1267 Y0.7961
X1.1298 Y0.8055 Z-0.1334
X1.1326 Y0.8151
X1.135 Y0.8247
X1.1369 Y0.8345
X1.1386 Y0.8442
X1.1398 Y0.8541
X1.1408 Y0.864
X1.1412 Y0.8739
X1.1414 Y0.8839 Z-0.1335
X1.1411 Y0.8938
X1.1405 Y0.9037
X1.1394 Y0.9136
X1.138 Y0.9234
X1.1363 Y0.9332
X1.1341 Y0.9429
X1.1317 Y0.9525
X1.1287 Y0.962
X1.1255 Y0.9714 Z-0.1336
X1.1218 Y0.9807
X1.1179 Y0.9898
X1.1136 Y0.9987
X1.1089 Y1.0075
X1.104 Y1.0161
X1.0986 Y1.0245
X1.0931 Y1.0328
X1.0871 Y1.0407 Z-0.1337
X1.081 Y1.0485
X1.0743 Y1.0559
X1.0676 Y1.0632
X1.0605 Y1.0701
X1.0532 Y1.0769
X1.0456 Y1.0833
X1.0377 Y1.0894
X1.0297 Y1.0952 Z-0.1338
X1.0214 Y1.1007
X1.013 Y1.1059
X1.0042 Y1.1107
X0.9955 Y1.1153
X0.9864 Y1.1194
X0.9772 Y1.1233
X0.9679 Y1.1267
X0.9585 Y1.1298 Z-0.1339
X0.9489 Y1.1326
X0.9393 Y1.1349
X0.9296 Y1.137
X0.9197 Y1.1385
X0.9099 Y1.1399
X0.9 Y1.1407
X0.8901 Y1.1413
X0.8801 Z-0.134
X0.8702 Y1.1411
X0.8603 Y1.1404
X0.8504 Y1.1394
X0.8404 Y1.138
X0.8379 Y1.1377
X0.8355 Y1.1372
X0.8209 Y1.1341
X0.8113 Y1.1315
X0.8018 Y1.1287
X0.7924 Y1.1253 Z-0.1341
X0.7831 Y1.1218
X0.774 Y1.1178
X0.7651 Y1.1135
X0.7563 Y1.1088
X0.7477 Y1.1039
X0.7393 Y1.0986
X0.7311 Y1.0929
X0.7231 Y1.0871 Z-0.1342
X0.7154 Y1.0807
X0.7079 Y1.0743
X0.7007 Y1.0674
X0.6937 Y1.0604
X0.687 Y1.053
X0.6806 Y1.0454
X0.6745 Y1.0376
X0.6687 Y1.0295 Z-0.1343
X0.6632 Y1.0213
X0.6581 Y1.0127
X0.6531 Y1.0041
X0.6487 Y0.9952
X0.6444 Y0.9862
X0.6407 Y0.977
X0.6372 Y0.9677
X0.6341 Y0.9583 Z-0.1344
X0.6314 Y0.9487
X0.629 Y0.9391
X0.627 Y0.9293
X0.6253 Y0.9196
X0.6242 Y0.9097
X0.6232 Y0.8998
X0.6228 Y0.8899
X0.6226 Y0.8799 Z-0.1345
X0.623 Y0.87
X0.6236 Y0.8601
X0.6246 Y0.8502
X0.626 Y0.8404
X0.6278 Y0.8306
X0.63 Y0.8209
X0.6324 Y0.8113
X0.6354 Y0.8018
X0.6385 Y0.7924 Z-0.1346
X0.6423 Y0.7832
X0.6462 Y0.774
X0.6505 Y0.7651
X0.6552 Y0.7563
X0.6601 Y0.7477
X0.6655 Y0.7393
X0.671 Y0.7311
X0.677 Y0.7232 Z-0.1347
X0.6831 Y0.7153
X0.6898 Y0.7079
X0.6965 Y0.7006
X0.7037 Y0.6937
X0.711 Y0.687
X0.7186 Y0.6806
X0.7264 Y0.6745
X0.7345 Y0.6687 Z-0.1348
X0.7428 Y0.6632
X0.7512 Y0.658
X0.7599 Y0.6532
X0.7687 Y0.6486
X0.7778 Y0.6445
X0.7869 Y0.6407
X0.7963 Y0.6373
X0.8057 Y0.6341 Z-0.1349
X0.8153 Y0.6314
X0.8249 Y0.629
X0.8346 Y0.627
X0.8445 Y0.6254
X0.8543 Y0.624
X0.8642 Y0.6233
X0.8741 Y0.6227
X0.8841 Z-0.135
X0.894 Y0.6229
X0.9039 Y0.6236
X0.9138 Y0.6246
X0.9236 Y0.626
X0.9334 Y0.6278
X0.9431 Y0.6299
X0.9527 Y0.6325
X0.9622 Y0.6353
X0.9716 Y0.6387 Z-0.1351
X0.9809 Y0.6422
X0.99 Y0.6462
X0.9989 Y0.6505
X1.0077 Y0.6552
X1.0163 Y0.6601
X1.0247 Y0.6654
X1.0329 Y0.6711
X1.0409 Y0.6769 Z-0.1352
X1.0486 Y0.6833
X1.0561 Y0.6897
X1.0633 Y0.6966
X1.0703 Y0.7036
X1.077 Y0.711
X1.0834 Y0.7186
X1.0895 Y0.7264
X1.0953 Y0.7345 Z-0.1353
X1.1008 Y0.7427
X1.1059 Y0.7513
X1.1109 Y0.7599
X1.1153 Y0.7688
X1.1196 Y0.7778
X1.1233 Y0.787
X1.1268 Y0.7963
X1.1299 Y0.8057 Z-0.1354
X1.1326 Y0.8153
X1.135 Y0.8249
X1.137 Y0.8347
X1.1387 Y0.8444
X1.1398 Y0.8543
X1.1408 Y0.8642
X1.1412 Y0.8741
X1.1414 Y0.8841 Z-0.1355
X1.141 Y0.894
X1.1404 Y0.9039
X1.1394 Y0.9138
X1.138 Y0.9236
X1.1362 Y0.9334
X1.134 Y0.9431
X1.1316 Y0.9527
X1.1286 Y0.9622
X1.1255 Y0.9716 Z-0.1356
X1.1217 Y0.9808
X1.1178 Y0.99
X1.1135 Y0.9989
X1.1088 Y1.0077
X1.1039 Y1.0163
X1.0985 Y1.0247
X1.093 Y1.0329
X1.087 Y1.0408 Z-0.1357
X1.0809 Y1.0487
X1.0742 Y1.0561
X1.0675 Y1.0634
X1.0603 Y1.0703
X1.053 Y1.077
X1.0454 Y1.0834
X1.0376 Y1.0895
X1.0295 Y1.0953 Z-0.1358
X1.0212 Y1.1008
X1.0128 Y1.106
X1.0041 Y1.1108
X0.9953 Y1.1154
X0.9862 Y1.1195
X0.9771 Y1.1233
X0.9677 Y1.1267
X0.9583 Y1.1299 Z-0.1359
X0.9487 Y1.1326
X0.9391 Y1.135
X0.9294 Y1.137
X0.9195 Y1.1386
X0.9097 Y1.14
X0.8998 Y1.1407
X0.8899 Y1.1413
X0.8799 Z-0.136
X0.87 Y1.1411
X0.8601 Y1.1404
X0.8502 Y1.1394
X0.8402 Y1.138
X0.8377 Y1.1376
X0.8353 Y1.1372
X0.8207 Y1.1341
X0.8111 Y1.1314
X0.8016 Y1.1287
X0.7922 Y1.1253 Z-0.1361
X0.7829 Y1.1217
X0.7739 Y1.1177
X0.7649 Y1.1134
X0.7561 Y1.1088
X0.7475 Y1.1037
X0.7391 Y1.0985
X0.731 Y1.0928
X0.7229 Y1.0869 Z-0.1362
X0.7153 Y1.0806
X0.7077 Y1.0742
X0.7006 Y1.0673
X0.6936 Y1.0602
X0.6869 Y1.0528
X0.6805 Y1.0453
X0.6744 Y1.0374
X0.6686 Y1.0293 Z-0.1363
X0.663 Y1.0211
X0.658 Y1.0126
X0.653 Y1.004
X0.6486 Y0.995
X0.6444 Y0.9861
X0.6406 Y0.9768
X0.6371 Y0.9675
X0.6341 Y0.9581 Z-0.1364
X0.6313 Y0.9485
X0.6289 Y0.9389
X0.627 Y0.9292
X0.6253 Y0.9194
X0.6242 Y0.9095
X0.6232 Y0.8996
X0.6228 Y0.8897
X0.6226 Y0.8797 Z-0.1365
X0.623 Y0.8698
X0.6236 Y0.8599
X0.6246 Y0.85
X0.6261 Y0.8402
X0.6278 Y0.8304
X0.63 Y0.8207
X0.6324 Y0.8111
X0.6355 Y0.8016
X0.6386 Y0.7922 Z-0.1366
X0.6423 Y0.783
X0.6463 Y0.7738
X0.6506 Y0.7649
X0.6553 Y0.7561
X0.6602 Y0.7475
X0.6656 Y0.7392
X0.6711 Y0.7309
X0.6772 Y0.723 Z-0.1367
X0.6833 Y0.7152
X0.6899 Y0.7078
X0.6967 Y0.7005
X0.7038 Y0.6936
X0.7111 Y0.6869
X0.7187 Y0.6805
X0.7266 Y0.6744
X0.7346 Y0.6686 Z-0.1368
X0.7429 Y0.6631
X0.7514 Y0.6579
X0.7601 Y0.6531
X0.7689 Y0.6485
X0.778 Y0.6445
X0.7871 Y0.6406
X0.7965 Y0.6372
X0.8059 Y0.6341 Z-0.1369
X0.8155 Y0.6313
X0.8251 Y0.629
X0.8348 Y0.6269
X0.8446 Y0.6254
X0.8545 Y0.624
X0.8644 Y0.6233
X0.8743 Y0.6227
X0.8843 Z-0.137
X0.8942 Y0.6229
X0.9041 Y0.6236
X0.914 Y0.6246
X0.9238 Y0.626
X0.9336 Y0.6279
X0.9433 Y0.6299
X0.9529 Y0.6326
X0.9624 Y0.6353
X0.9718 Y0.6387 Z-0.1371
X0.9811 Y0.6423
X0.9901 Y0.6463
X0.9991 Y0.6506
X1.0079 Y0.6552
X1.0165 Y0.6603
X1.0249 Y0.6655
X1.033 Y0.6712
X1.0411 Y0.6771 Z-0.1372
X1.0487 Y0.6834
X1.0563 Y0.6898
X1.0634 Y0.6967
X1.0704 Y0.7038
X1.0771 Y0.7112
X1.0835 Y0.7187
X1.0896 Y0.7266
X1.0954 Y0.7347 Z-0.1373
X1.101 Y0.7429
X1.106 Y0.7514
X1.111 Y0.76
X1.1154 Y0.769
X1.1196 Y0.7779
X1.1234 Y0.7872
X1.1269 Y0.7965
X1.1299 Y0.8059 Z-0.1374
X1.1327 Y0.8155
X1.1351 Y0.8251
X1.137 Y0.8348
X1.1387 Y0.8446
X1.1398 Y0.8545
X1.1408 Y0.8644
X1.1412 Y0.8743
X1.1414 Y0.8843 Z-0.1375
X1.141 Y0.8942
X1.1404 Y0.9041
X1.1394 Y0.914
X1.1379 Y0.9238
X1.1362 Y0.9336
X1.134 Y0.9433
X1.1316 Y0.9529
X1.1285 Y0.9624
X1.1254 Y0.9718 Z-0.1376
X1.1217 Y0.981
X1.1177 Y0.9902
X1.1134 Y0.9991
X1.1087 Y1.0079
X1.1038 Y1.0165
X1.0984 Y1.0248
X1.0929 Y1.0331
X1.0868 Y1.041 Z-0.1377
X1.0807 Y1.0488
X1.0741 Y1.0562
X1.0673 Y1.0635
X1.0602 Y1.0704
X1.0529 Y1.0771
X1.0453 Y1.0835
X1.0374 Y1.0896
X1.0294 Y1.0954 Z-0.1378
X1.0211 Y1.1009
X1.0126 Y1.1061
X1.0039 Y1.1109
X0.9951 Y1.1155
X0.986 Y1.1195
X0.9769 Y1.1234
X0.9675 Y1.1268
X0.9581 Y1.1299 Z-0.1379
X0.9485 Y1.1327
X0.9389 Y1.135
X0.9292 Y1.1371
X0.9194 Y1.1386
X0.9095 Y1.14
X0.8996 Y1.1407
X0.8897 Y1.1413
X0.8797 Z-0.138
X0.8698 Y1.1411
X0.8599 Y1.1404
X0.85 Y1.1394
X0.84 Y1.1379
X0.8375 Y1.1376
X0.8351 Y1.1371
X0.8205 Y1.134
X0.8109 Y1.1314
X0.8014 Y1.1286
X0.792 Y1.1252 Z-0.1381
X0.7828 Y1.1217
X0.7737 Y1.1176
X0.7647 Y1.1133
X0.7559 Y1.1087
X0.7474 Y1.1036
X0.7389 Y1.0984
X0.7308 Y1.0927
X0.7228 Y1.0868 Z-0.1382
X0.7151 Y1.0805
X0.7076 Y1.074
X0.7004 Y1.0671
X0.6934 Y1.0601
X0.6868 Y1.0527
X0.6804 Y1.0451
X0.6742 Y1.0373
X0.6685 Y1.0292 Z-0.1383
X0.6629 Y1.0209
X0.6579 Y1.0124
X0.6529 Y1.0038
X0.6485 Y0.9949
X0.6443 Y0.9859
X0.6406 Y0.9767
X0.6371 Y0.9674
X0.634 Y0.9579 Z-0.1384
X0.6313 Y0.9483
X0.6289 Y0.9387
X0.627 Y0.929
X0.6252 Y0.9192
X0.6241 Y0.9093
X0.6231 Y0.8994
X0.6228 Y0.8895
X0.6226 Y0.8795 Z-0.1385
X0.623 Y0.8696
X0.6236 Y0.8597
X0.6247 Y0.8498
X0.6261 Y0.84
X0.6278 Y0.8302
X0.6301 Y0.8205
X0.6325 Y0.8109
X0.6355 Y0.8014
X0.6387 Y0.792 Z-0.1386
X0.6424 Y0.7828
X0.6463 Y0.7737
X0.6507 Y0.7647
X0.6554 Y0.756
X0.6603 Y0.7473
X0.6657 Y0.739
X0.6712 Y0.7307
X0.6773 Y0.7229 Z-0.1387
X0.6834 Y0.715
X0.6901 Y0.7076
X0.6968 Y0.7004
X0.704 Y0.6935
X0.7113 Y0.6867
X0.7189 Y0.6804
X0.7268 Y0.6743
X0.7348 Y0.6684 Z-0.1388
X0.7431 Y0.663
X0.7515 Y0.6578
X0.7603 Y0.653
X0.7691 Y0.6484
X0.7782 Y0.6444
X0.7873 Y0.6405
X0.7967 Y0.6371
X0.8061 Y0.634 Z-0.1389
X0.8157 Y0.6313
X0.8253 Y0.629
X0.835 Y0.6269
X0.8448 Y0.6254
X0.8547 Y0.624
X0.8646 Y0.6233
X0.8745 Y0.6227
X0.8845 Z-0.139
X0.8944 Y0.6229
X0.9043 Y0.6236
X0.9142 Y0.6247
X0.924 Y0.6261
X0.9338 Y0.6279
X0.9435 Y0.63
X0.9531 Y0.6326
X0.9626 Y0.6354
X0.972 Y0.6388 Z-0.1391
X0.9812 Y0.6423
X0.9903 Y0.6464
X0.9993 Y0.6507
X1.0081 Y0.6553
X1.0166 Y0.6604
X1.0251 Y0.6656
X1.0332 Y0.6713
X1.0412 Y0.6772 Z-0.1392
X1.0489 Y0.6835
X1.0564 Y0.69
X1.0636 Y0.6969
X1.0706 Y0.7039
X1.0772 Y0.7113
X1.0836 Y0.7189
X1.0898 Y0.7267
X1.0955 Y0.7348 Z-0.1393
X1.1011 Y0.7431
X1.1061 Y0.7516
X1.1111 Y0.7602
X1.1155 Y0.7691
X1.1197 Y0.7781
X1.1234 Y0.7873
X1.1269 Y0.7966
X1.13 Y0.8061 Z-0.1394
X1.1327 Y0.8157
X1.1351 Y0.8253
X1.137 Y0.835
X1.1388 Y0.8448
X1.1399 Y0.8547
X1.1409 Y0.8646
X1.1412 Y0.8745
X1.1414 Y0.8845 Z-0.1395
X1.141 Y0.8944
X1.1404 Y0.9043
X1.1393 Y0.9142
X1.1379 Y0.924
X1.1362 Y0.9338
X1.1339 Y0.9435
X1.1315 Y0.9531
X1.1285 Y0.9626
X1.1253 Y0.972 Z-0.1396
X1.1216 Y0.9812
X1.1177 Y0.9903
X1.1133 Y0.9993
X1.1086 Y1.008
X1.1037 Y1.0167
X1.0983 Y1.025
X1.0928 Y1.0333
X1.0867 Y1.0411 Z-0.1397
X1.0806 Y1.049
X1.0739 Y1.0564
X1.0672 Y1.0636
X1.06 Y1.0705
X1.0527 Y1.0773
X1.0451 Y1.0836
X1.0372 Y1.0897
X1.0292 Y1.0956 Z-0.1398
X1.0209 Y1.101
X1.0125 Y1.1062
X1.0037 Y1.111
X0.9949 Y1.1156
X0.9858 Y1.1196
X0.9767 Y1.1235
X0.9673 Y1.1269
X0.9579 Y1.13 Z-0.1399
X0.9483 Y1.1327
X0.9387 Y1.135
X0.929 Y1.1371
X0.9192 Y1.1386
X0.9093 Y1.14
X0.8994 Y1.1407
X0.8895 Y1.1413
X0.8795 Z-0.14
X0.8696 Y1.1411
X0.8597 Y1.1404
X0.8498 Y1.1393
X0.8398 Y1.1379
X0.8373 Y1.1376
X0.8349 Y1.1371
X0.8203 Y1.134
X0.8107 Y1.1313
X0.8012 Y1.1285
X0.7919 Y1.1251 Z-0.1401
X0.7826 Y1.1216
X0.7735 Y1.1175
X0.7645 Y1.1132
X0.7558 Y1.1086
X0.7472 Y1.1035
X0.7388 Y1.0983
X0.7307 Y1.0926
X0.7226 Y1.0867 Z-0.1402
X0.715 Y1.0803
X0.7074 Y1.0739
X0.7003 Y1.067
X0.6933 Y1.0599
X0.6866 Y1.0525
X0.6802 Y1.0449
X0.6741 Y1.0371
X0.6684 Y1.029 Z-0.1403
X0.6628 Y1.0208
X0.6578 Y1.0122
X0.6528 Y1.0036
X0.6485 Y0.9947
X0.6442 Y0.9857
X0.6405 Y0.9765
X0.637 Y0.9672
X0.634 Y0.9577 Z-0.1404
X0.6313 Y0.9482
X0.6288 Y0.9385
X0.6269 Y0.9288
X0.6252 Y0.919
X0.6241 Y0.9091
X0.6231 Y0.8992
X0.6228 Y0.8893
X0.6226 Y0.8793 Z-0.1405
X0.623 Y0.8694
X0.6236 Y0.8595
X0.6247 Y0.8496
X0.6261 Y0.8398
X0.6279 Y0.83
X0.6301 Y0.8203
X0.6325 Y0.8107
X0.6356 Y0.8012
X0.6388 Y0.7918 Z-0.1406
X0.6425 Y0.7826
X0.6464 Y0.7735
X0.6508 Y0.7645
X0.6555 Y0.7558
X0.6604 Y0.7472
X0.6658 Y0.7388
X0.6714 Y0.7306
X0.6774 Y0.7227 Z-0.1407
X0.6835 Y0.7149
X0.6902 Y0.7075
X0.697 Y0.7002
X0.7041 Y0.6933
X0.7114 Y0.6866
X0.7191 Y0.6802
X0.7269 Y0.6742
X0.735 Y0.6683 Z-0.1408
X0.7433 Y0.6629
X0.7517 Y0.6576
X0.7605 Y0.6529
X0.7693 Y0.6483
X0.7784 Y0.6443
X0.7875 Y0.6404
X0.7969 Y0.637
X0.8063 Y0.634 Z-0.1409
X0.8158 Y0.6312
X0.8255 Y0.6289
X0.8352 Y0.6268
X0.845 Y0.6253
X0.8549 Y0.624
X0.8648 Y0.6233
X0.8747 Y0.6227
X0.8847 Z-0.141
X0.8946 Y0.6229
X0.9045 Y0.6236
X0.9144 Y0.6247
X0.9242 Y0.6261
X0.934 Y0.628
X0.9437 Y0.63
X0.9533 Y0.6327
X0.9628 Y0.6355
X0.9721 Y0.6389 Z-0.1411
X0.9814 Y0.6424
X0.9905 Y0.6465
X0.9995 Y0.6508
X1.0082 Y0.6554
X1.0168 Y0.6605
X1.0252 Y0.6657
X1.0333 Y0.6714
X1.0414 Y0.6773 Z-0.1412
X1.049 Y0.6837
X1.0566 Y0.6901
X1.0637 Y0.697
X1.0707 Y0.7041
X1.0774 Y0.7115
X1.0838 Y0.7191
X1.0899 Y0.7269
X1.0956 Y0.735 Z-0.1413
X1.1012 Y0.7432
X1.1062 Y0.7518
X1.1112 Y0.7604
X1.1155 Y0.7693
X1.1198 Y0.7783
X1.1235 Y0.7875
X1.127 Y0.7968
X1.13 Y0.8063 Z-0.1414
X1.1327 Y0.8158
X1.1352 Y0.8255
X1.1371 Y0.8352
X1.1388 Y0.845
X1.1399 Y0.8549
X1.1409 Y0.8648
X1.1412 Y0.8747
X1.1414 Y0.8847 Z-0.1415
X1.141 Y0.8946
X1.1404 Y0.9045
X1.1393 Y0.9144
X1.1379 Y0.9242
X1.1361 Y0.934
X1.1339 Y0.9437
X1.1315 Y0.9533
X1.1284 Y0.9628
X1.1252 Y0.9722 Z-0.1416
X1.1215 Y0.9814
X1.1176 Y0.9905
X1.1132 Y0.9995
X1.1085 Y1.0082
X1.1036 Y1.0168
X1.0982 Y1.0252
X1.0926 Y1.0334
X1.0866 Y1.0413 Z-0.1417
X1.0805 Y1.0491
X1.0738 Y1.0565
X1.067 Y1.0638
X1.0599 Y1.0707
X1.0526 Y1.0774
X1.0449 Y1.0838
X1.0371 Y1.0898
X1.029 Y1.0957 Z-0.1418
X1.0207 Y1.1011
X1.0123 Y1.1064
X1.0035 Y1.1111
X0.9947 Y1.1157
X0.9856 Y1.1197
X0.9765 Y1.1236
X0.9671 Y1.127
X0.9577 Y1.13 Z-0.1419
X0.9482 Y1.1328
X0.9385 Y1.1351
X0.9288 Y1.1372
X0.919 Y1.1387
X0.9091 Y1.14
X0.8992 Y1.1407
X0.8893 Y1.1413
X0.8793 Z-0.142
X0.8694 Y1.1411
X0.8595 Y1.1404
X0.8496 Y1.1393
X0.8396 Y1.1379
X0.8371 Y1.1375
X0.8347 Y1.137
X0.8201 Y1.1339
X0.8105 Y1.1313
X0.801 Y1.1285
X0.7917 Y1.1251 Z-0.1421
X0.7824 Y1.1215
X0.7733 Y1.1175
X0.7644 Y1.1131
X0.7556 Y1.1085
X0.747 Y1.1034
X0.7386 Y1.0982
X0.7305 Y1.0924
X0.7224 Y1.0866 Z-0.1422
X0.7148 Y1.0802
X0.7073 Y1.0738
X0.7001 Y1.0668
X0.6932 Y1.0598
X0.6865 Y1.0524
X0.6801 Y1.0448
X0.674 Y1.037
X0.6683 Y1.0288 Z-0.1423
X0.6627 Y1.0206
X0.6577 Y1.012
X0.6527 Y1.0034
X0.6484 Y0.9945
X0.6441 Y0.9855
X0.6404 Y0.9763
X0.637 Y0.967
X0.6339 Y0.9575 Z-0.1424
X0.6312 Y0.948
X0.6288 Y0.9383
X0.6269 Y0.9286
X0.6252 Y0.9188
X0.6241 Y0.9089
X0.6231 Y0.899
X0.6228 Y0.8891
X0.6226 Y0.8791 Z-0.1425
X0.623 Y0.8692
X0.6237 Y0.8593
X0.6247 Y0.8494
X0.6262 Y0.8396
X0.6279 Y0.8298
X0.6302 Y0.8201
X0.6326 Y0.8105
X0.6357 Y0.801
X0.6388 Y0.7916 Z-0.1426
X0.6426 Y0.7824
X0.6465 Y0.7733
X0.6509 Y0.7644
X0.6556 Y0.7556
X0.6605 Y0.747
X0.6659 Y0.7387
X0.6715 Y0.7304
X0.6775 Y0.7225 Z-0.1427
X0.6837 Y0.7147
X0.6903 Y0.7073
X0.6971 Y0.7001
X0.7042 Y0.6932
X0.7116 Y0.6865
X0.7192 Y0.6801
X0.7271 Y0.674
X0.7351 Y0.6682 Z-0.1428
X0.7435 Y0.6628
X0.7519 Y0.6575
X0.7606 Y0.6528
X0.7695 Y0.6483
X0.7785 Y0.6442
X0.7877 Y0.6404
X0.797 Y0.637
X0.8065 Y0.6339 Z-0.1429
X0.816 Y0.6312
X0.8257 Y0.6289
X0.8354 Y0.6268
X0.8452 Y0.6253
X0.8551 Y0.6239
X0.865 Y0.6233
X0.8749 Y0.6227
X0.8849 Z-0.143
X0.8948 Y0.623
X0.9047 Y0.6237
X0.9146 Y0.6247
X0.9244 Y0.6261
X0.9342 Y0.628
X0.9439 Y0.6301
X0.9535 Y0.6327
X0.963 Y0.6355
X0.9723 Y0.6389 Z-0.1431
X0.9816 Y0.6425
X0.9907 Y0.6465
X0.9996 Y0.6509
X1.0084 Y0.6555
X1.017 Y0.6606
X1.0254 Y0.6658
X1.0335 Y0.6716
X1.0416 Y0.6774 Z-0.1432
X1.0492 Y0.6838
X1.0567 Y0.6902
X1.0639 Y0.6972
X1.0708 Y0.7042
X1.0775 Y0.7116
X1.0839 Y0.7192
X1.09 Y0.727
X1.0957 Y0.7352 Z-0.1433
X1.1013 Y0.7434
X1.1063 Y0.752
X1.1113 Y0.7606
X1.1156 Y0.7695
X1.1199 Y0.7785
X1.1236 Y0.7877
X1.127 Y0.797
X1.1301 Y0.8065 Z-0.1434
X1.1328 Y0.816
X1.1352 Y0.8257
X1.1371 Y0.8354
X1.1388 Y0.8452
X1.1399 Y0.8551
X1.1409 Y0.865
X1.1412 Y0.8749
X1.1414 Y0.8849 Z-0.1435
X1.141 Y0.8948
X1.1403 Y0.9047
X1.1393 Y0.9146
X1.1378 Y0.9244
X1.1361 Y0.9342
X1.1338 Y0.9439
X1.1314 Y0.9535
X1.1283 Y0.963
X1.1252 Y0.9724 Z-0.1436
X1.1214 Y0.9816
X1.1175 Y0.9907
X1.1131 Y0.9996
X1.1084 Y1.0084
X1.1035 Y1.017
X1.0981 Y1.0253
X1.0925 Y1.0336
X1.0865 Y1.0415 Z-0.1437
X1.0803 Y1.0493
X1.0737 Y1.0567
X1.0669 Y1.0639
X1.0598 Y1.0708
X1.0524 Y1.0775
X1.0448 Y1.0839
X1.0369 Y1.09
X1.0289 Y1.0958 Z-0.1438
X1.0205 Y1.1012
X1.0121 Y1.1065
X1.0034 Y1.1112
X0.9945 Y1.1157
X0.9855 Y1.1198
X0.9763 Y1.1236
X0.967 Y1.127
X0.9575 Y1.1301 Z-0.1439
X0.948 Y1.1328
X0.9383 Y1.1351
X0.9286 Y1.1372
X0.9188 Y1.1387
X0.9089 Y1.1401
X0.899 Y1.1407
X0.8891 Y1.1413
X0.8791 Z-0.144
X0.8692 Y1.141
X0.8593 Y1.1403
X0.8494 Y1.1393
X0.8394 Y1.1379
X0.8382 Y1.1377
X0.8369 Y1.1375
X0.8199 Y1.1339
X0.8103 Y1.1312
X0.8008 Y1.1284
X0.7915 Y1.125 Z-0.1441
X0.7822 Y1.1214
X0.7731 Y1.1174
X0.7642 Y1.113
X0.7554 Y1.1084
X0.7469 Y1.1033
X0.7384 Y1.0981
X0.7303 Y1.0923
X0.7223 Y1.0865 Z-0.1442
X0.7147 Y1.0801
X0.7071 Y1.0736
X0.7 Y1.0667
X0.693 Y1.0596
X0.6864 Y1.0523
X0.68 Y1.0446
X0.6739 Y1.0368
X0.6682 Y1.0287 Z-0.1443
X0.6626 Y1.0204
X0.6576 Y1.0119
X0.6526 Y1.0032
X0.6483 Y0.9943
X0.6441 Y0.9853
X0.6403 Y0.9761
X0.6369 Y0.9668
X0.6338 Y0.9573 Z-0.1444
X0.6312 Y0.9478
X0.6288 Y0.9381
X0.6269 Y0.9284
X0.6251 Y0.9186
X0.6241 Y0.9087
X0.6231 Y0.8988
X0.6228 Y0.8889
X0.6226 Y0.8789 Z-0.1445
X0.623 Y0.869
X0.6237 Y0.8591
X0.6247 Y0.8492
X0.6262 Y0.8394
X0.6279 Y0.8296
X0.6302 Y0.8199
X0.6326 Y0.8103
X0.6357 Y0.8009
X0.6389 Y0.7914 Z-0.1446
X0.6426 Y0.7822
X0.6466 Y0.7731
X0.651 Y0.7642
X0.6557 Y0.7554
X0.6606 Y0.7468
X0.666 Y0.7385
X0.6716 Y0.7303
X0.6776 Y0.7224 Z-0.1447
X0.6838 Y0.7146
X0.6905 Y0.7072
X0.6972 Y0.6999
X0.7044 Y0.693
X0.7117 Y0.6864
X0.7194 Y0.68
X0.7272 Y0.6739
X0.7353 Y0.6681 Z-0.1448
X0.7436 Y0.6627
X0.7521 Y0.6574
X0.7608 Y0.6528
X0.7696 Y0.6482
X0.7787 Y0.6441
X0.7879 Y0.6403
X0.7972 Y0.6369
X0.8067 Y0.6338 Z-0.1449
X0.8162 Y0.6311
X0.8259 Y0.6288
X0.8356 Y0.6268
X0.8454 Y0.6253
X0.8553 Y0.6239
X0.8652 Y0.6232
X0.8751 Y0.6227
X0.8851 Z-0.145
X0.895 Y0.623
X0.9049 Y0.6237
X0.9148 Y0.6248
X0.9246 Y0.6261
X0.9344 Y0.628
X0.9441 Y0.6301
X0.9537 Y0.6328
X0.9632 Y0.6356
X0.9725 Y0.639 Z-0.1451
X0.9818 Y0.6426
X0.9909 Y0.6466
X0.9998 Y0.651
X1.0086 Y0.6556
X1.0171 Y0.6607
X1.0256 Y0.6659
X1.0337 Y0.6717
X1.0417 Y0.6775 Z-0.1452
X1.0493 Y0.6839
X1.0569 Y0.6904
X1.064 Y0.6973
X1.071 Y0.7044
X1.0776 Y0.7117
X1.084 Y0.7194
X1.0901 Y0.7272
X1.0958 Y0.7353 Z-0.1453
X1.1014 Y0.7436
X1.1064 Y0.7521
X1.1114 Y0.7608
X1.1157 Y0.7697
X1.1199 Y0.7787
X1.1237 Y0.7879
X1.1271 Y0.7972
X1.1302 Y0.8067 Z-0.1454
X1.1328 Y0.8162
X1.1352 Y0.8259
X1.1371 Y0.8356
X1.1389 Y0.8454
X1.1399 Y0.8553
X1.1409 Y0.8652
X1.1412 Y0.8751
X1.1414 Y0.8851 Z-0.1455
X1.141 Y0.895
X1.1403 Y0.9049
X1.1393 Y0.9148
X1.1378 Y0.9246
X1.1361 Y0.9344
X1.1338 Y0.9441
X1.1314 Y0.9537
X1.1283 Y0.9631
X1.1251 Y0.9726 Z-0.1456
X1.1214 Y0.9818
X1.1174 Y0.9909
X1.113 Y0.9998
X1.1083 Y1.0086
X1.1034 Y1.0172
X1.098 Y1.0255
X1.0924 Y1.0337
X1.0864 Y1.0416 Z-0.1457
X1.0802 Y1.0494
X1.0735 Y1.0568
X1.0668 Y1.0641
X1.0596 Y1.071
X1.0523 Y1.0776
X1.0446 Y1.084
X1.0368 Y1.0901
X1.0287 Y1.0959 Z-0.1458
X1.0204 Y1.1013
X1.0119 Y1.1066
X1.0032 Y1.1112
X0.9944 Y1.1158
X0.9853 Y1.1199
X0.9761 Y1.1237
X0.9668 Y1.1271
X0.9573 Y1.1302 Z-0.1459
X0.9478 Y1.1329
X0.9381 Y1.1352
X0.9284 Y1.1372
X0.9186 Y1.1387
X0.9087 Y1.1401
X0.8988 Y1.1408
X0.8889 Y1.1413
X0.8789 Z-0.146
X0.869 Y1.141
X0.8591 Y1.1403
X0.8492 Y1.1392
X0.8392 Y1.1378
X0.838 Y1.1377
X0.8367 Y1.1375
X0.8197 Y1.1339
X0.8102 Y1.1312
X0.8006 Y1.1283
X0.7913 Y1.1249 Z-0.1461
X0.782 Y1.1213
X0.7729 Y1.1173
X0.764 Y1.1129
X0.7552 Y1.1083
X0.7467 Y1.1032
X0.7383 Y1.098
X0.7302 Y1.0922
X0.7221 Y1.0864 Z-0.1462
X0.7145 Y1.08
X0.707 Y1.0735
X0.6998 Y1.0666
X0.6929 Y1.0595
X0.6862 Y1.0521
X0.6799 Y1.0445
X0.6738 Y1.0366
X0.668 Y1.0285 Z-0.1463
X0.6625 Y1.0203
X0.6575 Y1.0117
X0.6525 Y1.0031
X0.6482 Y0.9941
X0.644 Y0.9851
X0.6403 Y0.9759
X0.6368 Y0.9666
X0.6338 Y0.9571 Z-0.1464
X0.6311 Y0.9476
X0.6287 Y0.9379
X0.6268 Y0.9282
X0.6251 Y0.9184
X0.6241 Y0.9085
X0.6231 Y0.8986
X0.6228 Y0.8887
X0.6227 Y0.8787 Z-0.1465
X0.623 Y0.8688
X0.6237 Y0.8589
X0.6247 Y0.849
X0.6262 Y0.8392
X0.628 Y0.8294
X0.6303 Y0.8197
X0.6327 Y0.8101
X0.6358 Y0.8007
X0.639 Y0.7913 Z-0.1466
X0.6427 Y0.782
X0.6467 Y0.7729
X0.651 Y0.764
X0.6558 Y0.7553
X0.6607 Y0.7467
X0.6661 Y0.7383
X0.6717 Y0.7301
X0.6778 Y0.7222 Z-0.1467
X0.6839 Y0.7144
X0.6906 Y0.7071
X0.6974 Y0.6998
X0.7045 Y0.6929
X0.7119 Y0.6862
X0.7195 Y0.6798
X0.7274 Y0.6738
X0.7354 Y0.668 Z-0.1468
X0.7438 Y0.6626
X0.7522 Y0.6573
X0.761 Y0.6527
X0.7698 Y0.6481
X0.7789 Y0.6441
X0.7881 Y0.6402
X0.7974 Y0.6368
X0.8069 Y0.6338 Z-0.1469
X0.8164 Y0.6311
X0.8261 Y0.6288
X0.8358 Y0.6267
X0.8456 Y0.6253
X0.8555 Y0.6239
X0.8654 Y0.6232
X0.8753 Y0.6227
X0.8853 Z-0.147
X0.8952 Y0.623
X0.9051 Y0.6237
X0.915 Y0.6248
X0.9248 Y0.6262
X0.9346 Y0.6281
X0.9443 Y0.6301
X0.9538 Y0.6328
X0.9634 Y0.6357
X0.9727 Y0.6391 Z-0.1471
X0.982 Y0.6427
X0.9911 Y0.6467
X1. Y0.6511
X1.0088 Y0.6557
X1.0173 Y0.6608
X1.0257 Y0.666
X1.0338 Y0.6718
X1.0419 Y0.6776 Z-0.1472
X1.0495 Y0.684
X1.057 Y0.6905
X1.0642 Y0.6974
X1.0711 Y0.7045
X1.0778 Y0.7119
X1.0841 Y0.7195
X1.0902 Y0.7274
X1.096 Y0.7355 Z-0.1473
X1.1015 Y0.7437
X1.1065 Y0.7523
X1.1115 Y0.7609
X1.1158 Y0.7699
X1.12 Y0.7789
X1.1237 Y0.7881
X1.1272 Y0.7974
X1.1302 Y0.8069 Z-0.1474
X1.1329 Y0.8164
X1.1353 Y0.8261
X1.1372 Y0.8358
X1.1389 Y0.8456
X1.1399 Y0.8555
X1.1409 Y0.8654
X1.1412 Y0.8753
X1.1413 Y0.8853 Z-0.1475
X1.141 Y0.8952
X1.1403 Y0.9051
X1.1393 Y0.915
X1.1378 Y0.9248
X1.136 Y0.9346
X1.1337 Y0.9443
X1.1313 Y0.9539
X1.1282 Y0.9633
X1.125 Y0.9727 Z-0.1476
X1.1213 Y0.982
X1.1173 Y0.9911
X1.113 Y1.
X1.1082 Y1.0087
X1.1033 Y1.0173
X1.0979 Y1.0257
X1.0923 Y1.0339
X1.0862 Y1.0418 Z-0.1477
X1.0801 Y1.0496
X1.0734 Y1.0569
X1.0666 Y1.0642
X1.0595 Y1.0711
X1.0521 Y1.0778
X1.0445 Y1.0842
X1.0366 Y1.0902
X1.0286 Y1.096 Z-0.1478
X1.0202 Y1.1014
X1.0118 Y1.1067
X1.003 Y1.1113
X0.9942 Y1.1159
X0.9851 Y1.1199
X0.9759 Y1.1238
X0.9666 Y1.1272
X0.9571 Y1.1302 Z-0.1479
X0.9476 Y1.1329
X0.9379 Y1.1352
X0.9282 Y1.1373
X0.9184 Y1.1387
X0.9085 Y1.1401
X0.8986 Y1.1408
X0.8887 Y1.1413
X0.8787 Z-0.148
X0.8688 Y1.141
X0.8589 Y1.1403
X0.849 Y1.1392
X0.839 Y1.1378
X0.8378 Y1.1376
X0.8365 Y1.1374
X0.8195 Y1.1338
X0.81 Y1.1311
X0.8004 Y1.1283
X0.7911 Y1.1249 Z-0.1481
X0.7818 Y1.1213
X0.7728 Y1.1172
X0.7638 Y1.1129
X0.7551 Y1.1082
X0.7465 Y1.1031
X0.7381 Y1.0978
X0.73 Y1.0921
X0.722 Y1.0862 Z-0.1482
X0.7144 Y1.0798
X0.7068 Y1.0733
X0.6997 Y1.0664
X0.6927 Y1.0593
X0.6861 Y1.052
X0.6798 Y1.0443
X0.6736 Y1.0365
X0.6679 Y1.0283 Z-0.1483
X0.6624 Y1.0201
X0.6574 Y1.0115
X0.6525 Y1.0029
X0.6481 Y0.994
X0.6439 Y0.9849
X0.6402 Y0.9757
X0.6368 Y0.9664
X0.6337 Y0.9569 Z-0.1484
X0.6311 Y0.9474
X0.6287 Y0.9377
X0.6268 Y0.928
X0.6251 Y0.9182
X0.624 Y0.9083
X0.6231 Y0.8984
X0.6228 Y0.8885
X0.6227 Y0.8785 Z-0.1485
X0.623 Y0.8686
X0.6237 Y0.8587
X0.6248 Y0.8488
X0.6263 Y0.839
X0.628 Y0.8292
X0.6303 Y0.8196
X0.6328 Y0.8099
X0.6358 Y0.8005
X0.6391 Y0.7911 Z-0.1486
X0.6428 Y0.7819
X0.6468 Y0.7728
X0.6511 Y0.7638
X0.6559 Y0.7551
X0.6608 Y0.7465
X0.6662 Y0.7382
X0.6718 Y0.7299
X0.6779 Y0.7221 Z-0.1487
X0.6841 Y0.7143
X0.6907 Y0.7069
X0.6975 Y0.6997
X0.7047 Y0.6928
X0.7121 Y0.6861
X0.7197 Y0.6797
X0.7276 Y0.6737
X0.7356 Y0.6678 Z-0.1488
X0.744 Y0.6625
X0.7524 Y0.6572
X0.7612 Y0.6526
X0.77 Y0.648
X0.7791 Y0.644
X0.7883 Y0.6402
X0.7976 Y0.6368
X0.8071 Y0.6337 Z-0.1489
X0.8166 Y0.631
X0.8263 Y0.6287
X0.836 Y0.6267
X0.8458 Y0.6252
X0.8557 Y0.6239
X0.8656 Y0.6232
X0.8755 Y0.6227
X0.8855 Z-0.149
X0.8954 Y0.623
X0.9053 Y0.6237
X0.9152 Y0.6248
X0.925 Y0.6262
X0.9348 Y0.6281
X0.9445 Y0.6302
X0.954 Y0.6329
X0.9636 Y0.6357
X0.9729 Y0.6391 Z-0.1491
X0.9822 Y0.6427
X0.9912 Y0.6468
X1.0002 Y0.6511
X1.0089 Y0.6558
X1.0175 Y0.6609
X1.0259 Y0.6662
X1.034 Y0.6719
X1.042 Y0.6778 Z-0.1492
X1.0496 Y0.6842
X1.0572 Y0.6907
X1.0643 Y0.6976
X1.0713 Y0.7047
X1.0779 Y0.712
X1.0842 Y0.7197
X1.0904 Y0.7275
X1.0961 Y0.7357 Z-0.1493
X1.1016 Y0.7439
X1.1066 Y0.7525
X1.1115 Y0.7611
X1.1159 Y0.77
X1.1201 Y0.7791
X1.1238 Y0.7883
X1.1272 Y0.7976
X1.1303 Y0.8071 Z-0.1494
X1.1329 Y0.8166
X1.1353 Y0.8263
X1.1372 Y0.836
X1.1389 Y0.8458
X1.14 Y0.8557
X1.1409 Y0.8656
X1.1412 Y0.8755
X1.1413 Y0.8855 Z-0.1495
X1.141 Y0.8954
X1.1403 Y0.9053
X1.1392 Y0.9152
X1.1377 Y0.925
X1.136 Y0.9348
X1.1337 Y0.9444
X1.1312 Y0.9541
X1.1282 Y0.9635
X1.1249 Y0.9729 Z-0.1496
X1.1212 Y0.9821
X1.1172 Y0.9912
X1.1129 Y1.0002
X1.1081 Y1.0089
X1.1032 Y1.0175
X1.0978 Y1.0258
X1.0922 Y1.0341
X1.0861 Y1.0419 Z-0.1497
X1.0799 Y1.0497
X1.0733 Y1.0571
X1.0665 Y1.0643
X1.0593 Y1.0712
X1.0519 Y1.0779
X1.0443 Y1.0843
X1.0364 Y1.0903
X1.0284 Y1.0962 Z-0.1498
X1.02 Y1.1015
X1.0116 Y1.1068
X1.0028 Y1.1114
X0.994 Y1.116
X0.9849 Y1.12
X0.9757 Y1.1238
X0.9664 Y1.1272
X0.9569 Y1.1303 Z-0.1499
X0.9474 Y1.133
X0.9377 Y1.1353
X0.928 Y1.1373
X0.9182 Y1.1388
X0.9083 Y1.1401
X0.8984 Y1.1408
X0.8885 Y1.1413
X0.8785 Z-0.15
X0.8686 Y1.141
X0.8587 Y1.1403
X0.8488 Y1.1392
X0.8388 Y1.1378
X0.8376 Y1.1376
X0.8363 Y1.1374
X0.8193 Y1.1338
X0.8098 Y1.131
X0.8003 Y1.1282
X0.7909 Y1.1248 Z-0.1501
X0.7817 Y1.1212
X0.7726 Y1.1171
X0.7637 Y1.1128
X0.7549 Y1.1081
X0.7464 Y1.103
X0.7379 Y1.0977
X0.7298 Y1.092
X0.7218 Y1.0861 Z-0.1502
X0.7142 Y1.0797
X0.7067 Y1.0732
X0.6996 Y1.0663
X0.6926 Y1.0592
X0.686 Y1.0518
X0.6796 Y1.0442
X0.6735 Y1.0363
X0.6678 Y1.0282 Z-0.1503
X0.6623 Y1.0199
X0.6573 Y1.0114
X0.6524 Y1.0027
X0.648 Y0.9938
X0.6438 Y0.9848
X0.6401 Y0.9755
X0.6367 Y0.9662
X0.6336 Y0.9568 Z-0.1504
X0.631 Y0.9472
X0.6286 Y0.9375
X0.6268 Y0.9278
X0.625 Y0.918
X0.624 Y0.9081
X0.6231 Y0.8982
X0.6228 Y0.8883
X0.6227 Y0.8783 Z-0.1505
X0.623 Y0.8684
X0.6237 Y0.8585
X0.6248 Y0.8486
X0.6263 Y0.8388
X0.628 Y0.829
X0.6304 Y0.8194
X0.6328 Y0.8097
X0.6359 Y0.8003
X0.6391 Y0.7909 Z-0.1506
X0.6429 Y0.7817
X0.6469 Y0.7726
X0.6512 Y0.7636
X0.656 Y0.7549
X0.6609 Y0.7463
X0.6664 Y0.738
X0.6719 Y0.7298
X0.678 Y0.7219 Z-0.1507
X0.6842 Y0.7141
X0.6909 Y0.7068
X0.6977 Y0.6995
X0.7048 Y0.6926
X0.7122 Y0.686
X0.7198 Y0.6796
X0.7277 Y0.6736
X0.7358 Y0.6677 Z-0.1508
X0.7441 Y0.6624
X0.7526 Y0.6571
X0.7614 Y0.6525
X0.7702 Y0.6479
X0.7793 Y0.6439
X0.7885 Y0.6401
X0.7978 Y0.6367
X0.8073 Y0.6337 Z-0.1509
X0.8168 Y0.6309
X0.8265 Y0.6287
X0.8362 Y0.6266
X0.846 Y0.6252
X0.8559 Y0.6239
X0.8658 Y0.6232
X0.8757 Y0.6227
X0.8857 Z-0.151
X0.8956 Y0.623
X0.9055 Y0.6237
X0.9154 Y0.6248
X0.9252 Y0.6262
X0.935 Y0.6282
X0.9447 Y0.6302
X0.9542 Y0.633
X0.9637 Y0.6358
X0.9731 Y0.6392 Z-0.1511
X0.9823 Y0.6428
X0.9914 Y0.6469
X1.0003 Y0.6512
X1.0091 Y0.6559
X1.0176 Y0.661
X1.0261 Y0.6663
X1.0342 Y0.672
X1.0422 Y0.6779 Z-0.1512
X1.0498 Y0.6843
X1.0573 Y0.6908
X1.0644 Y0.6977
X1.0714 Y0.7048
X1.078 Y0.7122
X1.0844 Y0.7198
X1.0905 Y0.7277
X1.0962 Y0.7358 Z-0.1513
X1.1017 Y0.7441
X1.1067 Y0.7526
X1.1116 Y0.7613
X1.116 Y0.7702
X1.1202 Y0.7792
X1.1239 Y0.7885
X1.1273 Y0.7978
X1.1304 Y0.8072 Z-0.1514
X1.133 Y0.8168
X1.1354 Y0.8265
X1.1372 Y0.8362
X1.139 Y0.846
X1.14 Y0.8559
X1.1409 Y0.8658
X1.1412 Y0.8757
X1.1413 Y0.8857 Z-0.1515
X1.141 Y0.8956
X1.1403 Y0.9055
X1.1392 Y0.9154
X1.1377 Y0.9252
X1.136 Y0.935
X1.1336 Y0.9446
X1.1312 Y0.9543
X1.1281 Y0.9637
X1.1249 Y0.9731 Z-0.1516
X1.1211 Y0.9823
X1.1171 Y0.9914
X1.1128 Y1.0004
X1.108 Y1.0091
X1.1031 Y1.0177
X1.0976 Y1.026
X1.0921 Y1.0342
X1.086 Y1.0421 Z-0.1517
X1.0798 Y1.0499
X1.0731 Y1.0572
X1.0663 Y1.0645
X1.0592 Y1.0714
X1.0518 Y1.078
X1.0442 Y1.0844
X1.0363 Y1.0904
X1.0282 Y1.0963 Z-0.1518
X1.0199 Y1.1016
X1.0114 Y1.1069
X1.0026 Y1.1115
X0.9938 Y1.1161
X0.9847 Y1.1201
X0.9755 Y1.1239
X0.9662 Y1.1273
X0.9567 Y1.1303 Z-0.1519
X0.9472 Y1.1331
X0.9375 Y1.1353
X0.9278 Y1.1374
X0.918 Y1.1388
X0.9081 Y1.1401
X0.8982 Y1.1408
X0.8883 Y1.1413
X0.8783 Z-0.152
X0.8684 Y1.141
X0.8585 Y1.1403
X0.8486 Y1.1392
X0.8386 Y1.1378
X0.8374 Y1.1376
X0.8361 Y1.1373
X0.8288 Y1.1358
X0.8191 Y1.1337
X0.8096 Y1.131
X0.8001 Y1.1281
X0.7907 Y1.1247 Z-0.1521
X0.7815 Y1.1211
X0.7724 Y1.117
X0.7635 Y1.1127
X0.7547 Y1.108
X0.7462 Y1.1029
X0.7378 Y1.0976
X0.7297 Y1.0919
X0.7217 Y1.086 Z-0.1522
X0.7141 Y1.0796
X0.7066 Y1.0731
X0.6994 Y1.0662
X0.6925 Y1.059
X0.6858 Y1.0517
X0.6795 Y1.044
X0.6734 Y1.0362
X0.6677 Y1.028 Z-0.1523
X0.6622 Y1.0198
X0.6572 Y1.0112
X0.6523 Y1.0025
X0.6479 Y0.9936
X0.6438 Y0.9846
X0.64 Y0.9754
X0.6367 Y0.966
X0.6336 Y0.9566 Z-0.1524
X0.631 Y0.947
X0.6286 Y0.9373
X0.6267 Y0.9276
X0.625 Y0.9178
X0.624 Y0.9079
X0.6231 Y0.898
X0.6228 Y0.8881
X0.6227 Y0.8781 Z-0.1525
X0.623 Y0.8682
X0.6238 Y0.8583
X0.6248 Y0.8484
X0.6263 Y0.8386
X0.6281 Y0.8288
X0.6304 Y0.8192
X0.6329 Y0.8095
X0.636 Y0.8001
X0.6392 Y0.7907 Z-0.1526
X0.6429 Y0.7815
X0.647 Y0.7724
X0.6513 Y0.7635
X0.6561 Y0.7547
X0.661 Y0.7461
X0.6665 Y0.7378
X0.672 Y0.7296
X0.6781 Y0.7218 Z-0.1527
X0.6843 Y0.714
X0.691 Y0.7066
X0.6978 Y0.6994
X0.705 Y0.6925
X0.7124 Y0.6858
X0.72 Y0.6795
X0.7279 Y0.6735
X0.7359 Y0.6676 Z-0.1528
X0.7443 Y0.6623
X0.7528 Y0.657
X0.7615 Y0.6524
X0.7704 Y0.6479
X0.7795 Y0.6438
X0.7886 Y0.64
X0.798 Y0.6366
X0.8074 Y0.6336 Z-0.1529
X0.817 Y0.6309
X0.8267 Y0.6287
X0.8364 Y0.6266
X0.8462 Y0.6252
X0.8561 Y0.6239
X0.866 Y0.6232
X0.8759 Y0.6227
X0.8859 Z-0.153
X0.8958 Y0.623
X0.9057 Y0.6237
X0.9156 Y0.6249
X0.9254 Y0.6262
X0.9352 Y0.6282
X0.9449 Y0.6303
X0.9544 Y0.633
X0.9639 Y0.6359
X0.9733 Y0.6393 Z-0.1531
X0.9825 Y0.6429
X0.9916 Y0.647
X1.0005 Y0.6513
X1.0093 Y0.656
X1.0178 Y0.6611
X1.0262 Y0.6664
X1.0343 Y0.6721
X1.0423 Y0.678 Z-0.1532
X1.0499 Y0.6844
X1.0574 Y0.6909
X1.0646 Y0.6978
X1.0715 Y0.705
X1.0782 Y0.7123
X1.0845 Y0.72
X1.0906 Y0.7278
X1.0963 Y0.736 Z-0.1533
X1.1018 Y0.7442
X1.1068 Y0.7528
X1.1117 Y0.7615
X1.1161 Y0.7704
X1.1202 Y0.7794
X1.124 Y0.7886
X1.1273 Y0.798
X1.1304 Y0.8074 Z-0.1534
X1.133 Y0.817
X1.1354 Y0.8267
X1.1373 Y0.8364
X1.139 Y0.8462
X1.14 Y0.8561
X1.1409 Y0.866
X1.1412 Y0.8759
X1.1413 Y0.8859 Z-0.1535
X1.141 Y0.8958
X1.1402 Y0.9057
X1.1392 Y0.9156
X1.1377 Y0.9254
X1.1359 Y0.9352
X1.1336 Y0.9448
X1.1311 Y0.9545
X1.128 Y0.9639
X1.1248 Y0.9733 Z-0.1536
X1.1211 Y0.9825
X1.117 Y0.9916
X1.1127 Y1.0005
X1.1079 Y1.0093
X1.103 Y1.0179
X1.0975 Y1.0262
X1.092 Y1.0344
X1.0859 Y1.0422 Z-0.1537
X1.0797 Y1.05
X1.073 Y1.0574
X1.0662 Y1.0646
X1.059 Y1.0715
X1.0516 Y1.0782
X1.044 Y1.0845
X1.0361 Y1.0905
X1.0281 Y1.0964 Z-0.1538
X1.0197 Y1.1017
X1.0112 Y1.107
X1.0025 Y1.1116
X0.9936 Y1.1161
X0.9845 Y1.1202
X0.9754 Y1.124
X0.966 Y1.1274
X0.9566 Y1.1304 Z-0.1539
X0.947 Y1.1331
X0.9373 Y1.1353
X0.9276 Y1.1374
X0.9178 Y1.1388
X0.9079 Y1.1401
X0.898 Y1.1408
X0.8881 Y1.1413
X0.8781 Z-0.154
X0.8682 Y1.141
X0.8583 Y1.1403
X0.8484 Y1.1391
X0.8384 Y1.1377
X0.8372 Y1.1376
X0.8359 Y1.1373
X0.8287 Y1.1358
X0.8189 Y1.1337
X0.8094 Y1.1309
X0.7999 Y1.1281
X0.7905 Y1.1247 Z-0.1541
X0.7813 Y1.121
X0.7722 Y1.117
X0.7633 Y1.1126
X0.7545 Y1.1079
X0.746 Y1.1028
X0.7376 Y1.0975
X0.7295 Y1.0917
X0.7215 Y1.0858 Z-0.1542
X0.7139 Y1.0794
X0.7064 Y1.0729
X0.6993 Y1.066
X0.6923 Y1.0589
X0.6857 Y1.0515
X0.6794 Y1.0438
X0.6733 Y1.036
X0.6676 Y1.0278 Z-0.1543
X0.662 Y1.0196
X0.6571 Y1.011
X0.6522 Y1.0023
X0.6478 Y0.9934
X0.6437 Y0.9844
X0.64 Y0.9752
X0.6366 Y0.9658
X0.6335 Y0.9564 Z-0.1544
X0.6309 Y0.9468
X0.6285 Y0.9371
X0.6267 Y0.9274
X0.625 Y0.9176
X0.624 Y0.9077
X0.6231 Y0.8978
X0.6227 Y0.8879
Y0.8779 Z-0.1545
X0.623 Y0.868
X0.6238 Y0.8581
X0.6248 Y0.8482
X0.6264 Y0.8384
X0.6281 Y0.8286
X0.6305 Y0.819
X0.633 Y0.8094
X0.636 Y0.7999
X0.6393 Y0.7905 Z-0.1546
X0.643 Y0.7813
X0.647 Y0.7722
X0.6514 Y0.7633
X0.6562 Y0.7546
X0.6611 Y0.746
X0.6666 Y0.7377
X0.6721 Y0.7294
X0.6783 Y0.7216 Z-0.1547
X0.6845 Y0.7138
X0.6911 Y0.7065
X0.698 Y0.6992
X0.7051 Y0.6923
X0.7125 Y0.6857
X0.7201 Y0.6793
X0.728 Y0.6733
X0.7361 Y0.6675 Z-0.1548
X0.7445 Y0.6622
X0.7529 Y0.6569
X0.7617 Y0.6523
X0.7706 Y0.6478
X0.7796 Y0.6437
X0.7888 Y0.64
X0.7982 Y0.6366
X0.8076 Y0.6336 Z-0.1549
X0.8172 Y0.6308
X0.8269 Y0.6286
X0.8366 Y0.6266
X0.8464 Y0.6251
X0.8563 Y0.6239
X0.8662 Y0.6232
X0.8761 Y0.6227
X0.8861 Z-0.155
X0.896 Y0.623
X0.9059 Y0.6237
X0.9158 Y0.6249
X0.9256 Y0.6263
X0.9353 Y0.6282
X0.9451 Y0.6303
X0.9546 Y0.6331
X0.9641 Y0.6359
X0.9735 Y0.6393 Z-0.1551
X0.9827 Y0.643
X0.9918 Y0.647
X1.0007 Y0.6514
X1.0095 Y0.6561
X1.018 Y0.6612
X1.0264 Y0.6665
X1.0345 Y0.6723
X1.0425 Y0.6782 Z-0.1552
X1.0501 Y0.6846
X1.0576 Y0.6911
X1.0647 Y0.698
X1.0717 Y0.7051
X1.0783 Y0.7125
X1.0846 Y0.7202
X1.0907 Y0.728
X1.0964 Y0.7362 Z-0.1553
X1.102 Y0.7444
X1.1069 Y0.753
X1.1118 Y0.7617
X1.1162 Y0.7706
X1.1203 Y0.7796
X1.124 Y0.7888
X1.1274 Y0.7982
X1.1305 Y0.8076 Z-0.1554
X1.1331 Y0.8172
X1.1355 Y0.8268
X1.1373 Y0.8366
X1.139 Y0.8464
X1.14 Y0.8563
X1.1409 Y0.8662
X1.1413 Y0.8761
Y0.8861 Z-0.1555
X1.141 Y0.896
X1.1402 Y0.9059
X1.1392 Y0.9158
X1.1376 Y0.9256
X1.1359 Y0.9354
X1.1335 Y0.945
X1.131 Y0.9546
X1.128 Y0.9641
X1.1247 Y0.9735 Z-0.1556
X1.121 Y0.9827
X1.117 Y0.9918
X1.1126 Y1.0007
X1.1078 Y1.0094
X1.1029 Y1.018
X1.0974 Y1.0263
X1.0919 Y1.0346
X1.0857 Y1.0424 Z-0.1557
X1.0795 Y1.0502
X1.0729 Y1.0575
X1.066 Y1.0648
X1.0589 Y1.0717
X1.0515 Y1.0783
X1.0439 Y1.0847
X1.036 Y1.0907
X1.0279 Y1.0965 Z-0.1558
X1.0195 Y1.1018
X1.0111 Y1.1071
X1.0023 Y1.1117
X0.9934 Y1.1162
X0.9844 Y1.1203
X0.9752 Y1.124
X0.9658 Y1.1274
X0.9564 Y1.1304 Z-0.1559
X0.9468 Y1.1332
X0.9371 Y1.1354
