(1001)
(FACING AND RAMP PATHS)
(T1  D=0.125 CR=0. - ZMIN=-0.6409 - FLAT END MILL)
G0 G90 G94 G17
G20
G53 Z0.

(FACE1)
M5
M9
T1
S16500 M3
G55
M9
G0 X1.1197 Y-0.002
Z0.65
Z0.05
G1 Z-0.0009 F5.
X1.0512
X0. F59.
G2 Y0.0578 I0. J0.0299
G1 X1.0512
G3 Y0.1177 I0. J0.0299
G1 X0.
G2 Y0.1776 I0. J0.0299
G1 X1.0512
G3 Y0.2374 I0. J0.0299
G1 X0.
G2 Y0.2973 I0. J0.0299
G1 X1.0512
G3 Y0.3571 I0. J0.0299
G1 X0.
G2 Y0.417 I0. J0.0299
G1 X1.0512
G3 Y0.4769 I0. J0.0299
G1 X0.
G2 Y0.5367 I0. J0.0299
G1 X1.0512
G3 Y0.5966 I0. J0.0299
G1 X0.
G2 Y0.6564 I0. J0.0299
G1 X1.0512
G3 Y0.7163 I0. J0.0299
G1 X0.
G2 Y0.7762 I0. J0.0299
G1 X1.0512
G3 Y0.836 I0. J0.0299
G1 X0.
G2 Y0.8959 I0. J0.0299
G1 X1.0512
G3 Y0.9557 I0. J0.0299
G1 X0.
G0 Z0.05
X-0.0685 Y-0.002
G1 Z-0.0029 F5.
X0.
X1.0512 F59.
G3 Y0.0578 I0. J0.0299
G1 X0.
G2 Y0.1177 I0. J0.0299
G1 X1.0512
G3 Y0.1776 I0. J0.0299
G1 X0.
G2 Y0.2374 I0. J0.0299
G1 X1.0512
G3 Y0.2973 I0. J0.0299
G1 X0.
G2 Y0.3571 I0. J0.0299
G1 X1.0512
G3 Y0.417 I0. J0.0299
G1 X0.
G2 Y0.4769 I0. J0.0299
G1 X1.0512
G3 Y0.5367 I0. J0.0299
G1 X0.
G2 Y0.5966 I0. J0.0299
G1 X1.0512
G3 Y0.6564 I0. J0.0299
G1 X0.
G2 Y0.7163 I0. J0.0299
G1 X1.0512
G3 Y0.7762 I0. J0.0299
G1 X0.
G2 Y0.836 I0. J0.0299
G1 X1.0512
G3 Y0.8959 I0. J0.0299
G1 X0.
G2 Y0.9557 I0. J0.0299
G1 X1.0512
G0 Z0.05
X1.1197 Y-0.002
G1 Z-0.0049 F5.
X1.0512
X0. F59.
G2 Y0.0578 I0. J0.0299
G1 X1.0512
G3 Y0.1177 I0. J0.0299
G1 X0.
G2 Y0.1776 I0. J0.0299
G1 X1.0512
G3 Y0.2374 I0. J0.0299
G1 X0.
G2 Y0.2973 I0. J0.0299
G1 X1.0512
G3 Y0.3571 I0. J0.0299
G1 X0.
G2 Y0.417 I0. J0.0299
G1 X1.0512
G3 Y0.4769 I0. J0.0299
G1 X0.
G2 Y0.5367 I0. J0.0299
G1 X1.0512
G3 Y0.5966 I0. J0.0299
G1 X0.
G2 Y0.6564 I0. J0.0299
G1 X1.0512
G3 Y0.7163 I0. J0.0299
G1 X0.
G2 Y0.7762 I0. J0.0299
G1 X1.0512
G3 Y0.836 I0. J0.0299
G1 X0.
G2 Y0.8959 I0. J0.0299
G1 X1.0512
G3 Y0.9557 I0. J0.0299
G1 X0.
G0 Z0.05
X-0.0685 Y-0.002
G1 Z-0.0069 F5.
X0.
X1.0512 F59.
G3 Y0.0578 I0. J0.0299
G1 X0.
G2 Y0.1177 I0. J0.0299
G1 X1.0512
G3 Y0.1776 I0. J0.0299
G1 X0.
G2 Y0.2374 I0. J0.0299
G1 X1.0512
G3 Y0.2973 I0. J0.0299
G1 X0.
G2 Y0.3571 I0. J0.0299
G1 X1.0512
G3 Y0.417 I0. J0.0299
G1 X0.
G2 Y0.4769 I0. J0.0299
G1 X1.0512
G3 Y0.5367 I0. J0.0299
G1 X0.
G2 Y0.5966 I0. J0.0299
G1 X1.0512
G3 Y0.6564 I0. J0.0299
G1 X0.
G2 Y0.7163 I0. J0.0299
G1 X1.0512
G3 Y0.7762 I0. J0.0299
G1 X0.
G2 Y0.836 I0. J0.0299
G1 X1.0512
G3 Y0.8959 I0. J0.0299
G1 X0.
G2 Y0.9557 I0. J0.0299
G1 X1.0512
G0 Z0.05
X1.1197 Y-0.002
G1 Z-0.0089 F5.
X1.0512
X0. F59.
G2 Y0.0578 I0. J0.0299
G1 X1.0512
G3 Y0.1177 I0. J0.0299
G1 X0.
G2 Y0.1776 I0. J0.0299
G1 X1.0512
G3 Y0.2374 I0. J0.0299
G1 X0.
G2 Y0.2973 I0. J0.0299
G1 X1.0512
G3 Y0.3571 I0. J0.0299
G1 X0.
G2 Y0.417 I0. J0.0299
G1 X1.0512
G3 Y0.4769 I0. J0.0299
G1 X0.
G2 Y0.5367 I0. J0.0299
G1 X1.0512
G3 Y0.5966 I0. J0.0299
G1 X0.
G2 Y0.6564 I0. J0.0299
G1 X1.0512
G3 Y0.7163 I0. J0.0299
G1 X0.
G2 Y0.7762 I0. J0.0299
G1 X1.0512
G3 Y0.836 I0. J0.0299
G1 X0.
G2 Y0.8959 I0. J0.0299
G1 X1.0512
G3 Y0.9557 I0. J0.0299
G1 X0.
G0 Z0.05
X-0.0685 Y-0.002
G1 Z-0.0109 F5.
X0.
X1.0512 F59.
G3 Y0.0578 I0. J0.0299
G1 X0.
G2 Y0.1177 I0. J0.0299
G1 X1.0512
G3 Y0.1776 I0. J0.0299
G1 X0.
G2 Y0.2374 I0. J0.0299
G1 X1.0512
G3 Y0.2973 I0. J0.0299
G1 X0.
G2 Y0.3571 I0. J0.0299
G1 X1.0512
G3 Y0.417 I0. J0.0299
G1 X0.
G2 Y0.4769 I0. J0.0299
G1 X1.0512
G3 Y0.5367 I0. J0.0299
G1 X0.
G2 Y0.5966 I0. J0.0299
G1 X1.0512
G3 Y0.6564 I0. J0.0299
G1 X0.
G2 Y0.7163 I0. J0.0299
G1 X1.0512
G3 Y0.7762 I0. J0.0299
G1 X0.
G2 Y0.836 I0. J0.0299
G1 X1.0512
G3 Y0.8959 I0. J0.0299
G1 X0.
G2 Y0.9557 I0. J0.0299
G1 X1.0512
G0 Z0.05
X1.1197 Y-0.002
G1 Z-0.0129 F5.
X1.0512
X0. F59.
G2 Y0.0578 I0. J0.0299
G1 X1.0512
G3 Y0.1177 I0. J0.0299
G1 X0.
G2 Y0.1776 I0. J0.0299
G1 X1.0512
G3 Y0.2374 I0. J0.0299
G1 X0.
G2 Y0.2973 I0. J0.0299
G1 X1.0512
G3 Y0.3571 I0. J0.0299
G1 X0.
G2 Y0.417 I0. J0.0299
G1 X1.0512
G3 Y0.4769 I0. J0.0299
G1 X0.
G2 Y0.5367 I0. J0.0299
G1 X1.0512
G3 Y0.5966 I0. J0.0299
G1 X0.
G2 Y0.6564 I0. J0.0299
G1 X1.0512
G3 Y0.7163 I0. J0.0299
G1 X0.
G2 Y0.7762 I0. J0.0299
G1 X1.0512
G3 Y0.836 I0. J0.0299
G1 X0.
G2 Y0.8959 I0. J0.0299
G1 X1.0512
G3 Y0.9557 I0. J0.0299
G1 X0.
G0 Z0.05
X-0.0685 Y-0.002
G1 Z-0.0149 F5.
X0.
X1.0512 F59.
G3 Y0.0578 I0. J0.0299
G1 X0.
G2 Y0.1177 I0. J0.0299
G1 X1.0512
G3 Y0.1776 I0. J0.0299
G1 X0.
G2 Y0.2374 I0. J0.0299
G1 X1.0512
G3 Y0.2973 I0. J0.0299
G1 X0.
G2 Y0.3571 I0. J0.0299
G1 X1.0512
G3 Y0.417 I0. J0.0299
G1 X0.
G2 Y0.4769 I0. J0.0299
G1 X1.0512
G3 Y0.5367 I0. J0.0299
G1 X0.
G2 Y0.5966 I0. J0.0299
G1 X1.0512
G3 Y0.6564 I0. J0.0299
G1 X0.
G2 Y0.7163 I0. J0.0299
G1 X1.0512
G3 Y0.7762 I0. J0.0299
G1 X0.
G2 Y0.836 I0. J0.0299
G1 X1.0512
G3 Y0.8959 I0. J0.0299
G1 X0.
G2 Y0.9557 I0. J0.0299
G1 X1.0512
G0 Z0.05
X1.1197 Y-0.002
G1 Z-0.0169 F5.
X1.0512
X0. F59.
G2 Y0.0578 I0. J0.0299
G1 X1.0512
G3 Y0.1177 I0. J0.0299
G1 X0.
G2 Y0.1776 I0. J0.0299
G1 X1.0512
G3 Y0.2374 I0. J0.0299
G1 X0.
G2 Y0.2973 I0. J0.0299
G1 X1.0512
G3 Y0.3571 I0. J0.0299
G1 X0.
G2 Y0.417 I0. J0.0299
G1 X1.0512
G3 Y0.4769 I0. J0.0299
G1 X0.
G2 Y0.5367 I0. J0.0299
G1 X1.0512
G3 Y0.5966 I0. J0.0299
G1 X0.
G2 Y0.6564 I0. J0.0299
G1 X1.0512
G3 Y0.7163 I0. J0.0299
G1 X0.
G2 Y0.7762 I0. J0.0299
G1 X1.0512
G3 Y0.836 I0. J0.0299
G1 X0.
G2 Y0.8959 I0. J0.0299
G1 X1.0512
G3 Y0.9557 I0. J0.0299
G1 X0.
G0 Z0.05
X-0.0685 Y-0.002
G1 Z-0.0189 F5.
X0.
X1.0512 F59.
G3 Y0.0578 I0. J0.0299
G1 X0.
G2 Y0.1177 I0. J0.0299
G1 X1.0512
G3 Y0.1776 I0. J0.0299
G1 X0.
G2 Y0.2374 I0. J0.0299
G1 X1.0512
G3 Y0.2973 I0. J0.0299
G1 X0.
G2 Y0.3571 I0. J0.0299
G1 X1.0512
G3 Y0.417 I0. J0.0299
G1 X0.
G2 Y0.4769 I0. J0.0299
G1 X1.0512
G3 Y0.5367 I0. J0.0299
G1 X0.
G2 Y0.5966 I0. J0.0299
G1 X1.0512
G3 Y0.6564 I0. J0.0299
G1 X0.
G2 Y0.7163 I0. J0.0299
G1 X1.0512
G3 Y0.7762 I0. J0.0299
G1 X0.
G2 Y0.836 I0. J0.0299
G1 X1.0512
G3 Y0.8959 I0. J0.0299
G1 X0.
G2 Y0.9557 I0. J0.0299
G1 X1.0512
G0 Z0.05
X1.1197 Y-0.002
G1 Z-0.0209 F5.
X1.0512
X0. F59.
G2 Y0.0578 I0. J0.0299
G1 X1.0512
G3 Y0.1177 I0. J0.0299
G1 X0.
G2 Y0.1776 I0. J0.0299
G1 X1.0512
G3 Y0.2374 I0. J0.0299
G1 X0.
G2 Y0.2973 I0. J0.0299
G1 X1.0512
G3 Y0.3571 I0. J0.0299
G1 X0.
G2 Y0.417 I0. J0.0299
G1 X1.0512
G3 Y0.4769 I0. J0.0299
G1 X0.
G2 Y0.5367 I0. J0.0299
G1 X1.0512
G3 Y0.5966 I0. J0.0299
G1 X0.
G2 Y0.6564 I0. J0.0299
G1 X1.0512
G3 Y0.7163 I0. J0.0299
G1 X0.
G2 Y0.7762 I0. J0.0299
G1 X1.0512
G3 Y0.836 I0. J0.0299
G1 X0.
G2 Y0.8959 I0. J0.0299
G1 X1.0512
G3 Y0.9557 I0. J0.0299
G1 X0.
G0 Z0.05
X-0.0685 Y-0.002
G1 Z-0.0229 F5.
X0.
X1.0512 F59.
G3 Y0.0578 I0. J0.0299
G1 X0.
G2 Y0.1177 I0. J0.0299
G1 X1.0512
G3 Y0.1776 I0. J0.0299
G1 X0.
G2 Y0.2374 I0. J0.0299
G1 X1.0512
G3 Y0.2973 I0. J0.0299
G1 X0.
G2 Y0.3571 I0. J0.0299
G1 X1.0512
G3 Y0.417 I0. J0.0299
G1 X0.
G2 Y0.4769 I0. J0.0299
G1 X1.0512
G3 Y0.5367 I0. J0.0299
G1 X0.
G2 Y0.5966 I0. J0.0299
G1 X1.0512
G3 Y0.6564 I0. J0.0299
G1 X0.
G2 Y0.7163 I0. J0.0299
G1 X1.0512
G3 Y0.7762 I0. J0.0299
G1 X0.
G2 Y0.836 I0. J0.0299
G1 X1.0512
G3 Y0.8959 I0. J0.0299
G1 X0.
G2 Y0.9557 I0. J0.0299
G1 X1.0512
G0 Z0.05
X1.1197 Y-0.002
G1 Z-0.0249 F5.
X1.0512
X0. F59.
G2 Y0.0578 I0. J0.0299
G1 X1.0512
G3 Y0.1177 I0. J0.0299
G1 X0.
G2 Y0.1776 I0. J0.0299
G1 X1.0512
G3 Y0.2374 I0. J0.0299
G1 X0.
G2 Y0.2973 I0. J0.0299
G1 X1.0512
G3 Y0.3571 I0. J0.0299
G1 X0.
G2 Y0.417 I0. J0.0299
G1 X1.0512
G3 Y0.4769 I0. J0.0299
G1 X0.
G2 Y0.5367 I0. J0.0299
G1 X1.0512
G3 Y0.5966 I0. J0.0299
G1 X0.
G2 Y0.6564 I0. J0.0299
G1 X1.0512
G3 Y0.7163 I0. J0.0299
G1 X0.
G2 Y0.7762 I0. J0.0299
G1 X1.0512
G3 Y0.836 I0. J0.0299
G1 X0.
G2 Y0.8959 I0. J0.0299
G1 X1.0512
G3 Y0.9557 I0. J0.0299
G1 X0.
G0 Z0.05
X-0.0685 Y-0.002
G1 Z-0.0269 F5.
X0.
X1.0512 F59.
G3 Y0.0578 I0. J0.0299
G1 X0.
G2 Y0.1177 I0. J0.0299
G1 X1.0512
G3 Y0.1776 I0. J0.0299
G1 X0.
G2 Y0.2374 I0. J0.0299
G1 X1.0512
G3 Y0.2973 I0. J0.0299
G1 X0.
G2 Y0.3571 I0. J0.0299
G1 X1.0512
G3 Y0.417 I0. J0.0299
G1 X0.
G2 Y0.4769 I0. J0.0299
G1 X1.0512
G3 Y0.5367 I0. J0.0299
G1 X0.
G2 Y0.5966 I0. J0.0299
G1 X1.0512
G3 Y0.6564 I0. J0.0299
G1 X0.
G2 Y0.7163 I0. J0.0299
G1 X1.0512
G3 Y0.7762 I0. J0.0299
G1 X0.
G2 Y0.836 I0. J0.0299
G1 X1.0512
G3 Y0.8959 I0. J0.0299
G1 X0.
G2 Y0.9557 I0. J0.0299
G1 X1.0512
G0 Z0.05
X1.1197 Y-0.002
G1 Z-0.0289 F5.
X1.0512
X0. F59.
G2 Y0.0578 I0. J0.0299
G1 X1.0512
G3 Y0.1177 I0. J0.0299
G1 X0.
G2 Y0.1776 I0. J0.0299
G1 X1.0512
G3 Y0.2374 I0. J0.0299
G1 X0.
G2 Y0.2973 I0. J0.0299
G1 X1.0512
G3 Y0.3571 I0. J0.0299
G1 X0.
G2 Y0.417 I0. J0.0299
G1 X1.0512
G3 Y0.4769 I0. J0.0299
G1 X0.
G2 Y0.5367 I0. J0.0299
G1 X1.0512
G3 Y0.5966 I0. J0.0299
G1 X0.
G2 Y0.6564 I0. J0.0299
G1 X1.0512
G3 Y0.7163 I0. J0.0299
G1 X0.
G2 Y0.7762 I0. J0.0299
G1 X1.0512
G3 Y0.836 I0. J0.0299
G1 X0.
G2 Y0.8959 I0. J0.0299
G1 X1.0512
G3 Y0.9557 I0. J0.0299
G1 X0.
G0 Z0.05
X-0.0685 Y-0.002
G1 Z-0.0309 F5.
X0.
X1.0512 F59.
G3 Y0.0578 I0. J0.0299
G1 X0.
G2 Y0.1177 I0. J0.0299
G1 X1.0512
G3 Y0.1776 I0. J0.0299
G1 X0.
G2 Y0.2374 I0. J0.0299
G1 X1.0512
G3 Y0.2973 I0. J0.0299
G1 X0.
G2 Y0.3571 I0. J0.0299
G1 X1.0512
G3 Y0.417 I0. J0.0299
G1 X0.
G2 Y0.4769 I0. J0.0299
G1 X1.0512
G3 Y0.5367 I0. J0.0299
G1 X0.
G2 Y0.5966 I0. J0.0299
G1 X1.0512
G3 Y0.6564 I0. J0.0299
G1 X0.
G2 Y0.7163 I0. J0.0299
G1 X1.0512
G3 Y0.7762 I0. J0.0299
G1 X0.
G2 Y0.836 I0. J0.0299
G1 X1.0512
G3 Y0.8959 I0. J0.0299
G1 X0.
G2 Y0.9557 I0. J0.0299
G1 X1.0512
G0 Z0.05
X1.1197 Y-0.002
G1 Z-0.0329 F5.
X1.0512
X0. F59.
G2 Y0.0578 I0. J0.0299
G1 X1.0512
G3 Y0.1177 I0. J0.0299
G1 X0.
G2 Y0.1776 I0. J0.0299
G1 X1.0512
G3 Y0.2374 I0. J0.0299
G1 X0.
G2 Y0.2973 I0. J0.0299
G1 X1.0512
G3 Y0.3571 I0. J0.0299
G1 X0.
G2 Y0.417 I0. J0.0299
G1 X1.0512
G3 Y0.4769 I0. J0.0299
G1 X0.
G2 Y0.5367 I0. J0.0299
G1 X1.0512
G3 Y0.5966 I0. J0.0299
G1 X0.
G2 Y0.6564 I0. J0.0299
G1 X1.0512
G3 Y0.7163 I0. J0.0299
G1 X0.
G2 Y0.7762 I0. J0.0299
G1 X1.0512
G3 Y0.836 I0. J0.0299
G1 X0.
G2 Y0.8959 I0. J0.0299
G1 X1.0512
G3 Y0.9557 I0. J0.0299
G1 X0.
G0 Z0.05
X-0.0685 Y-0.002
G1 Z-0.0349 F5.
X0.
X1.0512 F59.
G3 Y0.0578 I0. J0.0299
G1 X0.
G2 Y0.1177 I0. J0.0299
G1 X1.0512
G3 Y0.1776 I0. J0.0299
G1 X0.
G2 Y0.2374 I0. J0.0299
G1 X1.0512
G3 Y0.2973 I0. J0.0299
G1 X0.
G2 Y0.3571 I0. J0.0299
G1 X1.0512
G3 Y0.417 I0. J0.0299
G1 X0.
G2 Y0.4769 I0. J0.0299
G1 X1.0512
G3 Y0.5367 I0. J0.0299
G1 X0.
G2 Y0.5966 I0. J0.0299
G1 X1.0512
G3 Y0.6564 I0. J0.0299
G1 X0.
G2 Y0.7163 I0. J0.0299
G1 X1.0512
G3 Y0.7762 I0. J0.0299
G1 X0.
G2 Y0.836 I0. J0.0299
G1 X1.0512
G3 Y0.8959 I0. J0.0299
G1 X0.
G2 Y0.9557 I0. J0.0299
G1 X1.0512
G0 Z0.05
X1.1197 Y-0.002
G1 Z-0.0369 F5.
X1.0512
X0. F59.
G2 Y0.0578 I0. J0.0299
G1 X1.0512
G3 Y0.1177 I0. J0.0299
G1 X0.
G2 Y0.1776 I0. J0.0299
G1 X1.0512
G3 Y0.2374 I0. J0.0299
G1 X0.
G2 Y0.2973 I0. J0.0299
G1 X1.0512
G3 Y0.3571 I0. J0.0299
G1 X0.
G2 Y0.417 I0. J0.0299
G1 X1.0512
G3 Y0.4769 I0. J0.0299
G1 X0.
G2 Y0.5367 I0. J0.0299
G1 X1.0512
G3 Y0.5966 I0. J0.0299
G1 X0.
G2 Y0.6564 I0. J0.0299
G1 X1.0512
G3 Y0.7163 I0. J0.0299
G1 X0.
G2 Y0.7762 I0. J0.0299
G1 X1.0512
G3 Y0.836 I0. J0.0299
G1 X0.
G2 Y0.8959 I0. J0.0299
G1 X1.0512
G3 Y0.9557 I0. J0.0299
G1 X0.
G0 Z0.05
X-0.0685 Y-0.002
G1 Z-0.0389 F5.
X0.
X1.0512 F59.
G3 Y0.0578 I0. J0.0299
G1 X0.
G2 Y0.1177 I0. J0.0299
G1 X1.0512
G3 Y0.1776 I0. J0.0299
G1 X0.
G2 Y0.2374 I0. J0.0299
G1 X1.0512
G3 Y0.2973 I0. J0.0299
G1 X0.
G2 Y0.3571 I0. J0.0299
G1 X1.0512
G3 Y0.417 I0. J0.0299
G1 X0.
G2 Y0.4769 I0. J0.0299
G1 X1.0512
G3 Y0.5367 I0. J0.0299
G1 X0.
G2 Y0.5966 I0. J0.0299
G1 X1.0512
G3 Y0.6564 I0. J0.0299
G1 X0.
G2 Y0.7163 I0. J0.0299
G1 X1.0512
G3 Y0.7762 I0. J0.0299
G1 X0.
G2 Y0.836 I0. J0.0299
G1 X1.0512
G3 Y0.8959 I0. J0.0299
G1 X0.
G2 Y0.9557 I0. J0.0299
G1 X1.0512
G0 Z0.05
X1.1197 Y-0.002
G1 Z-0.0409 F5.
X1.0512
X0. F59.
G2 Y0.0578 I0. J0.0299
G1 X1.0512
G3 Y0.1177 I0. J0.0299
G1 X0.
G2 Y0.1776 I0. J0.0299
G1 X1.0512
G3 Y0.2374 I0. J0.0299
G1 X0.
G2 Y0.2973 I0. J0.0299
G1 X1.0512
G3 Y0.3571 I0. J0.0299
G1 X0.
G2 Y0.417 I0. J0.0299
G1 X1.0512
G3 Y0.4769 I0. J0.0299
G1 X0.
G2 Y0.5367 I0. J0.0299
G1 X1.0512
G3 Y0.5966 I0. J0.0299
G1 X0.
G2 Y0.6564 I0. J0.0299
G1 X1.0512
G3 Y0.7163 I0. J0.0299
G1 X0.
G2 Y0.7762 I0. J0.0299
G1 X1.0512
G3 Y0.836 I0. J0.0299
G1 X0.
G2 Y0.8959 I0. J0.0299
G1 X1.0512
G3 Y0.9557 I0. J0.0299
G1 X0.
G0 Z0.05
X-0.0685 Y-0.002
G1 Z-0.0429 F5.
X0.
X1.0512 F59.
G3 Y0.0578 I0. J0.0299
G1 X0.
G2 Y0.1177 I0. J0.0299
G1 X1.0512
G3 Y0.1776 I0. J0.0299
G1 X0.
G2 Y0.2374 I0. J0.0299
G1 X1.0512
G3 Y0.2973 I0. J0.0299
G1 X0.
G2 Y0.3571 I0. J0.0299
G1 X1.0512
G3 Y0.417 I0. J0.0299
G1 X0.
G2 Y0.4769 I0. J0.0299
G1 X1.0512
G3 Y0.5367 I0. J0.0299
G1 X0.
G2 Y0.5966 I0. J0.0299
G1 X1.0512
G3 Y0.6564 I0. J0.0299
G1 X0.
G2 Y0.7163 I0. J0.0299
G1 X1.0512
G3 Y0.7762 I0. J0.0299
G1 X0.
G2 Y0.836 I0. J0.0299
G1 X1.0512
G3 Y0.8959 I0. J0.0299
G1 X0.
G2 Y0.9557 I0. J0.0299
G1 X1.0512
G0 Z0.05
X1.1197 Y-0.002
G1 Z-0.0449 F5.
X1.0512
X0. F59.
G2 Y0.0578 I0. J0.0299
G1 X1.0512
G3 Y0.1177 I0. J0.0299
G1 X0.
G2 Y0.1776 I0. J0.0299
G1 X1.0512
G3 Y0.2374 I0. J0.0299
G1 X0.
G2 Y0.2973 I0. J0.0299
G1 X1.0512
G3 Y0.3571 I0. J0.0299
G1 X0.
G2 Y0.417 I0. J0.0299
G1 X1.0512
G3 Y0.4769 I0. J0.0299
G1 X0.
G2 Y0.5367 I0. J0.0299
G1 X1.0512
G3 Y0.5966 I0. J0.0299
G1 X0.
G2 Y0.6564 I0. J0.0299
G1 X1.0512
G3 Y0.7163 I0. J0.0299
G1 X0.
G2 Y0.7762 I0. J0.0299
G1 X1.0512
G3 Y0.836 I0. J0.0299
G1 X0.
G2 Y0.8959 I0. J0.0299
G1 X1.0512
G3 Y0.9557 I0. J0.0299
G1 X0.
G0 Z0.05
X-0.0685 Y-0.002
G1 Z-0.0469 F5.
X0.
X1.0512 F59.
G3 Y0.0578 I0. J0.0299
G1 X0.
G2 Y0.1177 I0. J0.0299
G1 X1.0512
G3 Y0.1776 I0. J0.0299
G1 X0.
G2 Y0.2374 I0. J0.0299
G1 X1.0512
G3 Y0.2973 I0. J0.0299
G1 X0.
G2 Y0.3571 I0. J0.0299
G1 X1.0512
G3 Y0.417 I0. J0.0299
G1 X0.
G2 Y0.4769 I0. J0.0299
G1 X1.0512
G3 Y0.5367 I0. J0.0299
G1 X0.
G2 Y0.5966 I0. J0.0299
G1 X1.0512
G3 Y0.6564 I0. J0.0299
G1 X0.
G2 Y0.7163 I0. J0.0299
G1 X1.0512
G3 Y0.7762 I0. J0.0299
G1 X0.
G2 Y0.836 I0. J0.0299
G1 X1.0512
G3 Y0.8959 I0. J0.0299
G1 X0.
G2 Y0.9557 I0. J0.0299
G1 X1.0512
G0 Z0.05
X1.1197 Y-0.002
G1 Z-0.0489 F5.
X1.0512
X0. F59.
G2 Y0.0578 I0. J0.0299
G1 X1.0512
G3 Y0.1177 I0. J0.0299
G1 X0.
G2 Y0.1776 I0. J0.0299
G1 X1.0512
G3 Y0.2374 I0. J0.0299
G1 X0.
G2 Y0.2973 I0. J0.0299
G1 X1.0512
G3 Y0.3571 I0. J0.0299
G1 X0.
G2 Y0.417 I0. J0.0299
G1 X1.0512
G3 Y0.4769 I0. J0.0299
G1 X0.
G2 Y0.5367 I0. J0.0299
G1 X1.0512
G3 Y0.5966 I0. J0.0299
G1 X0.
G2 Y0.6564 I0. J0.0299
G1 X1.0512
G3 Y0.7163 I0. J0.0299
G1 X0.
G2 Y0.7762 I0. J0.0299
G1 X1.0512
G3 Y0.836 I0. J0.0299
G1 X0.
G2 Y0.8959 I0. J0.0299
G1 X1.0512
G3 Y0.9557 I0. J0.0299
G1 X0.
G0 Z0.05
X-0.0685 Y-0.002
G1 Z-0.0509 F5.
X0.
X1.0512 F59.
G3 Y0.0578 I0. J0.0299
G1 X0.
G2 Y0.1177 I0. J0.0299
G1 X1.0512
G3 Y0.1776 I0. J0.0299
G1 X0.
G2 Y0.2374 I0. J0.0299
G1 X1.0512
G3 Y0.2973 I0. J0.0299
G1 X0.
G2 Y0.3571 I0. J0.0299
G1 X1.0512
G3 Y0.417 I0. J0.0299
G1 X0.
G2 Y0.4769 I0. J0.0299
G1 X1.0512
G3 Y0.5367 I0. J0.0299
G1 X0.
G2 Y0.5966 I0. J0.0299
G1 X1.0512
G3 Y0.6564 I0. J0.0299
G1 X0.
G2 Y0.7163 I0. J0.0299
G1 X1.0512
G3 Y0.7762 I0. J0.0299
G1 X0.
G2 Y0.836 I0. J0.0299
G1 X1.0512
G3 Y0.8959 I0. J0.0299
G1 X0.
G2 Y0.9557 I0. J0.0299
G1 X1.0512
G0 Z0.05
X1.1197 Y-0.002
G1 Z-0.0529 F5.
X1.0512
X0. F59.
G2 Y0.0578 I0. J0.0299
G1 X1.0512
G3 Y0.1177 I0. J0.0299
G1 X0.
G2 Y0.1776 I0. J0.0299
G1 X1.0512
G3 Y0.2374 I0. J0.0299
G1 X0.
G2 Y0.2973 I0. J0.0299
G1 X1.0512
G3 Y0.3571 I0. J0.0299
G1 X0.
G2 Y0.417 I0. J0.0299
G1 X1.0512
G3 Y0.4769 I0. J0.0299
G1 X0.
G2 Y0.5367 I0. J0.0299
G1 X1.0512
G3 Y0.5966 I0. J0.0299
G1 X0.
G2 Y0.6564 I0. J0.0299
G1 X1.0512
G3 Y0.7163 I0. J0.0299
G1 X0.
G2 Y0.7762 I0. J0.0299
G1 X1.0512
G3 Y0.836 I0. J0.0299
G1 X0.
G2 Y0.8959 I0. J0.0299
G1 X1.0512
G3 Y0.9557 I0. J0.0299
G1 X0.
G0 Z0.05
X-0.0685 Y-0.002
G1 Z-0.0549 F5.
X0.
X1.0512 F59.
G3 Y0.0578 I0. J0.0299
G1 X0.
G2 Y0.1177 I0. J0.0299
G1 X1.0512
G3 Y0.1776 I0. J0.0299
G1 X0.
G2 Y0.2374 I0. J0.0299
G1 X1.0512
G3 Y0.2973 I0. J0.0299
G1 X0.
G2 Y0.3571 I0. J0.0299
G1 X1.0512
G3 Y0.417 I0. J0.0299
G1 X0.
G2 Y0.4769 I0. J0.0299
G1 X1.0512
G3 Y0.5367 I0. J0.0299
G1 X0.
G2 Y0.5966 I0. J0.0299
G1 X1.0512
G3 Y0.6564 I0. J0.0299
G1 X0.
G2 Y0.7163 I0. J0.0299
G1 X1.0512
G3 Y0.7762 I0. J0.0299
G1 X0.
G2 Y0.836 I0. J0.0299
G1 X1.0512
G3 Y0.8959 I0. J0.0299
G1 X0.
G2 Y0.9557 I0. J0.0299
G1 X1.0512
G0 Z0.05
X1.1197 Y-0.002
G1 Z-0.0569 F5.
X1.0512
X0. F59.
G2 Y0.0578 I0. J0.0299
G1 X1.0512
G3 Y0.1177 I0. J0.0299
G1 X0.
G2 Y0.1776 I0. J0.0299
G1 X1.0512
G3 Y0.2374 I0. J0.0299
G1 X0.
G2 Y0.2973 I0. J0.0299
G1 X1.0512
G3 Y0.3571 I0. J0.0299
G1 X0.
G2 Y0.417 I0. J0.0299
G1 X1.0512
G3 Y0.4769 I0. J0.0299
G1 X0.
G2 Y0.5367 I0. J0.0299
G1 X1.0512
G3 Y0.5966 I0. J0.0299
G1 X0.
G2 Y0.6564 I0. J0.0299
G1 X1.0512
G3 Y0.7163 I0. J0.0299
G1 X0.
G2 Y0.7762 I0. J0.0299
G1 X1.0512
G3 Y0.836 I0. J0.0299
G1 X0.
G2 Y0.8959 I0. J0.0299
G1 X1.0512
G3 Y0.9557 I0. J0.0299
G1 X0.
G0 Z0.05
X-0.0685 Y-0.002
G1 Z-0.0589 F5.
X0.
X1.0512 F59.
G3 Y0.0578 I0. J0.0299
G1 X0.
G2 Y0.1177 I0. J0.0299
G1 X1.0512
G3 Y0.1776 I0. J0.0299
G1 X0.
G2 Y0.2374 I0. J0.0299
G1 X1.0512
G3 Y0.2973 I0. J0.0299
G1 X0.
G2 Y0.3571 I0. J0.0299
G1 X1.0512
G3 Y0.417 I0. J0.0299
G1 X0.
G2 Y0.4769 I0. J0.0299
G1 X1.0512
G3 Y0.5367 I0. J0.0299
G1 X0.
G2 Y0.5966 I0. J0.0299
G1 X1.0512
G3 Y0.6564 I0. J0.0299
G1 X0.
G2 Y0.7163 I0. J0.0299
G1 X1.0512
G3 Y0.7762 I0. J0.0299
G1 X0.
G2 Y0.836 I0. J0.0299
G1 X1.0512
G3 Y0.8959 I0. J0.0299
G1 X0.
G2 Y0.9557 I0. J0.0299
G1 X1.0512
G0 Z0.05
X1.1197 Y-0.002
G1 Z-0.0609 F5.
X1.0512
X0. F59.
G2 Y0.0578 I0. J0.0299
G1 X1.0512
G3 Y0.1177 I0. J0.0299
G1 X0.
G2 Y0.1776 I0. J0.0299
G1 X1.0512
G3 Y0.2374 I0. J0.0299
G1 X0.
G2 Y0.2973 I0. J0.0299
G1 X1.0512
G3 Y0.3571 I0. J0.0299
G1 X0.
G2 Y0.417 I0. J0.0299
G1 X1.0512
G3 Y0.4769 I0. J0.0299
G1 X0.
G2 Y0.5367 I0. J0.0299
G1 X1.0512
G3 Y0.5966 I0. J0.0299
G1 X0.
G2 Y0.6564 I0. J0.0299
G1 X1.0512
G3 Y0.7163 I0. J0.0299
G1 X0.
G2 Y0.7762 I0. J0.0299
G1 X1.0512
G3 Y0.836 I0. J0.0299
G1 X0.
G2 Y0.8959 I0. J0.0299
G1 X1.0512
G3 Y0.9557 I0. J0.0299
G1 X0.
G0 Z0.05
X-0.0685 Y-0.002
G1 Z-0.0629 F5.
X0.
X1.0512 F59.
G3 Y0.0578 I0. J0.0299
G1 X0.
G2 Y0.1177 I0. J0.0299
G1 X1.0512
G3 Y0.1776 I0. J0.0299
G1 X0.
G2 Y0.2374 I0. J0.0299
G1 X1.0512
G3 Y0.2973 I0. J0.0299
G1 X0.
G2 Y0.3571 I0. J0.0299
G1 X1.0512
G3 Y0.417 I0. J0.0299
G1 X0.
G2 Y0.4769 I0. J0.0299
G1 X1.0512
G3 Y0.5367 I0. J0.0299
G1 X0.
G2 Y0.5966 I0. J0.0299
G1 X1.0512
G3 Y0.6564 I0. J0.0299
G1 X0.
G2 Y0.7163 I0. J0.0299
G1 X1.0512
G3 Y0.7762 I0. J0.0299
G1 X0.
G2 Y0.836 I0. J0.0299
G1 X1.0512
G3 Y0.8959 I0. J0.0299
G1 X0.
G2 Y0.9557 I0. J0.0299
G1 X1.0512
G0 Z0.05
X1.1197 Y-0.002
G1 Z-0.0649 F5.
X1.0512
X0. F59.
G2 Y0.0578 I0. J0.0299
G1 X1.0512
G3 Y0.1177 I0. J0.0299
G1 X0.
G2 Y0.1776 I0. J0.0299
G1 X1.0512
G3 Y0.2374 I0. J0.0299
G1 X0.
G2 Y0.2973 I0. J0.0299
G1 X1.0512
G3 Y0.3571 I0. J0.0299
G1 X0.
G2 Y0.417 I0. J0.0299
G1 X1.0512
G3 Y0.4769 I0. J0.0299
G1 X0.
G2 Y0.5367 I0. J0.0299
G1 X1.0512
G3 Y0.5966 I0. J0.0299
G1 X0.
G2 Y0.6564 I0. J0.0299
G1 X1.0512
G3 Y0.7163 I0. J0.0299
G1 X0.
G2 Y0.7762 I0. J0.0299
G1 X1.0512
G3 Y0.836 I0. J0.0299
G1 X0.
G2 Y0.8959 I0. J0.0299
G1 X1.0512
G3 Y0.9557 I0. J0.0299
G1 X0.
G0 Z0.05
X-0.0685 Y-0.002
G1 Z-0.0669 F5.
X0.
X1.0512 F59.
G3 Y0.0578 I0. J0.0299
G1 X0.
G2 Y0.1177 I0. J0.0299
G1 X1.0512
G3 Y0.1776 I0. J0.0299
G1 X0.
G2 Y0.2374 I0. J0.0299
G1 X1.0512
G3 Y0.2973 I0. J0.0299
G1 X0.
G2 Y0.3571 I0. J0.0299
G1 X1.0512
G3 Y0.417 I0. J0.0299
G1 X0.
G2 Y0.4769 I0. J0.0299
G1 X1.0512
G3 Y0.5367 I0. J0.0299
G1 X0.
G2 Y0.5966 I0. J0.0299
G1 X1.0512
G3 Y0.6564 I0. J0.0299
G1 X0.
G2 Y0.7163 I0. J0.0299
G1 X1.0512
G3 Y0.7762 I0. J0.0299
G1 X0.
G2 Y0.836 I0. J0.0299
G1 X1.0512
G3 Y0.8959 I0. J0.0299
G1 X0.
G2 Y0.9557 I0. J0.0299
G1 X1.0512
G0 Z0.05
X1.1197 Y-0.002
G1 Z-0.0689 F5.
X1.0512
X0. F59.
G2 Y0.0578 I0. J0.0299
G1 X1.0512
G3 Y0.1177 I0. J0.0299
G1 X0.
G2 Y0.1776 I0. J0.0299
G1 X1.0512
G3 Y0.2374 I0. J0.0299
G1 X0.
G2 Y0.2973 I0. J0.0299
G1 X1.0512
G3 Y0.3571 I0. J0.0299
G1 X0.
G2 Y0.417 I0. J0.0299
G1 X1.0512
G3 Y0.4769 I0. J0.0299
G1 X0.
G2 Y0.5367 I0. J0.0299
G1 X1.0512
G3 Y0.5966 I0. J0.0299
G1 X0.
G2 Y0.6564 I0. J0.0299
G1 X1.0512
G3 Y0.7163 I0. J0.0299
G1 X0.
G2 Y0.7762 I0. J0.0299
G1 X1.0512
G3 Y0.836 I0. J0.0299
G1 X0.
G2 Y0.8959 I0. J0.0299
G1 X1.0512
G3 Y0.9557 I0. J0.0299
G1 X0.
G0 Z0.05
X-0.0685 Y-0.002
G1 Z-0.0709 F5.
X0.
X1.0512 F59.
G3 Y0.0578 I0. J0.0299
G1 X0.
G2 Y0.1177 I0. J0.0299
G1 X1.0512
G3 Y0.1776 I0. J0.0299
G1 X0.
G2 Y0.2374 I0. J0.0299
G1 X1.0512
G3 Y0.2973 I0. J0.0299
G1 X0.
G2 Y0.3571 I0. J0.0299
G1 X1.0512
G3 Y0.417 I0. J0.0299
G1 X0.
G2 Y0.4769 I0. J0.0299
G1 X1.0512
G3 Y0.5367 I0. J0.0299
G1 X0.
G2 Y0.5966 I0. J0.0299
G1 X1.0512
G3 Y0.6564 I0. J0.0299
G1 X0.
G2 Y0.7163 I0. J0.0299
G1 X1.0512
G3 Y0.7762 I0. J0.0299
G1 X0.
G2 Y0.836 I0. J0.0299
G1 X1.0512
G3 Y0.8959 I0. J0.0299
G1 X0.
G2 Y0.9557 I0. J0.0299
G1 X1.0512
G0 Z0.05
X1.1197 Y-0.002
G1 Z-0.0729 F5.
X1.0512
X0. F59.
G2 Y0.0578 I0. J0.0299
G1 X1.0512
G3 Y0.1177 I0. J0.0299
G1 X0.
G2 Y0.1776 I0. J0.0299
G1 X1.0512
G3 Y0.2374 I0. J0.0299
G1 X0.
G2 Y0.2973 I0. J0.0299
G1 X1.0512
G3 Y0.3571 I0. J0.0299
G1 X0.
G2 Y0.417 I0. J0.0299
G1 X1.0512
G3 Y0.4769 I0. J0.0299
G1 X0.
G2 Y0.5367 I0. J0.0299
G1 X1.0512
G3 Y0.5966 I0. J0.0299
G1 X0.
G2 Y0.6564 I0. J0.0299
G1 X1.0512
G3 Y0.7163 I0. J0.0299
G1 X0.
G2 Y0.7762 I0. J0.0299
G1 X1.0512
G3 Y0.836 I0. J0.0299
G1 X0.
G2 Y0.8959 I0. J0.0299
G1 X1.0512
G3 Y0.9557 I0. J0.0299
G1 X0.
G0 Z0.05
X-0.0685 Y-0.002
G1 Z-0.0749 F5.
X0.
X1.0512 F59.
G3 Y0.0578 I0. J0.0299
G1 X0.
G2 Y0.1177 I0. J0.0299
G1 X1.0512
G3 Y0.1776 I0. J0.0299
G1 X0.
G2 Y0.2374 I0. J0.0299
G1 X1.0512
G3 Y0.2973 I0. J0.0299
G1 X0.
G2 Y0.3571 I0. J0.0299
G1 X1.0512
G3 Y0.417 I0. J0.0299
G1 X0.
G2 Y0.4769 I0. J0.0299
G1 X1.0512
G3 Y0.5367 I0. J0.0299
G1 X0.
G2 Y0.5966 I0. J0.0299
G1 X1.0512
G3 Y0.6564 I0. J0.0299
G1 X0.
G2 Y0.7163 I0. J0.0299
G1 X1.0512
G3 Y0.7762 I0. J0.0299
G1 X0.
G2 Y0.836 I0. J0.0299
G1 X1.0512
G3 Y0.8959 I0. J0.0299
G1 X0.
G2 Y0.9557 I0. J0.0299
G1 X1.0512
G0 Z0.05
X1.1197 Y-0.002
G1 Z-0.0769 F5.
X1.0512
X0. F59.
G2 Y0.0578 I0. J0.0299
G1 X1.0512
G3 Y0.1177 I0. J0.0299
G1 X0.
G2 Y0.1776 I0. J0.0299
G1 X1.0512
G3 Y0.2374 I0. J0.0299
G1 X0.
G2 Y0.2973 I0. J0.0299
G1 X1.0512
G3 Y0.3571 I0. J0.0299
G1 X0.
G2 Y0.417 I0. J0.0299
G1 X1.0512
G3 Y0.4769 I0. J0.0299
G1 X0.
G2 Y0.5367 I0. J0.0299
G1 X1.0512
G3 Y0.5966 I0. J0.0299
G1 X0.
G2 Y0.6564 I0. J0.0299
G1 X1.0512
G3 Y0.7163 I0. J0.0299
G1 X0.
G2 Y0.7762 I0. J0.0299
G1 X1.0512
G3 Y0.836 I0. J0.0299
G1 X0.
G2 Y0.8959 I0. J0.0299
G1 X1.0512
G3 Y0.9557 I0. J0.0299
G1 X0.
G0 Z0.05
X-0.0685 Y-0.002
G1 Z-0.0789 F5.
X0.
X1.0512 F59.
G3 Y0.0578 I0. J0.0299
G1 X0.
G2 Y0.1177 I0. J0.0299
G1 X1.0512
G3 Y0.1776 I0. J0.0299
G1 X0.
G2 Y0.2374 I0. J0.0299
G1 X1.0512
G3 Y0.2973 I0. J0.0299
G1 X0.
G2 Y0.3571 I0. J0.0299
G1 X1.0512
G3 Y0.417 I0. J0.0299
G1 X0.
G2 Y0.4769 I0. J0.0299
G1 X1.0512
G3 Y0.5367 I0. J0.0299
G1 X0.
G2 Y0.5966 I0. J0.0299
G1 X1.0512
G3 Y0.6564 I0. J0.0299
G1 X0.
G2 Y0.7163 I0. J0.0299
G1 X1.0512
G3 Y0.7762 I0. J0.0299
G1 X0.
G2 Y0.836 I0. J0.0299
G1 X1.0512
G3 Y0.8959 I0. J0.0299
G1 X0.
G2 Y0.9557 I0. J0.0299
G1 X1.0512
G0 Z0.05
X1.1197 Y-0.002
G1 Z-0.0809 F5.
X1.0512
X0. F59.
G2 Y0.0578 I0. J0.0299
G1 X1.0512
G3 Y0.1177 I0. J0.0299
G1 X0.
G2 Y0.1776 I0. J0.0299
G1 X1.0512
G3 Y0.2374 I0. J0.0299
G1 X0.
G2 Y0.2973 I0. J0.0299
G1 X1.0512
G3 Y0.3571 I0. J0.0299
G1 X0.
G2 Y0.417 I0. J0.0299
G1 X1.0512
G3 Y0.4769 I0. J0.0299
G1 X0.
G2 Y0.5367 I0. J0.0299
G1 X1.0512
G3 Y0.5966 I0. J0.0299
G1 X0.
G2 Y0.6564 I0. J0.0299
G1 X1.0512
G3 Y0.7163 I0. J0.0299
G1 X0.
G2 Y0.7762 I0. J0.0299
G1 X1.0512
G3 Y0.836 I0. J0.0299
G1 X0.
G2 Y0.8959 I0. J0.0299
G1 X1.0512
G3 Y0.9557 I0. J0.0299
G1 X0.
G0 Z0.05
X-0.0685 Y-0.002
G1 Z-0.0829 F5.
X0.
X1.0512 F59.
G3 Y0.0578 I0. J0.0299
G1 X0.
G2 Y0.1177 I0. J0.0299
G1 X1.0512
G3 Y0.1776 I0. J0.0299
G1 X0.
G2 Y0.2374 I0. J0.0299
G1 X1.0512
G3 Y0.2973 I0. J0.0299
G1 X0.
G2 Y0.3571 I0. J0.0299
G1 X1.0512
G3 Y0.417 I0. J0.0299
G1 X0.
G2 Y0.4769 I0. J0.0299
G1 X1.0512
G3 Y0.5367 I0. J0.0299
G1 X0.
G2 Y0.5966 I0. J0.0299
G1 X1.0512
G3 Y0.6564 I0. J0.0299
G1 X0.
G2 Y0.7163 I0. J0.0299
G1 X1.0512
G3 Y0.7762 I0. J0.0299
G1 X0.
G2 Y0.836 I0. J0.0299
G1 X1.0512
G3 Y0.8959 I0. J0.0299
G1 X0.
G2 Y0.9557 I0. J0.0299
G1 X1.0512
G0 Z0.05
X1.1197 Y-0.002
G1 Z-0.0849 F5.
X1.0512
X0. F59.
G2 Y0.0578 I0. J0.0299
G1 X1.0512
G3 Y0.1177 I0. J0.0299
G1 X0.
G2 Y0.1776 I0. J0.0299
G1 X1.0512
G3 Y0.2374 I0. J0.0299
G1 X0.
G2 Y0.2973 I0. J0.0299
G1 X1.0512
G3 Y0.3571 I0. J0.0299
G1 X0.
G2 Y0.417 I0. J0.0299
G1 X1.0512
G3 Y0.4769 I0. J0.0299
G1 X0.
G2 Y0.5367 I0. J0.0299
G1 X1.0512
G3 Y0.5966 I0. J0.0299
G1 X0.
G2 Y0.6564 I0. J0.0299
G1 X1.0512
G3 Y0.7163 I0. J0.0299
G1 X0.
G2 Y0.7762 I0. J0.0299
G1 X1.0512
G3 Y0.836 I0. J0.0299
G1 X0.
G2 Y0.8959 I0. J0.0299
G1 X1.0512
G3 Y0.9557 I0. J0.0299
G1 X0.
G0 Z0.05
X-0.0685 Y-0.002
G1 Z-0.0869 F5.
X0.
X1.0512 F59.
G3 Y0.0578 I0. J0.0299
G1 X0.
G2 Y0.1177 I0. J0.0299
G1 X1.0512
G3 Y0.1776 I0. J0.0299
G1 X0.
G2 Y0.2374 I0. J0.0299
G1 X1.0512
G3 Y0.2973 I0. J0.0299
G1 X0.
G2 Y0.3571 I0. J0.0299
G1 X1.0512
G3 Y0.417 I0. J0.0299
G1 X0.
G2 Y0.4769 I0. J0.0299
G1 X1.0512
G3 Y0.5367 I0. J0.0299
G1 X0.
G2 Y0.5966 I0. J0.0299
G1 X1.0512
G3 Y0.6564 I0. J0.0299
G1 X0.
G2 Y0.7163 I0. J0.0299
G1 X1.0512
G3 Y0.7762 I0. J0.0299
G1 X0.
G2 Y0.836 I0. J0.0299
G1 X1.0512
G3 Y0.8959 I0. J0.0299
G1 X0.
G2 Y0.9557 I0. J0.0299
G1 X1.0512
G0 Z0.05
X1.1197 Y-0.002
G1 Z-0.0889 F5.
X1.0512
X0. F59.
G2 Y0.0578 I0. J0.0299
G1 X1.0512
G3 Y0.1177 I0. J0.0299
G1 X0.
G2 Y0.1776 I0. J0.0299
G1 X1.0512
G3 Y0.2374 I0. J0.0299
G1 X0.
G2 Y0.2973 I0. J0.0299
G1 X1.0512
G3 Y0.3571 I0. J0.0299
G1 X0.
G2 Y0.417 I0. J0.0299
G1 X1.0512
G3 Y0.4769 I0. J0.0299
G1 X0.
G2 Y0.5367 I0. J0.0299
G1 X1.0512
G3 Y0.5966 I0. J0.0299
G1 X0.
G2 Y0.6564 I0. J0.0299
G1 X1.0512
G3 Y0.7163 I0. J0.0299
G1 X0.
G2 Y0.7762 I0. J0.0299
G1 X1.0512
G3 Y0.836 I0. J0.0299
G1 X0.
G2 Y0.8959 I0. J0.0299
G1 X1.0512
G3 Y0.9557 I0. J0.0299
G1 X0.
G0 Z0.05
X-0.0685 Y-0.002
G1 Z-0.0909 F5.
X0.
X1.0512 F59.
G3 Y0.0578 I0. J0.0299
G1 X0.
G2 Y0.1177 I0. J0.0299
G1 X1.0512
G3 Y0.1776 I0. J0.0299
G1 X0.
G2 Y0.2374 I0. J0.0299
G1 X1.0512
G3 Y0.2973 I0. J0.0299
G1 X0.
G2 Y0.3571 I0. J0.0299
G1 X1.0512
G3 Y0.417 I0. J0.0299
G1 X0.
G2 Y0.4769 I0. J0.0299
G1 X1.0512
G3 Y0.5367 I0. J0.0299
G1 X0.
G2 Y0.5966 I0. J0.0299
G1 X1.0512
G3 Y0.6564 I0. J0.0299
G1 X0.
G2 Y0.7163 I0. J0.0299
G1 X1.0512
G3 Y0.7762 I0. J0.0299
G1 X0.
G2 Y0.836 I0. J0.0299
G1 X1.0512
G3 Y0.8959 I0. J0.0299
G1 X0.
G2 Y0.9557 I0. J0.0299
G1 X1.0512
G0 Z0.05
X1.1197 Y-0.002
G1 Z-0.0929 F5.
X1.0512
X0. F59.
G2 Y0.0578 I0. J0.0299
G1 X1.0512
G3 Y0.1177 I0. J0.0299
G1 X0.
G2 Y0.1776 I0. J0.0299
G1 X1.0512
G3 Y0.2374 I0. J0.0299
G1 X0.
G2 Y0.2973 I0. J0.0299
G1 X1.0512
G3 Y0.3571 I0. J0.0299
G1 X0.
G2 Y0.417 I0. J0.0299
G1 X1.0512
G3 Y0.4769 I0. J0.0299
G1 X0.
G2 Y0.5367 I0. J0.0299
G1 X1.0512
G3 Y0.5966 I0. J0.0299
G1 X0.
G2 Y0.6564 I0. J0.0299
G1 X1.0512
G3 Y0.7163 I0. J0.0299
G1 X0.
G2 Y0.7762 I0. J0.0299
G1 X1.0512
G3 Y0.836 I0. J0.0299
G1 X0.
G2 Y0.8959 I0. J0.0299
G1 X1.0512
G3 Y0.9557 I0. J0.0299
G1 X0.
G0 Z0.05
X-0.0685 Y-0.002
G1 Z-0.0949 F5.
X0.
X1.0512 F59.
G3 Y0.0578 I0. J0.0299
G1 X0.
G2 Y0.1177 I0. J0.0299
G1 X1.0512
G3 Y0.1776 I0. J0.0299
G1 X0.
G2 Y0.2374 I0. J0.0299
G1 X1.0512
G3 Y0.2973 I0. J0.0299
G1 X0.
G2 Y0.3571 I0. J0.0299
G1 X1.0512
G3 Y0.417 I0. J0.0299
G1 X0.
G2 Y0.4769 I0. J0.0299
G1 X1.0512
G3 Y0.5367 I0. J0.0299
G1 X0.
G2 Y0.5966 I0. J0.0299
G1 X1.0512
G3 Y0.6564 I0. J0.0299
G1 X0.
G2 Y0.7163 I0. J0.0299
G1 X1.0512
G3 Y0.7762 I0. J0.0299
G1 X0.
G2 Y0.836 I0. J0.0299
G1 X1.0512
G3 Y0.8959 I0. J0.0299
G1 X0.
G2 Y0.9557 I0. J0.0299
G1 X1.0512
G0 Z0.05
X1.1197 Y-0.002
G1 Z-0.0969 F5.
X1.0512
X0. F59.
G2 Y0.0578 I0. J0.0299
G1 X1.0512
G3 Y0.1177 I0. J0.0299
G1 X0.
G2 Y0.1776 I0. J0.0299
G1 X1.0512
G3 Y0.2374 I0. J0.0299
G1 X0.
G2 Y0.2973 I0. J0.0299
G1 X1.0512
G3 Y0.3571 I0. J0.0299
G1 X0.
G2 Y0.417 I0. J0.0299
G1 X1.0512
G3 Y0.4769 I0. J0.0299
G1 X0.
G2 Y0.5367 I0. J0.0299
G1 X1.0512
G3 Y0.5966 I0. J0.0299
G1 X0.
G2 Y0.6564 I0. J0.0299
G1 X1.0512
G3 Y0.7163 I0. J0.0299
G1 X0.
G2 Y0.7762 I0. J0.0299
G1 X1.0512
G3 Y0.836 I0. J0.0299
G1 X0.
G2 Y0.8959 I0. J0.0299
G1 X1.0512
G3 Y0.9557 I0. J0.0299
G1 X0.
G0 Z0.05
X-0.0685 Y-0.002
G1 Z-0.0989 F5.
X0.
X1.0512 F59.
G3 Y0.0578 I0. J0.0299
G1 X0.
G2 Y0.1177 I0. J0.0299
G1 X1.0512
G3 Y0.1776 I0. J0.0299
G1 X0.
G2 Y0.2374 I0. J0.0299
G1 X1.0512
G3 Y0.2973 I0. J0.0299
G1 X0.
G2 Y0.3571 I0. J0.0299
G1 X1.0512
G3 Y0.417 I0. J0.0299
G1 X0.
G2 Y0.4769 I0. J0.0299
G1 X1.0512
G3 Y0.5367 I0. J0.0299
G1 X0.
G2 Y0.5966 I0. J0.0299
G1 X1.0512
G3 Y0.6564 I0. J0.0299
G1 X0.
G2 Y0.7163 I0. J0.0299
G1 X1.0512
G3 Y0.7762 I0. J0.0299
G1 X0.
G2 Y0.836 I0. J0.0299
G1 X1.0512
G3 Y0.8959 I0. J0.0299
G1 X0.
G2 Y0.9557 I0. J0.0299
G1 X1.0512
G0 Z0.05
X1.1197 Y-0.002
G1 Z-0.1009 F5.
X1.0512
X0. F59.
G2 Y0.0578 I0. J0.0299
G1 X1.0512
G3 Y0.1177 I0. J0.0299
G1 X0.
G2 Y0.1776 I0. J0.0299
G1 X1.0512
G3 Y0.2374 I0. J0.0299
G1 X0.
G2 Y0.2973 I0. J0.0299
G1 X1.0512
G3 Y0.3571 I0. J0.0299
G1 X0.
G2 Y0.417 I0. J0.0299
G1 X1.0512
G3 Y0.4769 I0. J0.0299
G1 X0.
G2 Y0.5367 I0. J0.0299
G1 X1.0512
G3 Y0.5966 I0. J0.0299
G1 X0.
G2 Y0.6564 I0. J0.0299
G1 X1.0512
G3 Y0.7163 I0. J0.0299
G1 X0.
G2 Y0.7762 I0. J0.0299
G1 X1.0512
G3 Y0.836 I0. J0.0299
G1 X0.
G2 Y0.8959 I0. J0.0299
G1 X1.0512
G3 Y0.9557 I0. J0.0299
G1 X0.
G0 Z0.05
X-0.0685 Y-0.002
G1 Z-0.1029 F5.
X0.
X1.0512 F59.
G3 Y0.0578 I0. J0.0299
G1 X0.
G2 Y0.1177 I0. J0.0299
G1 X1.0512
G3 Y0.1776 I0. J0.0299
G1 X0.
G2 Y0.2374 I0. J0.0299
G1 X1.0512
G3 Y0.2973 I0. J0.0299
G1 X0.
G2 Y0.3571 I0. J0.0299
G1 X1.0512
G3 Y0.417 I0. J0.0299
G1 X0.
G2 Y0.4769 I0. J0.0299
G1 X1.0512
G3 Y0.5367 I0. J0.0299
G1 X0.
G2 Y0.5966 I0. J0.0299
G1 X1.0512
G3 Y0.6564 I0. J0.0299
G1 X0.
G2 Y0.7163 I0. J0.0299
G1 X1.0512
G3 Y0.7762 I0. J0.0299
G1 X0.
G2 Y0.836 I0. J0.0299
G1 X1.0512
G3 Y0.8959 I0. J0.0299
G1 X0.
G2 Y0.9557 I0. J0.0299
G1 X1.0512
G0 Z0.05
X1.1197 Y-0.002
G1 Z-0.1049 F5.
X1.0512
X0. F59.
G2 Y0.0578 I0. J0.0299
G1 X1.0512
G3 Y0.1177 I0. J0.0299
G1 X0.
G2 Y0.1776 I0. J0.0299
G1 X1.0512
G3 Y0.2374 I0. J0.0299
G1 X0.
G2 Y0.2973 I0. J0.0299
G1 X1.0512
G3 Y0.3571 I0. J0.0299
G1 X0.
G2 Y0.417 I0. J0.0299
G1 X1.0512
G3 Y0.4769 I0. J0.0299
G1 X0.
G2 Y0.5367 I0. J0.0299
G1 X1.0512
G3 Y0.5966 I0. J0.0299
G1 X0.
G2 Y0.6564 I0. J0.0299
G1 X1.0512
G3 Y0.7163 I0. J0.0299
G1 X0.
G2 Y0.7762 I0. J0.0299
G1 X1.0512
G3 Y0.836 I0. J0.0299
G1 X0.
G2 Y0.8959 I0. J0.0299
G1 X1.0512
G3 Y0.9557 I0. J0.0299
G1 X0.
G0 Z0.05
X-0.0685 Y-0.002
G1 Z-0.1069 F5.
X0.
X1.0512 F59.
G3 Y0.0578 I0. J0.0299
G1 X0.
G2 Y0.1177 I0. J0.0299
G1 X1.0512
G3 Y0.1776 I0. J0.0299
G1 X0.
G2 Y0.2374 I0. J0.0299
G1 X1.0512
G3 Y0.2973 I0. J0.0299
G1 X0.
G2 Y0.3571 I0. J0.0299
G1 X1.0512
G3 Y0.417 I0. J0.0299
G1 X0.
G2 Y0.4769 I0. J0.0299
G1 X1.0512
G3 Y0.5367 I0. J0.0299
G1 X0.
G2 Y0.5966 I0. J0.0299
G1 X1.0512
G3 Y0.6564 I0. J0.0299
G1 X0.
G2 Y0.7163 I0. J0.0299
G1 X1.0512
G3 Y0.7762 I0. J0.0299
G1 X0.
G2 Y0.836 I0. J0.0299
G1 X1.0512
G3 Y0.8959 I0. J0.0299
G1 X0.
G2 Y0.9557 I0. J0.0299
G1 X1.0512
G0 Z0.05
X1.1197 Y-0.002
G1 Z-0.1089 F5.
X1.0512
X0. F59.
G2 Y0.0578 I0. J0.0299
G1 X1.0512
G3 Y0.1177 I0. J0.0299
G1 X0.
G2 Y0.1776 I0. J0.0299
G1 X1.0512
G3 Y0.2374 I0. J0.0299
G1 X0.
G2 Y0.2973 I0. J0.0299
G1 X1.0512
G3 Y0.3571 I0. J0.0299
G1 X0.
G2 Y0.417 I0. J0.0299
G1 X1.0512
G3 Y0.4769 I0. J0.0299
G1 X0.
G2 Y0.5367 I0. J0.0299
G1 X1.0512
G3 Y0.5966 I0. J0.0299
G1 X0.
G2 Y0.6564 I0. J0.0299
G1 X1.0512
G3 Y0.7163 I0. J0.0299
G1 X0.
G2 Y0.7762 I0. J0.0299
G1 X1.0512
G3 Y0.836 I0. J0.0299
G1 X0.
G2 Y0.8959 I0. J0.0299
G1 X1.0512
G3 Y0.9557 I0. J0.0299
G1 X0.
G0 Z0.05
X-0.0685 Y-0.002
G1 Z-0.1109 F5.
X0.
X1.0512 F59.
G3 Y0.0578 I0. J0.0299
G1 X0.
G2 Y0.1177 I0. J0.0299
G1 X1.0512
G3 Y0.1776 I0. J0.0299
G1 X0.
G2 Y0.2374 I0. J0.0299
G1 X1.0512
G3 Y0.2973 I0. J0.0299
G1 X0.
G2 Y0.3571 I0. J0.0299
G1 X1.0512
G3 Y0.417 I0. J0.0299
G1 X0.
G2 Y0.4769 I0. J0.0299
G1 X1.0512
G3 Y0.5367 I0. J0.0299
G1 X0.
G2 Y0.5966 I0. J0.0299
G1 X1.0512
G3 Y0.6564 I0. J0.0299
G1 X0.
G2 Y0.7163 I0. J0.0299
G1 X1.0512
G3 Y0.7762 I0. J0.0299
G1 X0.
G2 Y0.836 I0. J0.0299
G1 X1.0512
G3 Y0.8959 I0. J0.0299
G1 X0.
G2 Y0.9557 I0. J0.0299
G1 X1.0512
G0 Z0.05
X1.1197 Y-0.002
G1 Z-0.1129 F5.
X1.0512
X0. F59.
G2 Y0.0578 I0. J0.0299
G1 X1.0512
G3 Y0.1177 I0. J0.0299
G1 X0.
G2 Y0.1776 I0. J0.0299
G1 X1.0512
G3 Y0.2374 I0. J0.0299
G1 X0.
G2 Y0.2973 I0. J0.0299
G1 X1.0512
G3 Y0.3571 I0. J0.0299
G1 X0.
G2 Y0.417 I0. J0.0299
G1 X1.0512
G3 Y0.4769 I0. J0.0299
G1 X0.
G2 Y0.5367 I0. J0.0299
G1 X1.0512
G3 Y0.5966 I0. J0.0299
G1 X0.
G2 Y0.6564 I0. J0.0299
G1 X1.0512
G3 Y0.7163 I0. J0.0299
G1 X0.
G2 Y0.7762 I0. J0.0299
G1 X1.0512
G3 Y0.836 I0. J0.0299
G1 X0.
G2 Y0.8959 I0. J0.0299
G1 X1.0512
G3 Y0.9557 I0. J0.0299
G1 X0.
G0 Z0.05
X-0.0685 Y-0.002
G1 Z-0.1149 F5.
X0.
X1.0512 F59.
G3 Y0.0578 I0. J0.0299
G1 X0.
G2 Y0.1177 I0. J0.0299
G1 X1.0512
G3 Y0.1776 I0. J0.0299
G1 X0.
G2 Y0.2374 I0. J0.0299
G1 X1.0512
G3 Y0.2973 I0. J0.0299
G1 X0.
G2 Y0.3571 I0. J0.0299
G1 X1.0512
G3 Y0.417 I0. J0.0299
G1 X0.
G2 Y0.4769 I0. J0.0299
G1 X1.0512
G3 Y0.5367 I0. J0.0299
G1 X0.
G2 Y0.5966 I0. J0.0299
G1 X1.0512
G3 Y0.6564 I0. J0.0299
G1 X0.
G2 Y0.7163 I0. J0.0299
G1 X1.0512
G3 Y0.7762 I0. J0.0299
G1 X0.
G2 Y0.836 I0. J0.0299
G1 X1.0512
G3 Y0.8959 I0. J0.0299
G1 X0.
G2 Y0.9557 I0. J0.0299
G1 X1.0512
G0 Z0.05
X1.1197 Y-0.002
G1 Z-0.1169 F5.
X1.0512
X0. F59.
G2 Y0.0578 I0. J0.0299
G1 X1.0512
G3 Y0.1177 I0. J0.0299
G1 X0.
G2 Y0.1776 I0. J0.0299
G1 X1.0512
G3 Y0.2374 I0. J0.0299
G1 X0.
G2 Y0.2973 I0. J0.0299
G1 X1.0512
G3 Y0.3571 I0. J0.0299
G1 X0.
G2 Y0.417 I0. J0.0299
G1 X1.0512
G3 Y0.4769 I0. J0.0299
G1 X0.
G2 Y0.5367 I0. J0.0299
G1 X1.0512
G3 Y0.5966 I0. J0.0299
G1 X0.
G2 Y0.6564 I0. J0.0299
G1 X1.0512
G3 Y0.7163 I0. J0.0299
G1 X0.
G2 Y0.7762 I0. J0.0299
G1 X1.0512
G3 Y0.836 I0. J0.0299
G1 X0.
G2 Y0.8959 I0. J0.0299
G1 X1.0512
G3 Y0.9557 I0. J0.0299
G1 X0.
G0 Z0.05
X-0.0685 Y-0.002
G1 Z-0.1189 F5.
X0.
X1.0512 F59.
G3 Y0.0578 I0. J0.0299
G1 X0.
G2 Y0.1177 I0. J0.0299
G1 X1.0512
G3 Y0.1776 I0. J0.0299
G1 X0.
G2 Y0.2374 I0. J0.0299
G1 X1.0512
G3 Y0.2973 I0. J0.0299
G1 X0.
G2 Y0.3571 I0. J0.0299
G1 X1.0512
G3 Y0.417 I0. J0.0299
G1 X0.
G2 Y0.4769 I0. J0.0299
G1 X1.0512
G3 Y0.5367 I0. J0.0299
G1 X0.
G2 Y0.5966 I0. J0.0299
G1 X1.0512
G3 Y0.6564 I0. J0.0299
G1 X0.
G2 Y0.7163 I0. J0.0299
G1 X1.0512
G3 Y0.7762 I0. J0.0299
G1 X0.
G2 Y0.836 I0. J0.0299
G1 X1.0512
G3 Y0.8959 I0. J0.0299
G1 X0.
G2 Y0.9557 I0. J0.0299
G1 X1.0512
G0 Z0.05
X1.1197 Y-0.002
G1 Z-0.1209 F5.
X1.0512
X0. F59.
G2 Y0.0578 I0. J0.0299
G1 X1.0512
G3 Y0.1177 I0. J0.0299
G1 X0.
G2 Y0.1776 I0. J0.0299
G1 X1.0512
G3 Y0.2374 I0. J0.0299
G1 X0.
G2 Y0.2973 I0. J0.0299
G1 X1.0512
G3 Y0.3571 I0. J0.0299
G1 X0.
G2 Y0.417 I0. J0.0299
G1 X1.0512
G3 Y0.4769 I0. J0.0299
G1 X0.
G2 Y0.5367 I0. J0.0299
G1 X1.0512
G3 Y0.5966 I0. J0.0299
G1 X0.
G2 Y0.6564 I0. J0.0299
G1 X1.0512
G3 Y0.7163 I0. J0.0299
G1 X0.
G2 Y0.7762 I0. J0.0299
G1 X1.0512
G3 Y0.836 I0. J0.0299
G1 X0.
G2 Y0.8959 I0. J0.0299
G1 X1.0512
G3 Y0.9557 I0. J0.0299
G1 X0.
G0 Z0.05
X-0.0685 Y-0.002
G1 Z-0.1229 F5.
X0.
X1.0512 F59.
G3 Y0.0578 I0. J0.0299
G1 X0.
G2 Y0.1177 I0. J0.0299
G1 X1.0512
G3 Y0.1776 I0. J0.0299
G1 X0.
G2 Y0.2374 I0. J0.0299
G1 X1.0512
G3 Y0.2973 I0. J0.0299
G1 X0.
G2 Y0.3571 I0. J0.0299
G1 X1.0512
G3 Y0.417 I0. J0.0299
G1 X0.
G2 Y0.4769 I0. J0.0299
G1 X1.0512
G3 Y0.5367 I0. J0.0299
G1 X0.
G2 Y0.5966 I0. J0.0299
G1 X1.0512
G3 Y0.6564 I0. J0.0299
G1 X0.
G2 Y0.7163 I0. J0.0299
G1 X1.0512
G3 Y0.7762 I0. J0.0299
G1 X0.
G2 Y0.836 I0. J0.0299
G1 X1.0512
G3 Y0.8959 I0. J0.0299
G1 X0.
G2 Y0.9557 I0. J0.0299
G1 X1.0512
G0 Z0.05
X1.1197 Y-0.002
G1 Z-0.1249 F5.
X1.0512
X0. F59.
G2 Y0.0578 I0. J0.0299
G1 X1.0512
G3 Y0.1177 I0. J0.0299
G1 X0.
G2 Y0.1776 I0. J0.0299
G1 X1.0512
G3 Y0.2374 I0. J0.0299
G1 X0.
G2 Y0.2973 I0. J0.0299
G1 X1.0512
G3 Y0.3571 I0. J0.0299
G1 X0.
G2 Y0.417 I0. J0.0299
G1 X1.0512
G3 Y0.4769 I0. J0.0299
G1 X0.
G2 Y0.5367 I0. J0.0299
G1 X1.0512
G3 Y0.5966 I0. J0.0299
G1 X0.
G2 Y0.6564 I0. J0.0299
G1 X1.0512
G3 Y0.7163 I0. J0.0299
G1 X0.
G2 Y0.7762 I0. J0.0299
G1 X1.0512
G3 Y0.836 I0. J0.0299
G1 X0.
G2 Y0.8959 I0. J0.0299
G1 X1.0512
G3 Y0.9557 I0. J0.0299
G1 X0.
G0 Z0.05
X-0.0685 Y-0.002
G1 Z-0.1269 F5.
X0.
X1.0512 F59.
G3 Y0.0578 I0. J0.0299
G1 X0.
G2 Y0.1177 I0. J0.0299
G1 X1.0512
G3 Y0.1776 I0. J0.0299
G1 X0.
G2 Y0.2374 I0. J0.0299
G1 X1.0512
G3 Y0.2973 I0. J0.0299
G1 X0.
G2 Y0.3571 I0. J0.0299
G1 X1.0512
G3 Y0.417 I0. J0.0299
G1 X0.
G2 Y0.4769 I0. J0.0299
G1 X1.0512
G3 Y0.5367 I0. J0.0299
G1 X0.
G2 Y0.5966 I0. J0.0299
G1 X1.0512
G3 Y0.6564 I0. J0.0299
G1 X0.
G2 Y0.7163 I0. J0.0299
G1 X1.0512
G3 Y0.7762 I0. J0.0299
G1 X0.
G2 Y0.836 I0. J0.0299
G1 X1.0512
G3 Y0.8959 I0. J0.0299
G1 X0.
G2 Y0.9557 I0. J0.0299
G1 X1.0512
G0 Z0.05
X1.1197 Y-0.002
G1 Z-0.1289 F5.
X1.0512
X0. F59.
G2 Y0.0578 I0. J0.0299
G1 X1.0512
G3 Y0.1177 I0. J0.0299
G1 X0.
G2 Y0.1776 I0. J0.0299
G1 X1.0512
G3 Y0.2374 I0. J0.0299
G1 X0.
G2 Y0.2973 I0. J0.0299
G1 X1.0512
G3 Y0.3571 I0. J0.0299
G1 X0.
G2 Y0.417 I0. J0.0299
G1 X1.0512
G3 Y0.4769 I0. J0.0299
G1 X0.
G2 Y0.5367 I0. J0.0299
G1 X1.0512
G3 Y0.5966 I0. J0.0299
G1 X0.
G2 Y0.6564 I0. J0.0299
G1 X1.0512
G3 Y0.7163 I0. J0.0299
G1 X0.
G2 Y0.7762 I0. J0.0299
G1 X1.0512
G3 Y0.836 I0. J0.0299
G1 X0.
G2 Y0.8959 I0. J0.0299
G1 X1.0512
G3 Y0.9557 I0. J0.0299
G1 X0.
G0 Z0.05
X-0.0685 Y-0.002
G1 Z-0.1309 F5.
X0.
X1.0512 F59.
G3 Y0.0578 I0. J0.0299
G1 X0.
G2 Y0.1177 I0. J0.0299
G1 X1.0512
G3 Y0.1776 I0. J0.0299
G1 X0.
G2 Y0.2374 I0. J0.0299
G1 X1.0512
G3 Y0.2973 I0. J0.0299
G1 X0.
G2 Y0.3571 I0. J0.0299
G1 X1.0512
G3 Y0.417 I0. J0.0299
G1 X0.
G2 Y0.4769 I0. J0.0299
G1 X1.0512
G3 Y0.5367 I0. J0.0299
G1 X0.
G2 Y0.5966 I0. J0.0299
G1 X1.0512
G3 Y0.6564 I0. J0.0299
G1 X0.
G2 Y0.7163 I0. J0.0299
G1 X1.0512
G3 Y0.7762 I0. J0.0299
G1 X0.
G2 Y0.836 I0. J0.0299
G1 X1.0512
G3 Y0.8959 I0. J0.0299
G1 X0.
G2 Y0.9557 I0. J0.0299
G1 X1.0512
G0 Z0.05
X1.1197 Y-0.002
G1 Z-0.1329 F5.
X1.0512
X0. F59.
G2 Y0.0578 I0. J0.0299
G1 X1.0512
G3 Y0.1177 I0. J0.0299
G1 X0.
G2 Y0.1776 I0. J0.0299
G1 X1.0512
G3 Y0.2374 I0. J0.0299
G1 X0.
G2 Y0.2973 I0. J0.0299
G1 X1.0512
G3 Y0.3571 I0. J0.0299
G1 X0.
G2 Y0.417 I0. J0.0299
G1 X1.0512
G3 Y0.4769 I0. J0.0299
G1 X0.
G2 Y0.5367 I0. J0.0299
G1 X1.0512
G3 Y0.5966 I0. J0.0299
G1 X0.
G2 Y0.6564 I0. J0.0299
G1 X1.0512
G3 Y0.7163 I0. J0.0299
G1 X0.
G2 Y0.7762 I0. J0.0299
G1 X1.0512
G3 Y0.836 I0. J0.0299
G1 X0.
G2 Y0.8959 I0. J0.0299
G1 X1.0512
G3 Y0.9557 I0. J0.0299
G1 X0.
G0 Z0.05
X-0.0685 Y-0.002
G1 Z-0.1349 F5.
X0.
X1.0512 F59.
G3 Y0.0578 I0. J0.0299
G1 X0.
G2 Y0.1177 I0. J0.0299
G1 X1.0512
G3 Y0.1776 I0. J0.0299
G1 X0.
G2 Y0.2374 I0. J0.0299
G1 X1.0512
G3 Y0.2973 I0. J0.0299
G1 X0.
G2 Y0.3571 I0. J0.0299
G1 X1.0512
G3 Y0.417 I0. J0.0299
G1 X0.
G2 Y0.4769 I0. J0.0299
G1 X1.0512
G3 Y0.5367 I0. J0.0299
G1 X0.
G2 Y0.5966 I0. J0.0299
G1 X1.0512
G3 Y0.6564 I0. J0.0299
G1 X0.
G2 Y0.7163 I0. J0.0299
G1 X1.0512
G3 Y0.7762 I0. J0.0299
G1 X0.
G2 Y0.836 I0. J0.0299
G1 X1.0512
G3 Y0.8959 I0. J0.0299
G1 X0.
G2 Y0.9557 I0. J0.0299
G1 X1.0512
G0 Z0.05
X1.1197 Y-0.002
G1 Z-0.1369 F5.
X1.0512
X0. F59.
G2 Y0.0578 I0. J0.0299
G1 X1.0512
G3 Y0.1177 I0. J0.0299
G1 X0.
G2 Y0.1776 I0. J0.0299
G1 X1.0512
G3 Y0.2374 I0. J0.0299
G1 X0.
G2 Y0.2973 I0. J0.0299
G1 X1.0512
G3 Y0.3571 I0. J0.0299
G1 X0.
G2 Y0.417 I0. J0.0299
G1 X1.0512
G3 Y0.4769 I0. J0.0299
G1 X0.
G2 Y0.5367 I0. J0.0299
G1 X1.0512
G3 Y0.5966 I0. J0.0299
G1 X0.
G2 Y0.6564 I0. J0.0299
G1 X1.0512
G3 Y0.7163 I0. J0.0299
G1 X0.
G2 Y0.7762 I0. J0.0299
G1 X1.0512
G3 Y0.836 I0. J0.0299
G1 X0.
G2 Y0.8959 I0. J0.0299
G1 X1.0512
G3 Y0.9557 I0. J0.0299
G1 X0.
G0 Z0.05
X-0.0685 Y-0.002
G1 Z-0.1389 F5.
X0.
X1.0512 F59.
G3 Y0.0578 I0. J0.0299
G1 X0.
G2 Y0.1177 I0. J0.0299
G1 X1.0512
G3 Y0.1776 I0. J0.0299
G1 X0.
G2 Y0.2374 I0. J0.0299
G1 X1.0512
G3 Y0.2973 I0. J0.0299
G1 X0.
G2 Y0.3571 I0. J0.0299
G1 X1.0512
G3 Y0.417 I0. J0.0299
G1 X0.
G2 Y0.4769 I0. J0.0299
G1 X1.0512
G3 Y0.5367 I0. J0.0299
G1 X0.
G2 Y0.5966 I0. J0.0299
G1 X1.0512
G3 Y0.6564 I0. J0.0299
G1 X0.
G2 Y0.7163 I0. J0.0299
G1 X1.0512
G3 Y0.7762 I0. J0.0299
G1 X0.
G2 Y0.836 I0. J0.0299
G1 X1.0512
G3 Y0.8959 I0. J0.0299
G1 X0.
G2 Y0.9557 I0. J0.0299
G1 X1.0512
G0 Z0.05
X1.1197 Y-0.002
G1 Z-0.1409 F5.
X1.0512
X0. F59.
G2 Y0.0578 I0. J0.0299
G1 X1.0512
G3 Y0.1177 I0. J0.0299
G1 X0.
G2 Y0.1776 I0. J0.0299
G1 X1.0512
G3 Y0.2374 I0. J0.0299
G1 X0.
G2 Y0.2973 I0. J0.0299
G1 X1.0512
G3 Y0.3571 I0. J0.0299
G1 X0.
G2 Y0.417 I0. J0.0299
G1 X1.0512
G3 Y0.4769 I0. J0.0299
G1 X0.
G2 Y0.5367 I0. J0.0299
G1 X1.0512
G3 Y0.5966 I0. J0.0299
G1 X0.
G2 Y0.6564 I0. J0.0299
G1 X1.0512
G3 Y0.7163 I0. J0.0299
G1 X0.
G2 Y0.7762 I0. J0.0299
G1 X1.0512
G3 Y0.836 I0. J0.0299
G1 X0.
G2 Y0.8959 I0. J0.0299
G1 X1.0512
G3 Y0.9557 I0. J0.0299
G1 X0.
G0 Z0.05
X-0.0685 Y-0.002
G1 Z-0.1429 F5.
X0.
X1.0512 F59.
G3 Y0.0578 I0. J0.0299
G1 X0.
G2 Y0.1177 I0. J0.0299
G1 X1.0512
G3 Y0.1776 I0. J0.0299
G1 X0.
G2 Y0.2374 I0. J0.0299
G1 X1.0512
G3 Y0.2973 I0. J0.0299
G1 X0.
G2 Y0.3571 I0. J0.0299
G1 X1.0512
G3 Y0.417 I0. J0.0299
G1 X0.
G2 Y0.4769 I0. J0.0299
G1 X1.0512
G3 Y0.5367 I0. J0.0299
G1 X0.
G2 Y0.5966 I0. J0.0299
G1 X1.0512
G3 Y0.6564 I0. J0.0299
G1 X0.
G2 Y0.7163 I0. J0.0299
G1 X1.0512
G3 Y0.7762 I0. J0.0299
G1 X0.
G2 Y0.836 I0. J0.0299
G1 X1.0512
G3 Y0.8959 I0. J0.0299
G1 X0.
G2 Y0.9557 I0. J0.0299
G1 X1.0512
G0 Z0.05
X1.1197 Y-0.002
G1 Z-0.1449 F5.
X1.0512
X0. F59.
G2 Y0.0578 I0. J0.0299
G1 X1.0512
G3 Y0.1177 I0. J0.0299
G1 X0.
G2 Y0.1776 I0. J0.0299
G1 X1.0512
G3 Y0.2374 I0. J0.0299
G1 X0.
G2 Y0.2973 I0. J0.0299
G1 X1.0512
G3 Y0.3571 I0. J0.0299
G1 X0.
G2 Y0.417 I0. J0.0299
G1 X1.0512
G3 Y0.4769 I0. J0.0299
G1 X0.
G2 Y0.5367 I0. J0.0299
G1 X1.0512
G3 Y0.5966 I0. J0.0299
G1 X0.
G2 Y0.6564 I0. J0.0299
G1 X1.0512
G3 Y0.7163 I0. J0.0299
G1 X0.
G2 Y0.7762 I0. J0.0299
G1 X1.0512
G3 Y0.836 I0. J0.0299
G1 X0.
G2 Y0.8959 I0. J0.0299
G1 X1.0512
G3 Y0.9557 I0. J0.0299
G1 X0.
G0 Z0.05
X-0.0685 Y-0.002
G1 Z-0.1469 F5.
X0.
X1.0512 F59.
G3 Y0.0578 I0. J0.0299
G1 X0.
G2 Y0.1177 I0. J0.0299
G1 X1.0512
G3 Y0.1776 I0. J0.0299
G1 X0.
G2 Y0.2374 I0. J0.0299
G1 X1.0512
G3 Y0.2973 I0. J0.0299
G1 X0.
G2 Y0.3571 I0. J0.0299
G1 X1.0512
G3 Y0.417 I0. J0.0299
G1 X0.
G2 Y0.4769 I0. J0.0299
G1 X1.0512
G3 Y0.5367 I0. J0.0299
G1 X0.
G2 Y0.5966 I0. J0.0299
G1 X1.0512
G3 Y0.6564 I0. J0.0299
G1 X0.
G2 Y0.7163 I0. J0.0299
G1 X1.0512
G3 Y0.7762 I0. J0.0299
G1 X0.
G2 Y0.836 I0. J0.0299
G1 X1.0512
G3 Y0.8959 I0. J0.0299
G1 X0.
G2 Y0.9557 I0. J0.0299
G1 X1.0512
G0 Z0.05
X1.1197 Y-0.002
G1 Z-0.1489 F5.
X1.0512
X0. F59.
G2 Y0.0578 I0. J0.0299
G1 X1.0512
G3 Y0.1177 I0. J0.0299
G1 X0.
G2 Y0.1776 I0. J0.0299
G1 X1.0512
G3 Y0.2374 I0. J0.0299
G1 X0.
G2 Y0.2973 I0. J0.0299
G1 X1.0512
G3 Y0.3571 I0. J0.0299
G1 X0.
G2 Y0.417 I0. J0.0299
G1 X1.0512
G3 Y0.4769 I0. J0.0299
G1 X0.
G2 Y0.5367 I0. J0.0299
G1 X1.0512
G3 Y0.5966 I0. J0.0299
G1 X0.
G2 Y0.6564 I0. J0.0299
G1 X1.0512
G3 Y0.7163 I0. J0.0299
G1 X0.
G2 Y0.7762 I0. J0.0299
G1 X1.0512
G3 Y0.836 I0. J0.0299
G1 X0.
G2 Y0.8959 I0. J0.0299
G1 X1.0512
G3 Y0.9557 I0. J0.0299
G1 X0.
G0 Z0.05
X-0.0685 Y-0.002
G1 Z-0.1509 F5.
X0.
X1.0512 F59.
G3 Y0.0578 I0. J0.0299
G1 X0.
G2 Y0.1177 I0. J0.0299
G1 X1.0512
G3 Y0.1776 I0. J0.0299
G1 X0.
G2 Y0.2374 I0. J0.0299
G1 X1.0512
G3 Y0.2973 I0. J0.0299
G1 X0.
G2 Y0.3571 I0. J0.0299
G1 X1.0512
G3 Y0.417 I0. J0.0299
G1 X0.
G2 Y0.4769 I0. J0.0299
G1 X1.0512
G3 Y0.5367 I0. J0.0299
G1 X0.
G2 Y0.5966 I0. J0.0299
G1 X1.0512
G3 Y0.6564 I0. J0.0299
G1 X0.
G2 Y0.7163 I0. J0.0299
G1 X1.0512
G3 Y0.7762 I0. J0.0299
G1 X0.
G2 Y0.836 I0. J0.0299
G1 X1.0512
G3 Y0.8959 I0. J0.0299
G1 X0.
G2 Y0.9557 I0. J0.0299
G1 X1.0512
G0 Z0.05
X1.1197 Y-0.002
G1 Z-0.1529 F5.
X1.0512
X0. F59.
G2 Y0.0578 I0. J0.0299
G1 X1.0512
G3 Y0.1177 I0. J0.0299
G1 X0.
G2 Y0.1776 I0. J0.0299
G1 X1.0512
G3 Y0.2374 I0. J0.0299
G1 X0.
G2 Y0.2973 I0. J0.0299
G1 X1.0512
G3 Y0.3571 I0. J0.0299
G1 X0.
G2 Y0.417 I0. J0.0299
G1 X1.0512
G3 Y0.4769 I0. J0.0299
G1 X0.
G2 Y0.5367 I0. J0.0299
G1 X1.0512
G3 Y0.5966 I0. J0.0299
G1 X0.
G2 Y0.6564 I0. J0.0299
G1 X1.0512
G3 Y0.7163 I0. J0.0299
G1 X0.
G2 Y0.7762 I0. J0.0299
G1 X1.0512
G3 Y0.836 I0. J0.0299
G1 X0.
G2 Y0.8959 I0. J0.0299
G1 X1.0512
G3 Y0.9557 I0. J0.0299
G1 X0.
G0 Z0.05
X-0.0685 Y-0.002
G1 Z-0.1549 F5.
X0.
X1.0512 F59.
G3 Y0.0578 I0. J0.0299
G1 X0.
G2 Y0.1177 I0. J0.0299
G1 X1.0512
G3 Y0.1776 I0. J0.0299
G1 X0.
G2 Y0.2374 I0. J0.0299
G1 X1.0512
G3 Y0.2973 I0. J0.0299
G1 X0.
G2 Y0.3571 I0. J0.0299
G1 X1.0512
G3 Y0.417 I0. J0.0299
G1 X0.
G2 Y0.4769 I0. J0.0299
G1 X1.0512
G3 Y0.5367 I0. J0.0299
G1 X0.
G2 Y0.5966 I0. J0.0299
G1 X1.0512
G3 Y0.6564 I0. J0.0299
G1 X0.
G2 Y0.7163 I0. J0.0299
G1 X1.0512
G3 Y0.7762 I0. J0.0299
G1 X0.
G2 Y0.836 I0. J0.0299
G1 X1.0512
G3 Y0.8959 I0. J0.0299
G1 X0.
G2 Y0.9557 I0. J0.0299
G1 X1.0512
G0 Z0.05
X1.1197 Y-0.002
G1 Z-0.1569 F5.
X1.0512
X0. F59.
G2 Y0.0578 I0. J0.0299
G1 X1.0512
G3 Y0.1177 I0. J0.0299
G1 X0.
G2 Y0.1776 I0. J0.0299
G1 X1.0512
G3 Y0.2374 I0. J0.0299
G1 X0.
G2 Y0.2973 I0. J0.0299
G1 X1.0512
G3 Y0.3571 I0. J0.0299
G1 X0.
G2 Y0.417 I0. J0.0299
G1 X1.0512
G3 Y0.4769 I0. J0.0299
G1 X0.
G2 Y0.5367 I0. J0.0299
G1 X1.0512
G3 Y0.5966 I0. J0.0299
G1 X0.
G2 Y0.6564 I0. J0.0299
G1 X1.0512
G3 Y0.7163 I0. J0.0299
G1 X0.
G2 Y0.7762 I0. J0.0299
G1 X1.0512
G3 Y0.836 I0. J0.0299
G1 X0.
G2 Y0.8959 I0. J0.0299
G1 X1.0512
G3 Y0.9557 I0. J0.0299
G1 X0.
G0 Z0.05
X-0.0685 Y-0.002
G1 Z-0.1589 F5.
X0.
X1.0512 F59.
G3 Y0.0578 I0. J0.0299
G1 X0.
G2 Y0.1177 I0. J0.0299
G1 X1.0512
G3 Y0.1776 I0. J0.0299
G1 X0.
G2 Y0.2374 I0. J0.0299
G1 X1.0512
G3 Y0.2973 I0. J0.0299
G1 X0.
G2 Y0.3571 I0. J0.0299
G1 X1.0512
G3 Y0.417 I0. J0.0299
G1 X0.
G2 Y0.4769 I0. J0.0299
G1 X1.0512
G3 Y0.5367 I0. J0.0299
G1 X0.
G2 Y0.5966 I0. J0.0299
G1 X1.0512
G3 Y0.6564 I0. J0.0299
G1 X0.
G2 Y0.7163 I0. J0.0299
G1 X1.0512
G3 Y0.7762 I0. J0.0299
G1 X0.
G2 Y0.836 I0. J0.0299
G1 X1.0512
G3 Y0.8959 I0. J0.0299
G1 X0.
G2 Y0.9557 I0. J0.0299
G1 X1.0512
G0 Z0.05
X1.1197 Y-0.002
G1 Z-0.1609 F5.
X1.0512
X0. F59.
G2 Y0.0578 I0. J0.0299
G1 X1.0512
G3 Y0.1177 I0. J0.0299
G1 X0.
G2 Y0.1776 I0. J0.0299
G1 X1.0512
G3 Y0.2374 I0. J0.0299
G1 X0.
G2 Y0.2973 I0. J0.0299
G1 X1.0512
G3 Y0.3571 I0. J0.0299
G1 X0.
G2 Y0.417 I0. J0.0299
G1 X1.0512
G3 Y0.4769 I0. J0.0299
G1 X0.
G2 Y0.5367 I0. J0.0299
G1 X1.0512
G3 Y0.5966 I0. J0.0299
G1 X0.
G2 Y0.6564 I0. J0.0299
G1 X1.0512
G3 Y0.7163 I0. J0.0299
G1 X0.
G2 Y0.7762 I0. J0.0299
G1 X1.0512
G3 Y0.836 I0. J0.0299
G1 X0.
G2 Y0.8959 I0. J0.0299
G1 X1.0512
G3 Y0.9557 I0. J0.0299
G1 X0.
G0 Z0.05
X-0.0685 Y-0.002
G1 Z-0.1629 F5.
X0.
X1.0512 F59.
G3 Y0.0578 I0. J0.0299
G1 X0.
G2 Y0.1177 I0. J0.0299
G1 X1.0512
G3 Y0.1776 I0. J0.0299
G1 X0.
G2 Y0.2374 I0. J0.0299
G1 X1.0512
G3 Y0.2973 I0. J0.0299
G1 X0.
G2 Y0.3571 I0. J0.0299
G1 X1.0512
G3 Y0.417 I0. J0.0299
G1 X0.
G2 Y0.4769 I0. J0.0299
G1 X1.0512
G3 Y0.5367 I0. J0.0299
G1 X0.
G2 Y0.5966 I0. J0.0299
G1 X1.0512
G3 Y0.6564 I0. J0.0299
G1 X0.
G2 Y0.7163 I0. J0.0299
G1 X1.0512
G3 Y0.7762 I0. J0.0299
G1 X0.
G2 Y0.836 I0. J0.0299
G1 X1.0512
G3 Y0.8959 I0. J0.0299
G1 X0.
G2 Y0.9557 I0. J0.0299
G1 X1.0512
G0 Z0.05
X1.1197 Y-0.002
G1 Z-0.1649 F5.
X1.0512
X0. F59.
G2 Y0.0578 I0. J0.0299
G1 X1.0512
G3 Y0.1177 I0. J0.0299
G1 X0.
G2 Y0.1776 I0. J0.0299
G1 X1.0512
G3 Y0.2374 I0. J0.0299
G1 X0.
G2 Y0.2973 I0. J0.0299
G1 X1.0512
G3 Y0.3571 I0. J0.0299
G1 X0.
G2 Y0.417 I0. J0.0299
G1 X1.0512
G3 Y0.4769 I0. J0.0299
G1 X0.
G2 Y0.5367 I0. J0.0299
G1 X1.0512
G3 Y0.5966 I0. J0.0299
G1 X0.
G2 Y0.6564 I0. J0.0299
G1 X1.0512
G3 Y0.7163 I0. J0.0299
G1 X0.
G2 Y0.7762 I0. J0.0299
G1 X1.0512
G3 Y0.836 I0. J0.0299
G1 X0.
G2 Y0.8959 I0. J0.0299
G1 X1.0512
G3 Y0.9557 I0. J0.0299
G1 X0.
G0 Z0.05
X-0.0685 Y-0.002
G1 Z-0.1669 F5.
X0.
X1.0512 F59.
G3 Y0.0578 I0. J0.0299
G1 X0.
G2 Y0.1177 I0. J0.0299
G1 X1.0512
G3 Y0.1776 I0. J0.0299
G1 X0.
G2 Y0.2374 I0. J0.0299
G1 X1.0512
G3 Y0.2973 I0. J0.0299
G1 X0.
G2 Y0.3571 I0. J0.0299
G1 X1.0512
G3 Y0.417 I0. J0.0299
G1 X0.
G2 Y0.4769 I0. J0.0299
G1 X1.0512
G3 Y0.5367 I0. J0.0299
G1 X0.
G2 Y0.5966 I0. J0.0299
G1 X1.0512
G3 Y0.6564 I0. J0.0299
G1 X0.
G2 Y0.7163 I0. J0.0299
G1 X1.0512
G3 Y0.7762 I0. J0.0299
G1 X0.
G2 Y0.836 I0. J0.0299
G1 X1.0512
G3 Y0.8959 I0. J0.0299
G1 X0.
G2 Y0.9557 I0. J0.0299
G1 X1.0512
G0 Z0.05
X1.1197 Y-0.002
G1 Z-0.1689 F5.
X1.0512
X0. F59.
G2 Y0.0578 I0. J0.0299
G1 X1.0512
G3 Y0.1177 I0. J0.0299
G1 X0.
G2 Y0.1776 I0. J0.0299
G1 X1.0512
G3 Y0.2374 I0. J0.0299
G1 X0.
G2 Y0.2973 I0. J0.0299
G1 X1.0512
G3 Y0.3571 I0. J0.0299
G1 X0.
G2 Y0.417 I0. J0.0299
G1 X1.0512
G3 Y0.4769 I0. J0.0299
G1 X0.
G2 Y0.5367 I0. J0.0299
G1 X1.0512
G3 Y0.5966 I0. J0.0299
G1 X0.
G2 Y0.6564 I0. J0.0299
G1 X1.0512
G3 Y0.7163 I0. J0.0299
G1 X0.
G2 Y0.7762 I0. J0.0299
G1 X1.0512
G3 Y0.836 I0. J0.0299
G1 X0.
G2 Y0.8959 I0. J0.0299
G1 X1.0512
G3 Y0.9557 I0. J0.0299
G1 X0.
G0 Z0.05
X-0.0685 Y-0.002
G1 Z-0.1709 F5.
X0.
X1.0512 F59.
G3 Y0.0578 I0. J0.0299
G1 X0.
G2 Y0.1177 I0. J0.0299
G1 X1.0512
G3 Y0.1776 I0. J0.0299
G1 X0.
G2 Y0.2374 I0. J0.0299
G1 X1.0512
G3 Y0.2973 I0. J0.0299
G1 X0.
G2 Y0.3571 I0. J0.0299
G1 X1.0512
G3 Y0.417 I0. J0.0299
G1 X0.
G2 Y0.4769 I0. J0.0299
G1 X1.0512
G3 Y0.5367 I0. J0.0299
G1 X0.
G2 Y0.5966 I0. J0.0299
G1 X1.0512
G3 Y0.6564 I0. J0.0299
G1 X0.
G2 Y0.7163 I0. J0.0299
G1 X1.0512
G3 Y0.7762 I0. J0.0299
G1 X0.
G2 Y0.836 I0. J0.0299
G1 X1.0512
G3 Y0.8959 I0. J0.0299
G1 X0.
G2 Y0.9557 I0. J0.0299
G1 X1.0512
G0 Z0.05
X1.1197 Y-0.002
G1 Z-0.1729 F5.
X1.0512
X0. F59.
G2 Y0.0578 I0. J0.0299
G1 X1.0512
G3 Y0.1177 I0. J0.0299
G1 X0.
G2 Y0.1776 I0. J0.0299
G1 X1.0512
G3 Y0.2374 I0. J0.0299
G1 X0.
G2 Y0.2973 I0. J0.0299
G1 X1.0512
G3 Y0.3571 I0. J0.0299
G1 X0.
G2 Y0.417 I0. J0.0299
G1 X1.0512
G3 Y0.4769 I0. J0.0299
G1 X0.
G2 Y0.5367 I0. J0.0299
G1 X1.0512
G3 Y0.5966 I0. J0.0299
G1 X0.
G2 Y0.6564 I0. J0.0299
G1 X1.0512
G3 Y0.7163 I0. J0.0299
G1 X0.
G2 Y0.7762 I0. J0.0299
G1 X1.0512
G3 Y0.836 I0. J0.0299
G1 X0.
G2 Y0.8959 I0. J0.0299
G1 X1.0512
G3 Y0.9557 I0. J0.0299
G1 X0.
G0 Z0.05
X-0.0685 Y-0.002
G1 Z-0.1749 F5.
X0.
X1.0512 F59.
G3 Y0.0578 I0. J0.0299
G1 X0.
G2 Y0.1177 I0. J0.0299
G1 X1.0512
G3 Y0.1776 I0. J0.0299
G1 X0.
G2 Y0.2374 I0. J0.0299
G1 X1.0512
G3 Y0.2973 I0. J0.0299
G1 X0.
G2 Y0.3571 I0. J0.0299
G1 X1.0512
G3 Y0.417 I0. J0.0299
G1 X0.
G2 Y0.4769 I0. J0.0299
G1 X1.0512
G3 Y0.5367 I0. J0.0299
G1 X0.
G2 Y0.5966 I0. J0.0299
G1 X1.0512
G3 Y0.6564 I0. J0.0299
G1 X0.
G2 Y0.7163 I0. J0.0299
G1 X1.0512
G3 Y0.7762 I0. J0.0299
G1 X0.
G2 Y0.836 I0. J0.0299
G1 X1.0512
G3 Y0.8959 I0. J0.0299
G1 X0.
G2 Y0.9557 I0. J0.0299
G1 X1.0512
G0 Z0.05
X1.1197 Y-0.002
G1 Z-0.1769 F5.
X1.0512
X0. F59.
G2 Y0.0578 I0. J0.0299
G1 X1.0512
G3 Y0.1177 I0. J0.0299
G1 X0.
G2 Y0.1776 I0. J0.0299
G1 X1.0512
G3 Y0.2374 I0. J0.0299
G1 X0.
G2 Y0.2973 I0. J0.0299
G1 X1.0512
G3 Y0.3571 I0. J0.0299
G1 X0.
G2 Y0.417 I0. J0.0299
G1 X1.0512
G3 Y0.4769 I0. J0.0299
G1 X0.
G2 Y0.5367 I0. J0.0299
G1 X1.0512
G3 Y0.5966 I0. J0.0299
G1 X0.
G2 Y0.6564 I0. J0.0299
G1 X1.0512
G3 Y0.7163 I0. J0.0299
G1 X0.
G2 Y0.7762 I0. J0.0299
G1 X1.0512
G3 Y0.836 I0. J0.0299
G1 X0.
G2 Y0.8959 I0. J0.0299
G1 X1.0512
G3 Y0.9557 I0. J0.0299
G1 X0.
G0 Z0.05
X-0.0685 Y-0.002
G1 Z-0.1789 F5.
X0.
X1.0512 F59.
G3 Y0.0578 I0. J0.0299
G1 X0.
G2 Y0.1177 I0. J0.0299
G1 X1.0512
G3 Y0.1776 I0. J0.0299
G1 X0.
G2 Y0.2374 I0. J0.0299
G1 X1.0512
G3 Y0.2973 I0. J0.0299
G1 X0.
G2 Y0.3571 I0. J0.0299
G1 X1.0512
G3 Y0.417 I0. J0.0299
G1 X0.
G2 Y0.4769 I0. J0.0299
G1 X1.0512
G3 Y0.5367 I0. J0.0299
G1 X0.
G2 Y0.5966 I0. J0.0299
G1 X1.0512
G3 Y0.6564 I0. J0.0299
G1 X0.
G2 Y0.7163 I0. J0.0299
G1 X1.0512
G3 Y0.7762 I0. J0.0299
G1 X0.
G2 Y0.836 I0. J0.0299
G1 X1.0512
G3 Y0.8959 I0. J0.0299
G1 X0.
G2 Y0.9557 I0. J0.0299
G1 X1.0512
G0 Z0.05
X1.1197 Y-0.002
G1 Z-0.1809 F5.
X1.0512
X0. F59.
G2 Y0.0578 I0. J0.0299
G1 X1.0512
G3 Y0.1177 I0. J0.0299
G1 X0.
G2 Y0.1776 I0. J0.0299
G1 X1.0512
G3 Y0.2374 I0. J0.0299
G1 X0.
G2 Y0.2973 I0. J0.0299
G1 X1.0512
G3 Y0.3571 I0. J0.0299
G1 X0.
G2 Y0.417 I0. J0.0299
G1 X1.0512
G3 Y0.4769 I0. J0.0299
G1 X0.
G2 Y0.5367 I0. J0.0299
G1 X1.0512
G3 Y0.5966 I0. J0.0299
G1 X0.
G2 Y0.6564 I0. J0.0299
G1 X1.0512
G3 Y0.7163 I0. J0.0299
G1 X0.
G2 Y0.7762 I0. J0.0299
G1 X1.0512
G3 Y0.836 I0. J0.0299
G1 X0.
G2 Y0.8959 I0. J0.0299
G1 X1.0512
G3 Y0.9557 I0. J0.0299
G1 X0.
G0 Z0.05
X-0.0685 Y-0.002
G1 Z-0.1829 F5.
X0.
X1.0512 F59.
G3 Y0.0578 I0. J0.0299
G1 X0.
G2 Y0.1177 I0. J0.0299
G1 X1.0512
G3 Y0.1776 I0. J0.0299
G1 X0.
G2 Y0.2374 I0. J0.0299
G1 X1.0512
G3 Y0.2973 I0. J0.0299
G1 X0.
G2 Y0.3571 I0. J0.0299
G1 X1.0512
G3 Y0.417 I0. J0.0299
G1 X0.
G2 Y0.4769 I0. J0.0299
G1 X1.0512
G3 Y0.5367 I0. J0.0299
G1 X0.
G2 Y0.5966 I0. J0.0299
G1 X1.0512
G3 Y0.6564 I0. J0.0299
G1 X0.
G2 Y0.7163 I0. J0.0299
G1 X1.0512
G3 Y0.7762 I0. J0.0299
G1 X0.
G2 Y0.836 I0. J0.0299
G1 X1.0512
G3 Y0.8959 I0. J0.0299
G1 X0.
G2 Y0.9557 I0. J0.0299
G1 X1.0512
G0 Z0.05
X1.1197 Y-0.002
G1 Z-0.1849 F5.
X1.0512
X0. F59.
G2 Y0.0578 I0. J0.0299
G1 X1.0512
G3 Y0.1177 I0. J0.0299
G1 X0.
G2 Y0.1776 I0. J0.0299
G1 X1.0512
G3 Y0.2374 I0. J0.0299
G1 X0.
G2 Y0.2973 I0. J0.0299
G1 X1.0512
G3 Y0.3571 I0. J0.0299
G1 X0.
G2 Y0.417 I0. J0.0299
G1 X1.0512
G3 Y0.4769 I0. J0.0299
G1 X0.
G2 Y0.5367 I0. J0.0299
G1 X1.0512
G3 Y0.5966 I0. J0.0299
G1 X0.
G2 Y0.6564 I0. J0.0299
G1 X1.0512
G3 Y0.7163 I0. J0.0299
G1 X0.
G2 Y0.7762 I0. J0.0299
G1 X1.0512
G3 Y0.836 I0. J0.0299
G1 X0.
G2 Y0.8959 I0. J0.0299
G1 X1.0512
G3 Y0.9557 I0. J0.0299
G1 X0.
G0 Z0.05
X-0.0685 Y-0.002
G1 Z-0.1869 F5.
X0.
X1.0512 F59.
G3 Y0.0578 I0. J0.0299
G1 X0.
G2 Y0.1177 I0. J0.0299
G1 X1.0512
G3 Y0.1776 I0. J0.0299
G1 X0.
G2 Y0.2374 I0. J0.0299
G1 X1.0512
G3 Y0.2973 I0. J0.0299
G1 X0.
G2 Y0.3571 I0. J0.0299
G1 X1.0512
G3 Y0.417 I0. J0.0299
G1 X0.
G2 Y0.4769 I0. J0.0299
G1 X1.0512
G3 Y0.5367 I0. J0.0299
G1 X0.
G2 Y0.5966 I0. J0.0299
G1 X1.0512
G3 Y0.6564 I0. J0.0299
G1 X0.
G2 Y0.7163 I0. J0.0299
G1 X1.0512
G3 Y0.7762 I0. J0.0299
G1 X0.
G2 Y0.836 I0. J0.0299
G1 X1.0512
G3 Y0.8959 I0. J0.0299
G1 X0.
G2 Y0.9557 I0. J0.0299
G1 X1.0512
G0 Z0.05
X1.1197 Y-0.002
G1 Z-0.1889 F5.
X1.0512
X0. F59.
G2 Y0.0578 I0. J0.0299
G1 X1.0512
G3 Y0.1177 I0. J0.0299
G1 X0.
G2 Y0.1776 I0. J0.0299
G1 X1.0512
G3 Y0.2374 I0. J0.0299
G1 X0.
G2 Y0.2973 I0. J0.0299
G1 X1.0512
G3 Y0.3571 I0. J0.0299
G1 X0.
G2 Y0.417 I0. J0.0299
G1 X1.0512
G3 Y0.4769 I0. J0.0299
G1 X0.
G2 Y0.5367 I0. J0.0299
G1 X1.0512
G3 Y0.5966 I0. J0.0299
G1 X0.
G2 Y0.6564 I0. J0.0299
G1 X1.0512
G3 Y0.7163 I0. J0.0299
G1 X0.
G2 Y0.7762 I0. J0.0299
G1 X1.0512
G3 Y0.836 I0. J0.0299
G1 X0.
G2 Y0.8959 I0. J0.0299
G1 X1.0512
G3 Y0.9557 I0. J0.0299
G1 X0.
G0 Z0.05
X-0.0685 Y-0.002
G1 Z-0.1909 F5.
X0.
X1.0512 F59.
G3 Y0.0578 I0. J0.0299
G1 X0.
G2 Y0.1177 I0. J0.0299
G1 X1.0512
G3 Y0.1776 I0. J0.0299
G1 X0.
G2 Y0.2374 I0. J0.0299
G1 X1.0512
G3 Y0.2973 I0. J0.0299
G1 X0.
G2 Y0.3571 I0. J0.0299
G1 X1.0512
G3 Y0.417 I0. J0.0299
G1 X0.
G2 Y0.4769 I0. J0.0299
G1 X1.0512
G3 Y0.5367 I0. J0.0299
G1 X0.
G2 Y0.5966 I0. J0.0299
G1 X1.0512
G3 Y0.6564 I0. J0.0299
G1 X0.
G2 Y0.7163 I0. J0.0299
G1 X1.0512
G3 Y0.7762 I0. J0.0299
G1 X0.
G2 Y0.836 I0. J0.0299
G1 X1.0512
G3 Y0.8959 I0. J0.0299
G1 X0.
G2 Y0.9557 I0. J0.0299
G1 X1.0512
G0 Z0.05
X1.1197 Y-0.002
G1 Z-0.1929 F5.
X1.0512
X0. F59.
G2 Y0.0578 I0. J0.0299
G1 X1.0512
G3 Y0.1177 I0. J0.0299
G1 X0.
G2 Y0.1776 I0. J0.0299
G1 X1.0512
G3 Y0.2374 I0. J0.0299
G1 X0.
G2 Y0.2973 I0. J0.0299
G1 X1.0512
G3 Y0.3571 I0. J0.0299
G1 X0.
G2 Y0.417 I0. J0.0299
G1 X1.0512
G3 Y0.4769 I0. J0.0299
G1 X0.
G2 Y0.5367 I0. J0.0299
G1 X1.0512
G3 Y0.5966 I0. J0.0299
G1 X0.
G2 Y0.6564 I0. J0.0299
G1 X1.0512
G3 Y0.7163 I0. J0.0299
G1 X0.
G2 Y0.7762 I0. J0.0299
G1 X1.0512
G3 Y0.836 I0. J0.0299
G1 X0.
G2 Y0.8959 I0. J0.0299
G1 X1.0512
G3 Y0.9557 I0. J0.0299
G1 X0.
G0 Z0.05
X-0.0685 Y-0.002
G1 Z-0.1949 F5.
X0.
X1.0512 F59.
G3 Y0.0578 I0. J0.0299
G1 X0.
G2 Y0.1177 I0. J0.0299
G1 X1.0512
G3 Y0.1776 I0. J0.0299
G1 X0.
G2 Y0.2374 I0. J0.0299
G1 X1.0512
G3 Y0.2973 I0. J0.0299
G1 X0.
G2 Y0.3571 I0. J0.0299
G1 X1.0512
G3 Y0.417 I0. J0.0299
G1 X0.
G2 Y0.4769 I0. J0.0299
G1 X1.0512
G3 Y0.5367 I0. J0.0299
G1 X0.
G2 Y0.5966 I0. J0.0299
G1 X1.0512
G3 Y0.6564 I0. J0.0299
G1 X0.
G2 Y0.7163 I0. J0.0299
G1 X1.0512
G3 Y0.7762 I0. J0.0299
G1 X0.
G2 Y0.836 I0. J0.0299
G1 X1.0512
G3 Y0.8959 I0. J0.0299
G1 X0.
G2 Y0.9557 I0. J0.0299
G1 X1.0512
G0 Z0.05
X1.1197 Y-0.002
G1 Z-0.1969 F5.
X1.0512
X0. F59.
G2 Y0.0578 I0. J0.0299
G1 X1.0512
G3 Y0.1177 I0. J0.0299
G1 X0.
G2 Y0.1776 I0. J0.0299
G1 X1.0512
G3 Y0.2374 I0. J0.0299
G1 X0.
G2 Y0.2973 I0. J0.0299
G1 X1.0512
G3 Y0.3571 I0. J0.0299
G1 X0.
G2 Y0.417 I0. J0.0299
G1 X1.0512
G3 Y0.4769 I0. J0.0299
G1 X0.
G2 Y0.5367 I0. J0.0299
G1 X1.0512
G3 Y0.5966 I0. J0.0299
G1 X0.
G2 Y0.6564 I0. J0.0299
G1 X1.0512
G3 Y0.7163 I0. J0.0299
G1 X0.
G2 Y0.7762 I0. J0.0299
G1 X1.0512
G3 Y0.836 I0. J0.0299
G1 X0.
G2 Y0.8959 I0. J0.0299
G1 X1.0512
G3 Y0.9557 I0. J0.0299
G1 X0.
G0 Z0.05
X-0.0685 Y-0.002
G1 Z-0.1989 F5.
X0.
X1.0512 F59.
G3 Y0.0578 I0. J0.0299
G1 X0.
G2 Y0.1177 I0. J0.0299
G1 X1.0512
G3 Y0.1776 I0. J0.0299
G1 X0.
G2 Y0.2374 I0. J0.0299
G1 X1.0512
G3 Y0.2973 I0. J0.0299
G1 X0.
G2 Y0.3571 I0. J0.0299
G1 X1.0512
G3 Y0.417 I0. J0.0299
G1 X0.
G2 Y0.4769 I0. J0.0299
G1 X1.0512
G3 Y0.5367 I0. J0.0299
G1 X0.
G2 Y0.5966 I0. J0.0299
G1 X1.0512
G3 Y0.6564 I0. J0.0299
G1 X0.
G2 Y0.7163 I0. J0.0299
G1 X1.0512
G3 Y0.7762 I0. J0.0299
G1 X0.
G2 Y0.836 I0. J0.0299
G1 X1.0512
G3 Y0.8959 I0. J0.0299
G1 X0.
G2 Y0.9557 I0. J0.0299
G1 X1.0512
G0 Z0.05
X1.1197 Y-0.002
G1 Z-0.2009 F5.
X1.0512
X0. F59.
G2 Y0.0578 I0. J0.0299
G1 X1.0512
G3 Y0.1177 I0. J0.0299
G1 X0.
G2 Y0.1776 I0. J0.0299
G1 X1.0512
G3 Y0.2374 I0. J0.0299
G1 X0.
G2 Y0.2973 I0. J0.0299
G1 X1.0512
G3 Y0.3571 I0. J0.0299
G1 X0.
G2 Y0.417 I0. J0.0299
G1 X1.0512
G3 Y0.4769 I0. J0.0299
G1 X0.
G2 Y0.5367 I0. J0.0299
G1 X1.0512
G3 Y0.5966 I0. J0.0299
G1 X0.
G2 Y0.6564 I0. J0.0299
G1 X1.0512
G3 Y0.7163 I0. J0.0299
G1 X0.
G2 Y0.7762 I0. J0.0299
G1 X1.0512
G3 Y0.836 I0. J0.0299
G1 X0.
G2 Y0.8959 I0. J0.0299
G1 X1.0512
G3 Y0.9557 I0. J0.0299
G1 X0.
G0 Z0.05
X-0.0685 Y-0.002
G1 Z-0.2029 F5.
X0.
X1.0512 F59.
G3 Y0.0578 I0. J0.0299
G1 X0.
G2 Y0.1177 I0. J0.0299
G1 X1.0512
G3 Y0.1776 I0. J0.0299
G1 X0.
G2 Y0.2374 I0. J0.0299
G1 X1.0512
G3 Y0.2973 I0. J0.0299
G1 X0.
G2 Y0.3571 I0. J0.0299
G1 X1.0512
G3 Y0.417 I0. J0.0299
G1 X0.
G2 Y0.4769 I0. J0.0299
G1 X1.0512
G3 Y0.5367 I0. J0.0299
G1 X0.
G2 Y0.5966 I0. J0.0299
G1 X1.0512
G3 Y0.6564 I0. J0.0299
G1 X0.
G2 Y0.7163 I0. J0.0299
G1 X1.0512
G3 Y0.7762 I0. J0.0299
G1 X0.
G2 Y0.836 I0. J0.0299
G1 X1.0512
G3 Y0.8959 I0. J0.0299
G1 X0.
G2 Y0.9557 I0. J0.0299
G1 X1.0512
G0 Z0.05
X1.1197 Y-0.002
G1 Z-0.2049 F5.
X1.0512
X0. F59.
G2 Y0.0578 I0. J0.0299
G1 X1.0512
G3 Y0.1177 I0. J0.0299
G1 X0.
G2 Y0.1776 I0. J0.0299
G1 X1.0512
G3 Y0.2374 I0. J0.0299
G1 X0.
G2 Y0.2973 I0. J0.0299
G1 X1.0512
G3 Y0.3571 I0. J0.0299
G1 X0.
G2 Y0.417 I0. J0.0299
G1 X1.0512
G3 Y0.4769 I0. J0.0299
G1 X0.
G2 Y0.5367 I0. J0.0299
G1 X1.0512
G3 Y0.5966 I0. J0.0299
G1 X0.
G2 Y0.6564 I0. J0.0299
G1 X1.0512
G3 Y0.7163 I0. J0.0299
G1 X0.
G2 Y0.7762 I0. J0.0299
G1 X1.0512
G3 Y0.836 I0. J0.0299
G1 X0.
G2 Y0.8959 I0. J0.0299
G1 X1.0512
G3 Y0.9557 I0. J0.0299
G1 X0.
G0 Z0.05
X-0.0685 Y-0.002
G1 Z-0.2069 F5.
X0.
X1.0512 F59.
G3 Y0.0578 I0. J0.0299
G1 X0.
G2 Y0.1177 I0. J0.0299
G1 X1.0512
G3 Y0.1776 I0. J0.0299
G1 X0.
G2 Y0.2374 I0. J0.0299
G1 X1.0512
G3 Y0.2973 I0. J0.0299
G1 X0.
G2 Y0.3571 I0. J0.0299
G1 X1.0512
G3 Y0.417 I0. J0.0299
G1 X0.
G2 Y0.4769 I0. J0.0299
G1 X1.0512
G3 Y0.5367 I0. J0.0299
G1 X0.
G2 Y0.5966 I0. J0.0299
G1 X1.0512
G3 Y0.6564 I0. J0.0299
G1 X0.
G2 Y0.7163 I0. J0.0299
G1 X1.0512
G3 Y0.7762 I0. J0.0299
G1 X0.
G2 Y0.836 I0. J0.0299
G1 X1.0512
G3 Y0.8959 I0. J0.0299
G1 X0.
G2 Y0.9557 I0. J0.0299
G1 X1.0512
G0 Z0.05
X1.1197 Y-0.002
G1 Z-0.2089 F5.
X1.0512
X0. F59.
G2 Y0.0578 I0. J0.0299
G1 X1.0512
G3 Y0.1177 I0. J0.0299
G1 X0.
G2 Y0.1776 I0. J0.0299
G1 X1.0512
G3 Y0.2374 I0. J0.0299
G1 X0.
G2 Y0.2973 I0. J0.0299
G1 X1.0512
G3 Y0.3571 I0. J0.0299
G1 X0.
G2 Y0.417 I0. J0.0299
G1 X1.0512
G3 Y0.4769 I0. J0.0299
G1 X0.
G2 Y0.5367 I0. J0.0299
G1 X1.0512
G3 Y0.5966 I0. J0.0299
G1 X0.
G2 Y0.6564 I0. J0.0299
G1 X1.0512
G3 Y0.7163 I0. J0.0299
G1 X0.
G2 Y0.7762 I0. J0.0299
G1 X1.0512
G3 Y0.836 I0. J0.0299
G1 X0.
G2 Y0.8959 I0. J0.0299
G1 X1.0512
G3 Y0.9557 I0. J0.0299
G1 X0.
G0 Z0.05
X-0.0685 Y-0.002
G1 Z-0.2109 F5.
X0.
X1.0512 F59.
G3 Y0.0578 I0. J0.0299
G1 X0.
G2 Y0.1177 I0. J0.0299
G1 X1.0512
G3 Y0.1776 I0. J0.0299
G1 X0.
G2 Y0.2374 I0. J0.0299
G1 X1.0512
G3 Y0.2973 I0. J0.0299
G1 X0.
G2 Y0.3571 I0. J0.0299
G1 X1.0512
G3 Y0.417 I0. J0.0299
G1 X0.
G2 Y0.4769 I0. J0.0299
G1 X1.0512
G3 Y0.5367 I0. J0.0299
G1 X0.
G2 Y0.5966 I0. J0.0299
G1 X1.0512
G3 Y0.6564 I0. J0.0299
G1 X0.
G2 Y0.7163 I0. J0.0299
G1 X1.0512
G3 Y0.7762 I0. J0.0299
G1 X0.
G2 Y0.836 I0. J0.0299
G1 X1.0512
G3 Y0.8959 I0. J0.0299
G1 X0.
G2 Y0.9557 I0. J0.0299
G1 X1.0512
G0 Z0.05
X1.1197 Y-0.002
G1 Z-0.2129 F5.
X1.0512
X0. F59.
G2 Y0.0578 I0. J0.0299
G1 X1.0512
G3 Y0.1177 I0. J0.0299
G1 X0.
G2 Y0.1776 I0. J0.0299
G1 X1.0512
G3 Y0.2374 I0. J0.0299
G1 X0.
G2 Y0.2973 I0. J0.0299
G1 X1.0512
G3 Y0.3571 I0. J0.0299
G1 X0.
G2 Y0.417 I0. J0.0299
G1 X1.0512
G3 Y0.4769 I0. J0.0299
G1 X0.
G2 Y0.5367 I0. J0.0299
G1 X1.0512
G3 Y0.5966 I0. J0.0299
G1 X0.
G2 Y0.6564 I0. J0.0299
G1 X1.0512
G3 Y0.7163 I0. J0.0299
G1 X0.
G2 Y0.7762 I0. J0.0299
G1 X1.0512
G3 Y0.836 I0. J0.0299
G1 X0.
G2 Y0.8959 I0. J0.0299
G1 X1.0512
G3 Y0.9557 I0. J0.0299
G1 X0.
G0 Z0.05
X-0.0685 Y-0.002
G1 Z-0.2149 F5.
X0.
X1.0512 F59.
G3 Y0.0578 I0. J0.0299
G1 X0.
G2 Y0.1177 I0. J0.0299
G1 X1.0512
G3 Y0.1776 I0. J0.0299
G1 X0.
G2 Y0.2374 I0. J0.0299
G1 X1.0512
G3 Y0.2973 I0. J0.0299
G1 X0.
G2 Y0.3571 I0. J0.0299
G1 X1.0512
G3 Y0.417 I0. J0.0299
G1 X0.
G2 Y0.4769 I0. J0.0299
G1 X1.0512
G3 Y0.5367 I0. J0.0299
G1 X0.
G2 Y0.5966 I0. J0.0299
G1 X1.0512
G3 Y0.6564 I0. J0.0299
G1 X0.
G2 Y0.7163 I0. J0.0299
G1 X1.0512
G3 Y0.7762 I0. J0.0299
G1 X0.
G2 Y0.836 I0. J0.0299
G1 X1.0512
G3 Y0.8959 I0. J0.0299
G1 X0.
G2 Y0.9557 I0. J0.0299
G1 X1.0512
G0 Z0.05
X1.1197 Y-0.002
G1 Z-0.2169 F5.
X1.0512
X0. F59.
G2 Y0.0578 I0. J0.0299
G1 X1.0512
G3 Y0.1177 I0. J0.0299
G1 X0.
G2 Y0.1776 I0. J0.0299
G1 X1.0512
G3 Y0.2374 I0. J0.0299
G1 X0.
G2 Y0.2973 I0. J0.0299
G1 X1.0512
G3 Y0.3571 I0. J0.0299
G1 X0.
G2 Y0.417 I0. J0.0299
G1 X1.0512
G3 Y0.4769 I0. J0.0299
G1 X0.
G2 Y0.5367 I0. J0.0299
G1 X1.0512
G3 Y0.5966 I0. J0.0299
G1 X0.
G2 Y0.6564 I0. J0.0299
G1 X1.0512
G3 Y0.7163 I0. J0.0299
G1 X0.
G2 Y0.7762 I0. J0.0299
G1 X1.0512
G3 Y0.836 I0. J0.0299
G1 X0.
G2 Y0.8959 I0. J0.0299
G1 X1.0512
G3 Y0.9557 I0. J0.0299
G1 X0.
G0 Z0.05
X-0.0685 Y-0.002
G1 Z-0.2189 F5.
X0.
X1.0512 F59.
G3 Y0.0578 I0. J0.0299
G1 X0.
G2 Y0.1177 I0. J0.0299
G1 X1.0512
G3 Y0.1776 I0. J0.0299
G1 X0.
G2 Y0.2374 I0. J0.0299
G1 X1.0512
G3 Y0.2973 I0. J0.0299
G1 X0.
G2 Y0.3571 I0. J0.0299
G1 X1.0512
G3 Y0.417 I0. J0.0299
G1 X0.
G2 Y0.4769 I0. J0.0299
G1 X1.0512
G3 Y0.5367 I0. J0.0299
G1 X0.
G2 Y0.5966 I0. J0.0299
G1 X1.0512
G3 Y0.6564 I0. J0.0299
G1 X0.
G2 Y0.7163 I0. J0.0299
G1 X1.0512
G3 Y0.7762 I0. J0.0299
G1 X0.
G2 Y0.836 I0. J0.0299
G1 X1.0512
G3 Y0.8959 I0. J0.0299
G1 X0.
G2 Y0.9557 I0. J0.0299
G1 X1.0512
G0 Z0.05
X1.1197 Y-0.002
G1 Z-0.2209 F5.
X1.0512
X0. F59.
G2 Y0.0578 I0. J0.0299
G1 X1.0512
G3 Y0.1177 I0. J0.0299
G1 X0.
G2 Y0.1776 I0. J0.0299
G1 X1.0512
G3 Y0.2374 I0. J0.0299
G1 X0.
G2 Y0.2973 I0. J0.0299
G1 X1.0512
G3 Y0.3571 I0. J0.0299
G1 X0.
G2 Y0.417 I0. J0.0299
G1 X1.0512
G3 Y0.4769 I0. J0.0299
G1 X0.
G2 Y0.5367 I0. J0.0299
G1 X1.0512
G3 Y0.5966 I0. J0.0299
G1 X0.
G2 Y0.6564 I0. J0.0299
G1 X1.0512
G3 Y0.7163 I0. J0.0299
G1 X0.
G2 Y0.7762 I0. J0.0299
G1 X1.0512
G3 Y0.836 I0. J0.0299
G1 X0.
G2 Y0.8959 I0. J0.0299
G1 X1.0512
G3 Y0.9557 I0. J0.0299
G1 X0.
G0 Z0.05
X-0.0685 Y-0.002
G1 Z-0.2229 F5.
X0.
X1.0512 F59.
G3 Y0.0578 I0. J0.0299
G1 X0.
G2 Y0.1177 I0. J0.0299
G1 X1.0512
G3 Y0.1776 I0. J0.0299
G1 X0.
G2 Y0.2374 I0. J0.0299
G1 X1.0512
G3 Y0.2973 I0. J0.0299
G1 X0.
G2 Y0.3571 I0. J0.0299
G1 X1.0512
G3 Y0.417 I0. J0.0299
G1 X0.
G2 Y0.4769 I0. J0.0299
G1 X1.0512
G3 Y0.5367 I0. J0.0299
G1 X0.
G2 Y0.5966 I0. J0.0299
G1 X1.0512
G3 Y0.6564 I0. J0.0299
G1 X0.
G2 Y0.7163 I0. J0.0299
G1 X1.0512
G3 Y0.7762 I0. J0.0299
G1 X0.
G2 Y0.836 I0. J0.0299
G1 X1.0512
G3 Y0.8959 I0. J0.0299
G1 X0.
G2 Y0.9557 I0. J0.0299
G1 X1.0512
G0 Z0.05
X1.1197 Y-0.002
G1 Z-0.2249 F5.
X1.0512
X0. F59.
G2 Y0.0578 I0. J0.0299
G1 X1.0512
G3 Y0.1177 I0. J0.0299
G1 X0.
G2 Y0.1776 I0. J0.0299
G1 X1.0512
G3 Y0.2374 I0. J0.0299
G1 X0.
G2 Y0.2973 I0. J0.0299
G1 X1.0512
G3 Y0.3571 I0. J0.0299
G1 X0.
G2 Y0.417 I0. J0.0299
G1 X1.0512
G3 Y0.4769 I0. J0.0299
G1 X0.
G2 Y0.5367 I0. J0.0299
G1 X1.0512
G3 Y0.5966 I0. J0.0299
G1 X0.
G2 Y0.6564 I0. J0.0299
G1 X1.0512
G3 Y0.7163 I0. J0.0299
G1 X0.
G2 Y0.7762 I0. J0.0299
G1 X1.0512
G3 Y0.836 I0. J0.0299
G1 X0.
G2 Y0.8959 I0. J0.0299
G1 X1.0512
G3 Y0.9557 I0. J0.0299
G1 X0.
G0 Z0.05
X-0.0685 Y-0.002
G1 Z-0.2269 F5.
X0.
X1.0512 F59.
G3 Y0.0578 I0. J0.0299
G1 X0.
G2 Y0.1177 I0. J0.0299
G1 X1.0512
G3 Y0.1776 I0. J0.0299
G1 X0.
G2 Y0.2374 I0. J0.0299
G1 X1.0512
G3 Y0.2973 I0. J0.0299
G1 X0.
G2 Y0.3571 I0. J0.0299
G1 X1.0512
G3 Y0.417 I0. J0.0299
G1 X0.
G2 Y0.4769 I0. J0.0299
G1 X1.0512
G3 Y0.5367 I0. J0.0299
G1 X0.
G2 Y0.5966 I0. J0.0299
G1 X1.0512
G3 Y0.6564 I0. J0.0299
G1 X0.
G2 Y0.7163 I0. J0.0299
G1 X1.0512
G3 Y0.7762 I0. J0.0299
G1 X0.
G2 Y0.836 I0. J0.0299
G1 X1.0512
G3 Y0.8959 I0. J0.0299
G1 X0.
G2 Y0.9557 I0. J0.0299
G1 X1.0512
G0 Z0.05
X1.1197 Y-0.002
G1 Z-0.2289 F5.
X1.0512
X0. F59.
G2 Y0.0578 I0. J0.0299
G1 X1.0512
G3 Y0.1177 I0. J0.0299
G1 X0.
G2 Y0.1776 I0. J0.0299
G1 X1.0512
G3 Y0.2374 I0. J0.0299
G1 X0.
G2 Y0.2973 I0. J0.0299
G1 X1.0512
G3 Y0.3571 I0. J0.0299
G1 X0.
G2 Y0.417 I0. J0.0299
G1 X1.0512
G3 Y0.4769 I0. J0.0299
G1 X0.
G2 Y0.5367 I0. J0.0299
G1 X1.0512
G3 Y0.5966 I0. J0.0299
G1 X0.
G2 Y0.6564 I0. J0.0299
G1 X1.0512
G3 Y0.7163 I0. J0.0299
G1 X0.
G2 Y0.7762 I0. J0.0299
G1 X1.0512
G3 Y0.836 I0. J0.0299
G1 X0.
G2 Y0.8959 I0. J0.0299
G1 X1.0512
G3 Y0.9557 I0. J0.0299
G1 X0.
G0 Z0.05
X-0.0685 Y-0.002
G1 Z-0.2309 F5.
X0.
X1.0512 F59.
G3 Y0.0578 I0. J0.0299
G1 X0.
G2 Y0.1177 I0. J0.0299
G1 X1.0512
G3 Y0.1776 I0. J0.0299
G1 X0.
G2 Y0.2374 I0. J0.0299
G1 X1.0512
G3 Y0.2973 I0. J0.0299
G1 X0.
G2 Y0.3571 I0. J0.0299
G1 X1.0512
G3 Y0.417 I0. J0.0299
G1 X0.
G2 Y0.4769 I0. J0.0299
G1 X1.0512
G3 Y0.5367 I0. J0.0299
G1 X0.
G2 Y0.5966 I0. J0.0299
G1 X1.0512
G3 Y0.6564 I0. J0.0299
G1 X0.
G2 Y0.7163 I0. J0.0299
G1 X1.0512
G3 Y0.7762 I0. J0.0299
G1 X0.
G2 Y0.836 I0. J0.0299
G1 X1.0512
G3 Y0.8959 I0. J0.0299
G1 X0.
G2 Y0.9557 I0. J0.0299
G1 X1.0512
G0 Z0.05
X1.1197 Y-0.002
G1 Z-0.2329 F5.
X1.0512
X0. F59.
G2 Y0.0578 I0. J0.0299
G1 X1.0512
G3 Y0.1177 I0. J0.0299
G1 X0.
G2 Y0.1776 I0. J0.0299
G1 X1.0512
G3 Y0.2374 I0. J0.0299
G1 X0.
G2 Y0.2973 I0. J0.0299
G1 X1.0512
G3 Y0.3571 I0. J0.0299
G1 X0.
G2 Y0.417 I0. J0.0299
G1 X1.0512
G3 Y0.4769 I0. J0.0299
G1 X0.
G2 Y0.5367 I0. J0.0299
G1 X1.0512
G3 Y0.5966 I0. J0.0299
G1 X0.
G2 Y0.6564 I0. J0.0299
G1 X1.0512
G3 Y0.7163 I0. J0.0299
G1 X0.
G2 Y0.7762 I0. J0.0299
G1 X1.0512
G3 Y0.836 I0. J0.0299
G1 X0.
G2 Y0.8959 I0. J0.0299
G1 X1.0512
G3 Y0.9557 I0. J0.0299
G1 X0.
G0 Z0.05
X-0.0685 Y-0.002
G1 Z-0.2349 F5.
X0.
X1.0512 F59.
G3 Y0.0578 I0. J0.0299
G1 X0.
G2 Y0.1177 I0. J0.0299
G1 X1.0512
G3 Y0.1776 I0. J0.0299
G1 X0.
G2 Y0.2374 I0. J0.0299
G1 X1.0512
G3 Y0.2973 I0. J0.0299
G1 X0.
G2 Y0.3571 I0. J0.0299
G1 X1.0512
G3 Y0.417 I0. J0.0299
G1 X0.
G2 Y0.4769 I0. J0.0299
G1 X1.0512
G3 Y0.5367 I0. J0.0299
G1 X0.
G2 Y0.5966 I0. J0.0299
G1 X1.0512
G3 Y0.6564 I0. J0.0299
G1 X0.
G2 Y0.7163 I0. J0.0299
G1 X1.0512
G3 Y0.7762 I0. J0.0299
G1 X0.
G2 Y0.836 I0. J0.0299
G1 X1.0512
G3 Y0.8959 I0. J0.0299
G1 X0.
G2 Y0.9557 I0. J0.0299
G1 X1.0512
G0 Z0.05
X1.1197 Y-0.002
G1 Z-0.2369 F5.
X1.0512
X0. F59.
G2 Y0.0578 I0. J0.0299
G1 X1.0512
G3 Y0.1177 I0. J0.0299
G1 X0.
G2 Y0.1776 I0. J0.0299
G1 X1.0512
G3 Y0.2374 I0. J0.0299
G1 X0.
G2 Y0.2973 I0. J0.0299
G1 X1.0512
G3 Y0.3571 I0. J0.0299
G1 X0.
G2 Y0.417 I0. J0.0299
G1 X1.0512
G3 Y0.4769 I0. J0.0299
G1 X0.
G2 Y0.5367 I0. J0.0299
G1 X1.0512
G3 Y0.5966 I0. J0.0299
G1 X0.
G2 Y0.6564 I0. J0.0299
G1 X1.0512
G3 Y0.7163 I0. J0.0299
G1 X0.
G2 Y0.7762 I0. J0.0299
G1 X1.0512
G3 Y0.836 I0. J0.0299
G1 X0.
G2 Y0.8959 I0. J0.0299
G1 X1.0512
G3 Y0.9557 I0. J0.0299
G1 X0.
G0 Z0.05
X-0.0685 Y-0.002
G1 Z-0.2389 F5.
X0.
X1.0512 F59.
G3 Y0.0578 I0. J0.0299
G1 X0.
G2 Y0.1177 I0. J0.0299
G1 X1.0512
G3 Y0.1776 I0. J0.0299
G1 X0.
G2 Y0.2374 I0. J0.0299
G1 X1.0512
G3 Y0.2973 I0. J0.0299
G1 X0.
G2 Y0.3571 I0. J0.0299
G1 X1.0512
G3 Y0.417 I0. J0.0299
G1 X0.
G2 Y0.4769 I0. J0.0299
G1 X1.0512
G3 Y0.5367 I0. J0.0299
G1 X0.
G2 Y0.5966 I0. J0.0299
G1 X1.0512
G3 Y0.6564 I0. J0.0299
G1 X0.
G2 Y0.7163 I0. J0.0299
G1 X1.0512
G3 Y0.7762 I0. J0.0299
G1 X0.
G2 Y0.836 I0. J0.0299
G1 X1.0512
G3 Y0.8959 I0. J0.0299
G1 X0.
G2 Y0.9557 I0. J0.0299
G1 X1.0512
G0 Z0.05
X1.1197 Y-0.002
G1 Z-0.2409 F5.
X1.0512
X0. F59.
G2 Y0.0578 I0. J0.0299
G1 X1.0512
G3 Y0.1177 I0. J0.0299
G1 X0.
G2 Y0.1776 I0. J0.0299
G1 X1.0512
G3 Y0.2374 I0. J0.0299
G1 X0.
G2 Y0.2973 I0. J0.0299
G1 X1.0512
G3 Y0.3571 I0. J0.0299
G1 X0.
G2 Y0.417 I0. J0.0299
G1 X1.0512
G3 Y0.4769 I0. J0.0299
G1 X0.
G2 Y0.5367 I0. J0.0299
G1 X1.0512
G3 Y0.5966 I0. J0.0299
G1 X0.
G2 Y0.6564 I0. J0.0299
G1 X1.0512
G3 Y0.7163 I0. J0.0299
G1 X0.
G2 Y0.7762 I0. J0.0299
G1 X1.0512
G3 Y0.836 I0. J0.0299
G1 X0.
G2 Y0.8959 I0. J0.0299
G1 X1.0512
G3 Y0.9557 I0. J0.0299
G1 X0.
G0 Z0.05
X-0.0685 Y-0.002
G1 Z-0.2429 F5.
X0.
X1.0512 F59.
G3 Y0.0578 I0. J0.0299
G1 X0.
G2 Y0.1177 I0. J0.0299
G1 X1.0512
G3 Y0.1776 I0. J0.0299
G1 X0.
G2 Y0.2374 I0. J0.0299
G1 X1.0512
G3 Y0.2973 I0. J0.0299
G1 X0.
G2 Y0.3571 I0. J0.0299
G1 X1.0512
G3 Y0.417 I0. J0.0299
G1 X0.
G2 Y0.4769 I0. J0.0299
G1 X1.0512
G3 Y0.5367 I0. J0.0299
G1 X0.
G2 Y0.5966 I0. J0.0299
G1 X1.0512
G3 Y0.6564 I0. J0.0299
G1 X0.
G2 Y0.7163 I0. J0.0299
G1 X1.0512
G3 Y0.7762 I0. J0.0299
G1 X0.
G2 Y0.836 I0. J0.0299
G1 X1.0512
G3 Y0.8959 I0. J0.0299
G1 X0.
G2 Y0.9557 I0. J0.0299
G1 X1.0512
G0 Z0.05
X1.1197 Y-0.002
G1 Z-0.2449 F5.
X1.0512
X0. F59.
G2 Y0.0578 I0. J0.0299
G1 X1.0512
G3 Y0.1177 I0. J0.0299
G1 X0.
G2 Y0.1776 I0. J0.0299
G1 X1.0512
G3 Y0.2374 I0. J0.0299
G1 X0.
G2 Y0.2973 I0. J0.0299
G1 X1.0512
G3 Y0.3571 I0. J0.0299
G1 X0.
G2 Y0.417 I0. J0.0299
G1 X1.0512
G3 Y0.4769 I0. J0.0299
G1 X0.
G2 Y0.5367 I0. J0.0299
G1 X1.0512
G3 Y0.5966 I0. J0.0299
G1 X0.
G2 Y0.6564 I0. J0.0299
G1 X1.0512
G3 Y0.7163 I0. J0.0299
G1 X0.
G2 Y0.7762 I0. J0.0299
G1 X1.0512
G3 Y0.836 I0. J0.0299
G1 X0.
G2 Y0.8959 I0. J0.0299
G1 X1.0512
G3 Y0.9557 I0. J0.0299
G1 X0.
G0 Z0.05
X-0.0685 Y-0.002
G1 Z-0.2469 F5.
X0.
X1.0512 F59.
G3 Y0.0578 I0. J0.0299
G1 X0.
G2 Y0.1177 I0. J0.0299
G1 X1.0512
G3 Y0.1776 I0. J0.0299
G1 X0.
G2 Y0.2374 I0. J0.0299
G1 X1.0512
G3 Y0.2973 I0. J0.0299
G1 X0.
G2 Y0.3571 I0. J0.0299
G1 X1.0512
G3 Y0.417 I0. J0.0299
G1 X0.
G2 Y0.4769 I0. J0.0299
G1 X1.0512
G3 Y0.5367 I0. J0.0299
G1 X0.
G2 Y0.5966 I0. J0.0299
G1 X1.0512
G3 Y0.6564 I0. J0.0299
G1 X0.
G2 Y0.7163 I0. J0.0299
G1 X1.0512
G3 Y0.7762 I0. J0.0299
G1 X0.
G2 Y0.836 I0. J0.0299
G1 X1.0512
G3 Y0.8959 I0. J0.0299
G1 X0.
G2 Y0.9557 I0. J0.0299
G1 X1.0512
G0 Z0.05
X1.1197 Y-0.002
G1 Z-0.2489 F5.
X1.0512
X0. F59.
G2 Y0.0578 I0. J0.0299
G1 X1.0512
G3 Y0.1177 I0. J0.0299
G1 X0.
G2 Y0.1776 I0. J0.0299
G1 X1.0512
G3 Y0.2374 I0. J0.0299
G1 X0.
G2 Y0.2973 I0. J0.0299
G1 X1.0512
G3 Y0.3571 I0. J0.0299
G1 X0.
G2 Y0.417 I0. J0.0299
G1 X1.0512
G3 Y0.4769 I0. J0.0299
G1 X0.
G2 Y0.5367 I0. J0.0299
G1 X1.0512
G3 Y0.5966 I0. J0.0299
G1 X0.
G2 Y0.6564 I0. J0.0299
G1 X1.0512
G3 Y0.7163 I0. J0.0299
G1 X0.
G2 Y0.7762 I0. J0.0299
G1 X1.0512
G3 Y0.836 I0. J0.0299
G1 X0.
G2 Y0.8959 I0. J0.0299
G1 X1.0512
G3 Y0.9557 I0. J0.0299
G1 X0.
G0 Z0.05
X-0.0685 Y-0.002
G1 Z-0.2509 F5.
X0.
X1.0512 F59.
G3 Y0.0578 I0. J0.0299
G1 X0.
G2 Y0.1177 I0. J0.0299
G1 X1.0512
G3 Y0.1776 I0. J0.0299
G1 X0.
G2 Y0.2374 I0. J0.0299
G1 X1.0512
G3 Y0.2973 I0. J0.0299
G1 X0.
G2 Y0.3571 I0. J0.0299
G1 X1.0512
G3 Y0.417 I0. J0.0299
G1 X0.
G2 Y0.4769 I0. J0.0299
G1 X1.0512
G3 Y0.5367 I0. J0.0299
G1 X0.
G2 Y0.5966 I0. J0.0299
G1 X1.0512
G3 Y0.6564 I0. J0.0299
G1 X0.
G2 Y0.7163 I0. J0.0299
G1 X1.0512
G3 Y0.7762 I0. J0.0299
G1 X0.
G2 Y0.836 I0. J0.0299
G1 X1.0512
G3 Y0.8959 I0. J0.0299
G1 X0.
G2 Y0.9557 I0. J0.0299
G1 X1.0512
G0 Z0.05
X1.1197 Y-0.002
G1 Z-0.2529 F5.
X1.0512
X0. F59.
G2 Y0.0578 I0. J0.0299
G1 X1.0512
G3 Y0.1177 I0. J0.0299
G1 X0.
G2 Y0.1776 I0. J0.0299
G1 X1.0512
G3 Y0.2374 I0. J0.0299
G1 X0.
G2 Y0.2973 I0. J0.0299
G1 X1.0512
G3 Y0.3571 I0. J0.0299
G1 X0.
G2 Y0.417 I0. J0.0299
G1 X1.0512
G3 Y0.4769 I0. J0.0299
G1 X0.
G2 Y0.5367 I0. J0.0299
G1 X1.0512
G3 Y0.5966 I0. J0.0299
G1 X0.
G2 Y0.6564 I0. J0.0299
G1 X1.0512
G3 Y0.7163 I0. J0.0299
G1 X0.
G2 Y0.7762 I0. J0.0299
G1 X1.0512
G3 Y0.836 I0. J0.0299
G1 X0.
G2 Y0.8959 I0. J0.0299
G1 X1.0512
G3 Y0.9557 I0. J0.0299
G1 X0.
G0 Z0.05
X-0.0685 Y-0.002
G1 Z-0.2549 F5.
X0.
X1.0512 F59.
G3 Y0.0578 I0. J0.0299
G1 X0.
G2 Y0.1177 I0. J0.0299
G1 X1.0512
G3 Y0.1776 I0. J0.0299
G1 X0.
G2 Y0.2374 I0. J0.0299
G1 X1.0512
G3 Y0.2973 I0. J0.0299
G1 X0.
G2 Y0.3571 I0. J0.0299
G1 X1.0512
G3 Y0.417 I0. J0.0299
G1 X0.
G2 Y0.4769 I0. J0.0299
G1 X1.0512
G3 Y0.5367 I0. J0.0299
G1 X0.
G2 Y0.5966 I0. J0.0299
G1 X1.0512
G3 Y0.6564 I0. J0.0299
G1 X0.
G2 Y0.7163 I0. J0.0299
G1 X1.0512
G3 Y0.7762 I0. J0.0299
G1 X0.
G2 Y0.836 I0. J0.0299
G1 X1.0512
G3 Y0.8959 I0. J0.0299
G1 X0.
G2 Y0.9557 I0. J0.0299
G1 X1.0512
G0 Z0.05
X1.1197 Y-0.002
G1 Z-0.2569 F5.
X1.0512
X0. F59.
G2 Y0.0578 I0. J0.0299
G1 X1.0512
G3 Y0.1177 I0. J0.0299
G1 X0.
G2 Y0.1776 I0. J0.0299
G1 X1.0512
G3 Y0.2374 I0. J0.0299
G1 X0.
G2 Y0.2973 I0. J0.0299
G1 X1.0512
G3 Y0.3571 I0. J0.0299
G1 X0.
G2 Y0.417 I0. J0.0299
G1 X1.0512
G3 Y0.4769 I0. J0.0299
G1 X0.
G2 Y0.5367 I0. J0.0299
G1 X1.0512
G3 Y0.5966 I0. J0.0299
G1 X0.
G2 Y0.6564 I0. J0.0299
G1 X1.0512
G3 Y0.7163 I0. J0.0299
G1 X0.
G2 Y0.7762 I0. J0.0299
G1 X1.0512
G3 Y0.836 I0. J0.0299
G1 X0.
G2 Y0.8959 I0. J0.0299
G1 X1.0512
G3 Y0.9557 I0. J0.0299
G1 X0.
G0 Z0.05
X-0.0685 Y-0.002
G1 Z-0.2589 F5.
X0.
X1.0512 F59.
G3 Y0.0578 I0. J0.0299
G1 X0.
G2 Y0.1177 I0. J0.0299
G1 X1.0512
G3 Y0.1776 I0. J0.0299
G1 X0.
G2 Y0.2374 I0. J0.0299
G1 X1.0512
G3 Y0.2973 I0. J0.0299
G1 X0.
G2 Y0.3571 I0. J0.0299
G1 X1.0512
G3 Y0.417 I0. J0.0299
G1 X0.
G2 Y0.4769 I0. J0.0299
G1 X1.0512
G3 Y0.5367 I0. J0.0299
G1 X0.
G2 Y0.5966 I0. J0.0299
G1 X1.0512
G3 Y0.6564 I0. J0.0299
G1 X0.
G2 Y0.7163 I0. J0.0299
G1 X1.0512
G3 Y0.7762 I0. J0.0299
G1 X0.
G2 Y0.836 I0. J0.0299
G1 X1.0512
G3 Y0.8959 I0. J0.0299
G1 X0.
G2 Y0.9557 I0. J0.0299
G1 X1.0512
G0 Z0.05
X1.1197 Y-0.002
G1 Z-0.2609 F5.
X1.0512
X0. F59.
G2 Y0.0578 I0. J0.0299
G1 X1.0512
G3 Y0.1177 I0. J0.0299
G1 X0.
G2 Y0.1776 I0. J0.0299
G1 X1.0512
G3 Y0.2374 I0. J0.0299
G1 X0.
G2 Y0.2973 I0. J0.0299
G1 X1.0512
G3 Y0.3571 I0. J0.0299
G1 X0.
G2 Y0.417 I0. J0.0299
G1 X1.0512
G3 Y0.4769 I0. J0.0299
G1 X0.
G2 Y0.5367 I0. J0.0299
G1 X1.0512
G3 Y0.5966 I0. J0.0299
G1 X0.
G2 Y0.6564 I0. J0.0299
G1 X1.0512
G3 Y0.7163 I0. J0.0299
G1 X0.
G2 Y0.7762 I0. J0.0299
G1 X1.0512
G3 Y0.836 I0. J0.0299
G1 X0.
G2 Y0.8959 I0. J0.0299
G1 X1.0512
G3 Y0.9557 I0. J0.0299
G1 X0.
G0 Z0.05
X-0.0685 Y-0.002
G1 Z-0.2629 F5.
X0.
X1.0512 F59.
G3 Y0.0578 I0. J0.0299
G1 X0.
G2 Y0.1177 I0. J0.0299
G1 X1.0512
G3 Y0.1776 I0. J0.0299
G1 X0.
G2 Y0.2374 I0. J0.0299
G1 X1.0512
G3 Y0.2973 I0. J0.0299
G1 X0.
G2 Y0.3571 I0. J0.0299
G1 X1.0512
G3 Y0.417 I0. J0.0299
G1 X0.
G2 Y0.4769 I0. J0.0299
G1 X1.0512
G3 Y0.5367 I0. J0.0299
G1 X0.
G2 Y0.5966 I0. J0.0299
G1 X1.0512
G3 Y0.6564 I0. J0.0299
G1 X0.
G2 Y0.7163 I0. J0.0299
G1 X1.0512
G3 Y0.7762 I0. J0.0299
G1 X0.
G2 Y0.836 I0. J0.0299
G1 X1.0512
G3 Y0.8959 I0. J0.0299
G1 X0.
G2 Y0.9557 I0. J0.0299
G1 X1.0512
G0 Z0.05
X1.1197 Y-0.002
G1 Z-0.2649 F5.
X1.0512
X0. F59.
G2 Y0.0578 I0. J0.0299
G1 X1.0512
G3 Y0.1177 I0. J0.0299
G1 X0.
G2 Y0.1776 I0. J0.0299
G1 X1.0512
G3 Y0.2374 I0. J0.0299
G1 X0.
G2 Y0.2973 I0. J0.0299
G1 X1.0512
G3 Y0.3571 I0. J0.0299
G1 X0.
G2 Y0.417 I0. J0.0299
G1 X1.0512
G3 Y0.4769 I0. J0.0299
G1 X0.
G2 Y0.5367 I0. J0.0299
G1 X1.0512
G3 Y0.5966 I0. J0.0299
G1 X0.
G2 Y0.6564 I0. J0.0299
G1 X1.0512
G3 Y0.7163 I0. J0.0299
G1 X0.
G2 Y0.7762 I0. J0.0299
G1 X1.0512
G3 Y0.836 I0. J0.0299
G1 X0.
G2 Y0.8959 I0. J0.0299
G1 X1.0512
G3 Y0.9557 I0. J0.0299
G1 X0.
G0 Z0.05
X-0.0685 Y-0.002
G1 Z-0.2669 F5.
X0.
X1.0512 F59.
G3 Y0.0578 I0. J0.0299
G1 X0.
G2 Y0.1177 I0. J0.0299
G1 X1.0512
G3 Y0.1776 I0. J0.0299
G1 X0.
G2 Y0.2374 I0. J0.0299
G1 X1.0512
G3 Y0.2973 I0. J0.0299
G1 X0.
G2 Y0.3571 I0. J0.0299
G1 X1.0512
G3 Y0.417 I0. J0.0299
G1 X0.
G2 Y0.4769 I0. J0.0299
G1 X1.0512
G3 Y0.5367 I0. J0.0299
G1 X0.
G2 Y0.5966 I0. J0.0299
G1 X1.0512
G3 Y0.6564 I0. J0.0299
G1 X0.
G2 Y0.7163 I0. J0.0299
G1 X1.0512
G3 Y0.7762 I0. J0.0299
G1 X0.
G2 Y0.836 I0. J0.0299
G1 X1.0512
G3 Y0.8959 I0. J0.0299
G1 X0.
G2 Y0.9557 I0. J0.0299
G1 X1.0512
G0 Z0.05
X1.1197 Y-0.002
G1 Z-0.2689 F5.
X1.0512
X0. F59.
G2 Y0.0578 I0. J0.0299
G1 X1.0512
G3 Y0.1177 I0. J0.0299
G1 X0.
G2 Y0.1776 I0. J0.0299
G1 X1.0512
G3 Y0.2374 I0. J0.0299
G1 X0.
G2 Y0.2973 I0. J0.0299
G1 X1.0512
G3 Y0.3571 I0. J0.0299
G1 X0.
G2 Y0.417 I0. J0.0299
G1 X1.0512
G3 Y0.4769 I0. J0.0299
G1 X0.
G2 Y0.5367 I0. J0.0299
G1 X1.0512
G3 Y0.5966 I0. J0.0299
G1 X0.
G2 Y0.6564 I0. J0.0299
G1 X1.0512
G3 Y0.7163 I0. J0.0299
G1 X0.
G2 Y0.7762 I0. J0.0299
G1 X1.0512
G3 Y0.836 I0. J0.0299
G1 X0.
G2 Y0.8959 I0. J0.0299
G1 X1.0512
G3 Y0.9557 I0. J0.0299
G1 X0.
G0 Z0.05
X-0.0685 Y-0.002
G1 Z-0.2709 F5.
X0.
X1.0512 F59.
G3 Y0.0578 I0. J0.0299
G1 X0.
G2 Y0.1177 I0. J0.0299
G1 X1.0512
G3 Y0.1776 I0. J0.0299
G1 X0.
G2 Y0.2374 I0. J0.0299
G1 X1.0512
G3 Y0.2973 I0. J0.0299
G1 X0.
G2 Y0.3571 I0. J0.0299
G1 X1.0512
G3 Y0.417 I0. J0.0299
G1 X0.
G2 Y0.4769 I0. J0.0299
G1 X1.0512
G3 Y0.5367 I0. J0.0299
G1 X0.
G2 Y0.5966 I0. J0.0299
G1 X1.0512
G3 Y0.6564 I0. J0.0299
G1 X0.
G2 Y0.7163 I0. J0.0299
G1 X1.0512
G3 Y0.7762 I0. J0.0299
G1 X0.
G2 Y0.836 I0. J0.0299
G1 X1.0512
G3 Y0.8959 I0. J0.0299
G1 X0.
G2 Y0.9557 I0. J0.0299
G1 X1.0512
G0 Z0.05
X1.1197 Y-0.002
G1 Z-0.2729 F5.
X1.0512
X0. F59.
G2 Y0.0578 I0. J0.0299
G1 X1.0512
G3 Y0.1177 I0. J0.0299
G1 X0.
G2 Y0.1776 I0. J0.0299
G1 X1.0512
G3 Y0.2374 I0. J0.0299
G1 X0.
G2 Y0.2973 I0. J0.0299
G1 X1.0512
G3 Y0.3571 I0. J0.0299
G1 X0.
G2 Y0.417 I0. J0.0299
G1 X1.0512
G3 Y0.4769 I0. J0.0299
G1 X0.
G2 Y0.5367 I0. J0.0299
G1 X1.0512
G3 Y0.5966 I0. J0.0299
G1 X0.
G2 Y0.6564 I0. J0.0299
G1 X1.0512
G3 Y0.7163 I0. J0.0299
G1 X0.
G2 Y0.7762 I0. J0.0299
G1 X1.0512
G3 Y0.836 I0. J0.0299
G1 X0.
G2 Y0.8959 I0. J0.0299
G1 X1.0512
G3 Y0.9557 I0. J0.0299
G1 X0.
G0 Z0.05
X-0.0685 Y-0.002
G1 Z-0.2749 F5.
X0.
X1.0512 F59.
G3 Y0.0578 I0. J0.0299
G1 X0.
G2 Y0.1177 I0. J0.0299
G1 X1.0512
G3 Y0.1776 I0. J0.0299
G1 X0.
G2 Y0.2374 I0. J0.0299
G1 X1.0512
G3 Y0.2973 I0. J0.0299
G1 X0.
G2 Y0.3571 I0. J0.0299
G1 X1.0512
G3 Y0.417 I0. J0.0299
G1 X0.
G2 Y0.4769 I0. J0.0299
G1 X1.0512
G3 Y0.5367 I0. J0.0299
G1 X0.
G2 Y0.5966 I0. J0.0299
G1 X1.0512
G3 Y0.6564 I0. J0.0299
G1 X0.
G2 Y0.7163 I0. J0.0299
G1 X1.0512
G3 Y0.7762 I0. J0.0299
G1 X0.
G2 Y0.836 I0. J0.0299
G1 X1.0512
G3 Y0.8959 I0. J0.0299
G1 X0.
G2 Y0.9557 I0. J0.0299
G1 X1.0512
G0 Z0.05
X1.1197 Y-0.002
G1 Z-0.2769 F5.
X1.0512
X0. F59.
G2 Y0.0578 I0. J0.0299
G1 X1.0512
G3 Y0.1177 I0. J0.0299
G1 X0.
G2 Y0.1776 I0. J0.0299
G1 X1.0512
G3 Y0.2374 I0. J0.0299
G1 X0.
G2 Y0.2973 I0. J0.0299
G1 X1.0512
G3 Y0.3571 I0. J0.0299
G1 X0.
G2 Y0.417 I0. J0.0299
G1 X1.0512
G3 Y0.4769 I0. J0.0299
G1 X0.
G2 Y0.5367 I0. J0.0299
G1 X1.0512
G3 Y0.5966 I0. J0.0299
G1 X0.
G2 Y0.6564 I0. J0.0299
G1 X1.0512
G3 Y0.7163 I0. J0.0299
G1 X0.
G2 Y0.7762 I0. J0.0299
G1 X1.0512
G3 Y0.836 I0. J0.0299
G1 X0.
G2 Y0.8959 I0. J0.0299
G1 X1.0512
G3 Y0.9557 I0. J0.0299
G1 X0.
G0 Z0.05
X-0.0685 Y-0.002
G1 Z-0.2789 F5.
X0.
X1.0512 F59.
G3 Y0.0578 I0. J0.0299
G1 X0.
G2 Y0.1177 I0. J0.0299
G1 X1.0512
G3 Y0.1776 I0. J0.0299
G1 X0.
G2 Y0.2374 I0. J0.0299
G1 X1.0512
G3 Y0.2973 I0. J0.0299
G1 X0.
G2 Y0.3571 I0. J0.0299
G1 X1.0512
G3 Y0.417 I0. J0.0299
G1 X0.
G2 Y0.4769 I0. J0.0299
G1 X1.0512
G3 Y0.5367 I0. J0.0299
G1 X0.
G2 Y0.5966 I0. J0.0299
G1 X1.0512
G3 Y0.6564 I0. J0.0299
G1 X0.
G2 Y0.7163 I0. J0.0299
G1 X1.0512
G3 Y0.7762 I0. J0.0299
G1 X0.
G2 Y0.836 I0. J0.0299
G1 X1.0512
G3 Y0.8959 I0. J0.0299
G1 X0.
G2 Y0.9557 I0. J0.0299
G1 X1.0512
G0 Z0.05
X1.1197 Y-0.002
G1 Z-0.2809 F5.
X1.0512
X0. F59.
G2 Y0.0578 I0. J0.0299
G1 X1.0512
G3 Y0.1177 I0. J0.0299
G1 X0.
G2 Y0.1776 I0. J0.0299
G1 X1.0512
G3 Y0.2374 I0. J0.0299
G1 X0.
G2 Y0.2973 I0. J0.0299
G1 X1.0512
G3 Y0.3571 I0. J0.0299
G1 X0.
G2 Y0.417 I0. J0.0299
G1 X1.0512
G3 Y0.4769 I0. J0.0299
G1 X0.
G2 Y0.5367 I0. J0.0299
G1 X1.0512
G3 Y0.5966 I0. J0.0299
G1 X0.
G2 Y0.6564 I0. J0.0299
G1 X1.0512
G3 Y0.7163 I0. J0.0299
G1 X0.
G2 Y0.7762 I0. J0.0299
G1 X1.0512
G3 Y0.836 I0. J0.0299
G1 X0.
G2 Y0.8959 I0. J0.0299
G1 X1.0512
G3 Y0.9557 I0. J0.0299
G1 X0.
G0 Z0.05
X-0.0685 Y-0.002
G1 Z-0.2829 F5.
X0.
X1.0512 F59.
G3 Y0.0578 I0. J0.0299
G1 X0.
G2 Y0.1177 I0. J0.0299
G1 X1.0512
G3 Y0.1776 I0. J0.0299
G1 X0.
G2 Y0.2374 I0. J0.0299
G1 X1.0512
G3 Y0.2973 I0. J0.0299
G1 X0.
G2 Y0.3571 I0. J0.0299
G1 X1.0512
G3 Y0.417 I0. J0.0299
G1 X0.
G2 Y0.4769 I0. J0.0299
G1 X1.0512
G3 Y0.5367 I0. J0.0299
G1 X0.
G2 Y0.5966 I0. J0.0299
G1 X1.0512
G3 Y0.6564 I0. J0.0299
G1 X0.
G2 Y0.7163 I0. J0.0299
G1 X1.0512
G3 Y0.7762 I0. J0.0299
G1 X0.
G2 Y0.836 I0. J0.0299
G1 X1.0512
G3 Y0.8959 I0. J0.0299
G1 X0.
G2 Y0.9557 I0. J0.0299
G1 X1.0512
G0 Z0.05
X1.1197 Y-0.002
G1 Z-0.2849 F5.
X1.0512
X0. F59.
G2 Y0.0578 I0. J0.0299
G1 X1.0512
G3 Y0.1177 I0. J0.0299
G1 X0.
G2 Y0.1776 I0. J0.0299
G1 X1.0512
G3 Y0.2374 I0. J0.0299
G1 X0.
G2 Y0.2973 I0. J0.0299
G1 X1.0512
G3 Y0.3571 I0. J0.0299
G1 X0.
G2 Y0.417 I0. J0.0299
G1 X1.0512
G3 Y0.4769 I0. J0.0299
G1 X0.
G2 Y0.5367 I0. J0.0299
G1 X1.0512
G3 Y0.5966 I0. J0.0299
G1 X0.
G2 Y0.6564 I0. J0.0299
G1 X1.0512
G3 Y0.7163 I0. J0.0299
G1 X0.
G2 Y0.7762 I0. J0.0299
G1 X1.0512
G3 Y0.836 I0. J0.0299
G1 X0.
G2 Y0.8959 I0. J0.0299
G1 X1.0512
G3 Y0.9557 I0. J0.0299
G1 X0.
G0 Z0.05
X-0.0685 Y-0.002
G1 Z-0.2869 F5.
X0.
X1.0512 F59.
G3 Y0.0578 I0. J0.0299
G1 X0.
G2 Y0.1177 I0. J0.0299
G1 X1.0512
G3 Y0.1776 I0. J0.0299
G1 X0.
G2 Y0.2374 I0. J0.0299
G1 X1.0512
G3 Y0.2973 I0. J0.0299
G1 X0.
G2 Y0.3571 I0. J0.0299
G1 X1.0512
G3 Y0.417 I0. J0.0299
G1 X0.
G2 Y0.4769 I0. J0.0299
G1 X1.0512
G3 Y0.5367 I0. J0.0299
G1 X0.
G2 Y0.5966 I0. J0.0299
G1 X1.0512
G3 Y0.6564 I0. J0.0299
G1 X0.
G2 Y0.7163 I0. J0.0299
G1 X1.0512
G3 Y0.7762 I0. J0.0299
G1 X0.
G2 Y0.836 I0. J0.0299
G1 X1.0512
G3 Y0.8959 I0. J0.0299
G1 X0.
G2 Y0.9557 I0. J0.0299
G1 X1.0512
G0 Z0.05
X1.1197 Y-0.002
G1 Z-0.2889 F5.
X1.0512
X0. F59.
G2 Y0.0578 I0. J0.0299
G1 X1.0512
G3 Y0.1177 I0. J0.0299
G1 X0.
G2 Y0.1776 I0. J0.0299
G1 X1.0512
G3 Y0.2374 I0. J0.0299
G1 X0.
G2 Y0.2973 I0. J0.0299
G1 X1.0512
G3 Y0.3571 I0. J0.0299
G1 X0.
G2 Y0.417 I0. J0.0299
G1 X1.0512
G3 Y0.4769 I0. J0.0299
G1 X0.
G2 Y0.5367 I0. J0.0299
G1 X1.0512
G3 Y0.5966 I0. J0.0299
G1 X0.
G2 Y0.6564 I0. J0.0299
G1 X1.0512
G3 Y0.7163 I0. J0.0299
G1 X0.
G2 Y0.7762 I0. J0.0299
G1 X1.0512
G3 Y0.836 I0. J0.0299
G1 X0.
G2 Y0.8959 I0. J0.0299
G1 X1.0512
G3 Y0.9557 I0. J0.0299
G1 X0.
G0 Z0.05
X-0.0685 Y-0.002
G1 Z-0.2909 F5.
X0.
X1.0512 F59.
G3 Y0.0578 I0. J0.0299
G1 X0.
G2 Y0.1177 I0. J0.0299
G1 X1.0512
G3 Y0.1776 I0. J0.0299
G1 X0.
G2 Y0.2374 I0. J0.0299
G1 X1.0512
G3 Y0.2973 I0. J0.0299
G1 X0.
G2 Y0.3571 I0. J0.0299
G1 X1.0512
G3 Y0.417 I0. J0.0299
G1 X0.
G2 Y0.4769 I0. J0.0299
G1 X1.0512
G3 Y0.5367 I0. J0.0299
G1 X0.
G2 Y0.5966 I0. J0.0299
G1 X1.0512
G3 Y0.6564 I0. J0.0299
G1 X0.
G2 Y0.7163 I0. J0.0299
G1 X1.0512
G3 Y0.7762 I0. J0.0299
G1 X0.
G2 Y0.836 I0. J0.0299
G1 X1.0512
G3 Y0.8959 I0. J0.0299
G1 X0.
G2 Y0.9557 I0. J0.0299
G1 X1.0512
G0 Z0.05
X1.1197 Y-0.002
G1 Z-0.2929 F5.
X1.0512
X0. F59.
G2 Y0.0578 I0. J0.0299
G1 X1.0512
G3 Y0.1177 I0. J0.0299
G1 X0.
G2 Y0.1776 I0. J0.0299
G1 X1.0512
G3 Y0.2374 I0. J0.0299
G1 X0.
G2 Y0.2973 I0. J0.0299
G1 X1.0512
G3 Y0.3571 I0. J0.0299
G1 X0.
G2 Y0.417 I0. J0.0299
G1 X1.0512
G3 Y0.4769 I0. J0.0299
G1 X0.
G2 Y0.5367 I0. J0.0299
G1 X1.0512
G3 Y0.5966 I0. J0.0299
G1 X0.
G2 Y0.6564 I0. J0.0299
G1 X1.0512
G3 Y0.7163 I0. J0.0299
G1 X0.
G2 Y0.7762 I0. J0.0299
G1 X1.0512
G3 Y0.836 I0. J0.0299
G1 X0.
G2 Y0.8959 I0. J0.0299
G1 X1.0512
G3 Y0.9557 I0. J0.0299
G1 X0.
G0 Z0.05
X-0.0685 Y-0.002
G1 Z-0.2949 F5.
X0.
X1.0512 F59.
G3 Y0.0578 I0. J0.0299
G1 X0.
G2 Y0.1177 I0. J0.0299
G1 X1.0512
G3 Y0.1776 I0. J0.0299
G1 X0.
G2 Y0.2374 I0. J0.0299
G1 X1.0512
G3 Y0.2973 I0. J0.0299
G1 X0.
G2 Y0.3571 I0. J0.0299
G1 X1.0512
G3 Y0.417 I0. J0.0299
G1 X0.
G2 Y0.4769 I0. J0.0299
G1 X1.0512
G3 Y0.5367 I0. J0.0299
G1 X0.
G2 Y0.5966 I0. J0.0299
G1 X1.0512
G3 Y0.6564 I0. J0.0299
G1 X0.
G2 Y0.7163 I0. J0.0299
G1 X1.0512
G3 Y0.7762 I0. J0.0299
G1 X0.
G2 Y0.836 I0. J0.0299
G1 X1.0512
G3 Y0.8959 I0. J0.0299
G1 X0.
G2 Y0.9557 I0. J0.0299
G1 X1.0512
G0 Z0.05
X1.1197 Y-0.002
G1 Z-0.2969 F5.
X1.0512
X0. F59.
G2 Y0.0578 I0. J0.0299
G1 X1.0512
G3 Y0.1177 I0. J0.0299
G1 X0.
G2 Y0.1776 I0. J0.0299
G1 X1.0512
G3 Y0.2374 I0. J0.0299
G1 X0.
G2 Y0.2973 I0. J0.0299
G1 X1.0512
G3 Y0.3571 I0. J0.0299
G1 X0.
G2 Y0.417 I0. J0.0299
G1 X1.0512
G3 Y0.4769 I0. J0.0299
G1 X0.
G2 Y0.5367 I0. J0.0299
G1 X1.0512
G3 Y0.5966 I0. J0.0299
G1 X0.
G2 Y0.6564 I0. J0.0299
G1 X1.0512
G3 Y0.7163 I0. J0.0299
G1 X0.
G2 Y0.7762 I0. J0.0299
G1 X1.0512
G3 Y0.836 I0. J0.0299
G1 X0.
G2 Y0.8959 I0. J0.0299
G1 X1.0512
G3 Y0.9557 I0. J0.0299
G1 X0.
G0 Z0.05
X-0.0685 Y-0.002
G1 Z-0.2989 F5.
X0.
X1.0512 F59.
G3 Y0.0578 I0. J0.0299
G1 X0.
G2 Y0.1177 I0. J0.0299
G1 X1.0512
G3 Y0.1776 I0. J0.0299
G1 X0.
G2 Y0.2374 I0. J0.0299
G1 X1.0512
G3 Y0.2973 I0. J0.0299
G1 X0.
G2 Y0.3571 I0. J0.0299
G1 X1.0512
G3 Y0.417 I0. J0.0299
G1 X0.
G2 Y0.4769 I0. J0.0299
G1 X1.0512
G3 Y0.5367 I0. J0.0299
G1 X0.
G2 Y0.5966 I0. J0.0299
G1 X1.0512
G3 Y0.6564 I0. J0.0299
G1 X0.
G2 Y0.7163 I0. J0.0299
G1 X1.0512
G3 Y0.7762 I0. J0.0299
G1 X0.
G2 Y0.836 I0. J0.0299
G1 X1.0512
G3 Y0.8959 I0. J0.0299
G1 X0.
G2 Y0.9557 I0. J0.0299
G1 X1.0512
G0 Z0.05
X1.1197 Y-0.002
G1 Z-0.3009 F5.
X1.0512
X0. F59.
G2 Y0.0578 I0. J0.0299
G1 X1.0512
G3 Y0.1177 I0. J0.0299
G1 X0.
G2 Y0.1776 I0. J0.0299
G1 X1.0512
G3 Y0.2374 I0. J0.0299
G1 X0.
G2 Y0.2973 I0. J0.0299
G1 X1.0512
G3 Y0.3571 I0. J0.0299
G1 X0.
G2 Y0.417 I0. J0.0299
G1 X1.0512
G3 Y0.4769 I0. J0.0299
G1 X0.
G2 Y0.5367 I0. J0.0299
G1 X1.0512
G3 Y0.5966 I0. J0.0299
G1 X0.
G2 Y0.6564 I0. J0.0299
G1 X1.0512
G3 Y0.7163 I0. J0.0299
G1 X0.
G2 Y0.7762 I0. J0.0299
G1 X1.0512
G3 Y0.836 I0. J0.0299
G1 X0.
G2 Y0.8959 I0. J0.0299
G1 X1.0512
G3 Y0.9557 I0. J0.0299
G1 X0.
G0 Z0.05
X-0.0685 Y-0.002
G1 Z-0.3029 F5.
X0.
X1.0512 F59.
G3 Y0.0578 I0. J0.0299
G1 X0.
G2 Y0.1177 I0. J0.0299
G1 X1.0512
G3 Y0.1776 I0. J0.0299
G1 X0.
G2 Y0.2374 I0. J0.0299
G1 X1.0512
G3 Y0.2973 I0. J0.0299
G1 X0.
G2 Y0.3571 I0. J0.0299
G1 X1.0512
G3 Y0.417 I0. J0.0299
G1 X0.
G2 Y0.4769 I0. J0.0299
G1 X1.0512
G3 Y0.5367 I0. J0.0299
G1 X0.
G2 Y0.5966 I0. J0.0299
G1 X1.0512
G3 Y0.6564 I0. J0.0299
G1 X0.
G2 Y0.7163 I0. J0.0299
G1 X1.0512
G3 Y0.7762 I0. J0.0299
G1 X0.
G2 Y0.836 I0. J0.0299
G1 X1.0512
G3 Y0.8959 I0. J0.0299
G1 X0.
G2 Y0.9557 I0. J0.0299
G1 X1.0512
G0 Z0.05
X1.1197 Y-0.002
G1 Z-0.3049 F5.
X1.0512
X0. F59.
G2 Y0.0578 I0. J0.0299
G1 X1.0512
G3 Y0.1177 I0. J0.0299
G1 X0.
G2 Y0.1776 I0. J0.0299
G1 X1.0512
G3 Y0.2374 I0. J0.0299
G1 X0.
G2 Y0.2973 I0. J0.0299
G1 X1.0512
G3 Y0.3571 I0. J0.0299
G1 X0.
G2 Y0.417 I0. J0.0299
G1 X1.0512
G3 Y0.4769 I0. J0.0299
G1 X0.
G2 Y0.5367 I0. J0.0299
G1 X1.0512
G3 Y0.5966 I0. J0.0299
G1 X0.
G2 Y0.6564 I0. J0.0299
G1 X1.0512
G3 Y0.7163 I0. J0.0299
G1 X0.
G2 Y0.7762 I0. J0.0299
G1 X1.0512
G3 Y0.836 I0. J0.0299
G1 X0.
G2 Y0.8959 I0. J0.0299
G1 X1.0512
G3 Y0.9557 I0. J0.0299
G1 X0.
G0 Z0.05
X-0.0685 Y-0.002
G1 Z-0.3069 F5.
X0.
X1.0512 F59.
G3 Y0.0578 I0. J0.0299
G1 X0.
G2 Y0.1177 I0. J0.0299
G1 X1.0512
G3 Y0.1776 I0. J0.0299
G1 X0.
G2 Y0.2374 I0. J0.0299
G1 X1.0512
G3 Y0.2973 I0. J0.0299
G1 X0.
G2 Y0.3571 I0. J0.0299
G1 X1.0512
G3 Y0.417 I0. J0.0299
G1 X0.
G2 Y0.4769 I0. J0.0299
G1 X1.0512
G3 Y0.5367 I0. J0.0299
G1 X0.
G2 Y0.5966 I0. J0.0299
G1 X1.0512
G3 Y0.6564 I0. J0.0299
G1 X0.
G2 Y0.7163 I0. J0.0299
G1 X1.0512
G3 Y0.7762 I0. J0.0299
G1 X0.
G2 Y0.836 I0. J0.0299
G1 X1.0512
G3 Y0.8959 I0. J0.0299
G1 X0.
G2 Y0.9557 I0. J0.0299
G1 X1.0512
G0 Z0.05
X1.1197 Y-0.002
G1 Z-0.3089 F5.
X1.0512
X0. F59.
G2 Y0.0578 I0. J0.0299
G1 X1.0512
G3 Y0.1177 I0. J0.0299
G1 X0.
G2 Y0.1776 I0. J0.0299
G1 X1.0512
G3 Y0.2374 I0. J0.0299
G1 X0.
G2 Y0.2973 I0. J0.0299
G1 X1.0512
G3 Y0.3571 I0. J0.0299
G1 X0.
G2 Y0.417 I0. J0.0299
G1 X1.0512
G3 Y0.4769 I0. J0.0299
G1 X0.
G2 Y0.5367 I0. J0.0299
G1 X1.0512
G3 Y0.5966 I0. J0.0299
G1 X0.
G2 Y0.6564 I0. J0.0299
G1 X1.0512
G3 Y0.7163 I0. J0.0299
G1 X0.
G2 Y0.7762 I0. J0.0299
G1 X1.0512
G3 Y0.836 I0. J0.0299
G1 X0.
G2 Y0.8959 I0. J0.0299
G1 X1.0512
G3 Y0.9557 I0. J0.0299
G1 X0.
G0 Z0.05
X-0.0685 Y-0.002
G1 Z-0.3109 F5.
X0.
X1.0512 F59.
G3 Y0.0578 I0. J0.0299
G1 X0.
G2 Y0.1177 I0. J0.0299
G1 X1.0512
G3 Y0.1776 I0. J0.0299
G1 X0.
G2 Y0.2374 I0. J0.0299
G1 X1.0512
G3 Y0.2973 I0. J0.0299
G1 X0.
G2 Y0.3571 I0. J0.0299
G1 X1.0512
G3 Y0.417 I0. J0.0299
G1 X0.
G2 Y0.4769 I0. J0.0299
G1 X1.0512
G3 Y0.5367 I0. J0.0299
G1 X0.
G2 Y0.5966 I0. J0.0299
G1 X1.0512
G3 Y0.6564 I0. J0.0299
G1 X0.
G2 Y0.7163 I0. J0.0299
G1 X1.0512
G3 Y0.7762 I0. J0.0299
G1 X0.
G2 Y0.836 I0. J0.0299
G1 X1.0512
G3 Y0.8959 I0. J0.0299
G1 X0.
G2 Y0.9557 I0. J0.0299
G1 X1.0512
G0 Z0.05
X1.1197 Y-0.002
G1 Z-0.3129 F5.
X1.0512
X0. F59.
G2 Y0.0578 I0. J0.0299
G1 X1.0512
G3 Y0.1177 I0. J0.0299
G1 X0.
G2 Y0.1776 I0. J0.0299
G1 X1.0512
G3 Y0.2374 I0. J0.0299
G1 X0.
G2 Y0.2973 I0. J0.0299
G1 X1.0512
G3 Y0.3571 I0. J0.0299
G1 X0.
G2 Y0.417 I0. J0.0299
G1 X1.0512
G3 Y0.4769 I0. J0.0299
G1 X0.
G2 Y0.5367 I0. J0.0299
G1 X1.0512
G3 Y0.5966 I0. J0.0299
G1 X0.
G2 Y0.6564 I0. J0.0299
G1 X1.0512
G3 Y0.7163 I0. J0.0299
G1 X0.
G2 Y0.7762 I0. J0.0299
G1 X1.0512
G3 Y0.836 I0. J0.0299
G1 X0.
G2 Y0.8959 I0. J0.0299
G1 X1.0512
G3 Y0.9557 I0. J0.0299
G1 X0.
G0 Z0.05
X-0.0685 Y-0.002
G1 Z-0.3149 F5.
X0.
X1.0512 F59.
G3 Y0.0578 I0. J0.0299
G1 X0.
G2 Y0.1177 I0. J0.0299
G1 X1.0512
G3 Y0.1776 I0. J0.0299
G1 X0.
G2 Y0.2374 I0. J0.0299
G1 X1.0512
G3 Y0.2973 I0. J0.0299
G1 X0.
G2 Y0.3571 I0. J0.0299
G1 X1.0512
G3 Y0.417 I0. J0.0299
G1 X0.
G2 Y0.4769 I0. J0.0299
G1 X1.0512
G3 Y0.5367 I0. J0.0299
G1 X0.
G2 Y0.5966 I0. J0.0299
G1 X1.0512
G3 Y0.6564 I0. J0.0299
G1 X0.
G2 Y0.7163 I0. J0.0299
G1 X1.0512
G3 Y0.7762 I0. J0.0299
G1 X0.
G2 Y0.836 I0. J0.0299
G1 X1.0512
G3 Y0.8959 I0. J0.0299
G1 X0.
G2 Y0.9557 I0. J0.0299
G1 X1.0512
G0 Z0.05
X1.1197 Y-0.002
G1 Z-0.3169 F5.
X1.0512
X0. F59.
G2 Y0.0578 I0. J0.0299
G1 X1.0512
G3 Y0.1177 I0. J0.0299
G1 X0.
G2 Y0.1776 I0. J0.0299
G1 X1.0512
G3 Y0.2374 I0. J0.0299
G1 X0.
G2 Y0.2973 I0. J0.0299
G1 X1.0512
G3 Y0.3571 I0. J0.0299
G1 X0.
G2 Y0.417 I0. J0.0299
G1 X1.0512
G3 Y0.4769 I0. J0.0299
G1 X0.
G2 Y0.5367 I0. J0.0299
G1 X1.0512
G3 Y0.5966 I0. J0.0299
G1 X0.
G2 Y0.6564 I0. J0.0299
G1 X1.0512
G3 Y0.7163 I0. J0.0299
G1 X0.
G2 Y0.7762 I0. J0.0299
G1 X1.0512
G3 Y0.836 I0. J0.0299
G1 X0.
G2 Y0.8959 I0. J0.0299
G1 X1.0512
G3 Y0.9557 I0. J0.0299
G1 X0.
G0 Z0.05
X-0.0685 Y-0.002
G1 Z-0.3189 F5.
X0.
X1.0512 F59.
G3 Y0.0578 I0. J0.0299
G1 X0.
G2 Y0.1177 I0. J0.0299
G1 X1.0512
G3 Y0.1776 I0. J0.0299
G1 X0.
G2 Y0.2374 I0. J0.0299
G1 X1.0512
G3 Y0.2973 I0. J0.0299
G1 X0.
G2 Y0.3571 I0. J0.0299
G1 X1.0512
G3 Y0.417 I0. J0.0299
G1 X0.
G2 Y0.4769 I0. J0.0299
G1 X1.0512
G3 Y0.5367 I0. J0.0299
G1 X0.
G2 Y0.5966 I0. J0.0299
G1 X1.0512
G3 Y0.6564 I0. J0.0299
G1 X0.
G2 Y0.7163 I0. J0.0299
G1 X1.0512
G3 Y0.7762 I0. J0.0299
G1 X0.
G2 Y0.836 I0. J0.0299
G1 X1.0512
G3 Y0.8959 I0. J0.0299
G1 X0.
G2 Y0.9557 I0. J0.0299
G1 X1.0512
G0 Z0.05
X1.1197 Y-0.002
G1 Z-0.3209 F5.
X1.0512
X0. F59.
G2 Y0.0578 I0. J0.0299
G1 X1.0512
G3 Y0.1177 I0. J0.0299
G1 X0.
G2 Y0.1776 I0. J0.0299
G1 X1.0512
G3 Y0.2374 I0. J0.0299
G1 X0.
G2 Y0.2973 I0. J0.0299
G1 X1.0512
G3 Y0.3571 I0. J0.0299
G1 X0.
G2 Y0.417 I0. J0.0299
G1 X1.0512
G3 Y0.4769 I0. J0.0299
G1 X0.
G2 Y0.5367 I0. J0.0299
G1 X1.0512
G3 Y0.5966 I0. J0.0299
G1 X0.
G2 Y0.6564 I0. J0.0299
G1 X1.0512
G3 Y0.7163 I0. J0.0299
G1 X0.
G2 Y0.7762 I0. J0.0299
G1 X1.0512
G3 Y0.836 I0. J0.0299
G1 X0.
G2 Y0.8959 I0. J0.0299
G1 X1.0512
G3 Y0.9557 I0. J0.0299
G1 X0.
G0 Z0.05
X-0.0685 Y-0.002
G1 Z-0.3229 F5.
X0.
X1.0512 F59.
G3 Y0.0578 I0. J0.0299
G1 X0.
G2 Y0.1177 I0. J0.0299
G1 X1.0512
G3 Y0.1776 I0. J0.0299
G1 X0.
G2 Y0.2374 I0. J0.0299
G1 X1.0512
G3 Y0.2973 I0. J0.0299
G1 X0.
G2 Y0.3571 I0. J0.0299
G1 X1.0512
G3 Y0.417 I0. J0.0299
G1 X0.
G2 Y0.4769 I0. J0.0299
G1 X1.0512
G3 Y0.5367 I0. J0.0299
G1 X0.
G2 Y0.5966 I0. J0.0299
G1 X1.0512
G3 Y0.6564 I0. J0.0299
G1 X0.
G2 Y0.7163 I0. J0.0299
G1 X1.0512
G3 Y0.7762 I0. J0.0299
G1 X0.
G2 Y0.836 I0. J0.0299
G1 X1.0512
G3 Y0.8959 I0. J0.0299
G1 X0.
G2 Y0.9557 I0. J0.0299
G1 X1.0512
G0 Z0.05
X1.1197 Y-0.002
G1 Z-0.3249 F5.
X1.0512
X0. F59.
G2 Y0.0578 I0. J0.0299
G1 X1.0512
G3 Y0.1177 I0. J0.0299
G1 X0.
G2 Y0.1776 I0. J0.0299
G1 X1.0512
G3 Y0.2374 I0. J0.0299
G1 X0.
G2 Y0.2973 I0. J0.0299
G1 X1.0512
G3 Y0.3571 I0. J0.0299
G1 X0.
G2 Y0.417 I0. J0.0299
G1 X1.0512
G3 Y0.4769 I0. J0.0299
G1 X0.
G2 Y0.5367 I0. J0.0299
G1 X1.0512
G3 Y0.5966 I0. J0.0299
G1 X0.
G2 Y0.6564 I0. J0.0299
G1 X1.0512
G3 Y0.7163 I0. J0.0299
G1 X0.
G2 Y0.7762 I0. J0.0299
G1 X1.0512
G3 Y0.836 I0. J0.0299
G1 X0.
G2 Y0.8959 I0. J0.0299
G1 X1.0512
G3 Y0.9557 I0. J0.0299
G1 X0.
G0 Z0.05
X-0.0685 Y-0.002
G1 Z-0.3269 F5.
X0.
X1.0512 F59.
G3 Y0.0578 I0. J0.0299
G1 X0.
G2 Y0.1177 I0. J0.0299
G1 X1.0512
G3 Y0.1776 I0. J0.0299
G1 X0.
G2 Y0.2374 I0. J0.0299
G1 X1.0512
G3 Y0.2973 I0. J0.0299
G1 X0.
G2 Y0.3571 I0. J0.0299
G1 X1.0512
G3 Y0.417 I0. J0.0299
G1 X0.
G2 Y0.4769 I0. J0.0299
G1 X1.0512
G3 Y0.5367 I0. J0.0299
G1 X0.
G2 Y0.5966 I0. J0.0299
G1 X1.0512
G3 Y0.6564 I0. J0.0299
G1 X0.
G2 Y0.7163 I0. J0.0299
G1 X1.0512
G3 Y0.7762 I0. J0.0299
G1 X0.
G2 Y0.836 I0. J0.0299
G1 X1.0512
G3 Y0.8959 I0. J0.0299
G1 X0.
G2 Y0.9557 I0. J0.0299
G1 X1.0512
G0 Z0.05
X1.1197 Y-0.002
G1 Z-0.3289 F5.
X1.0512
X0. F59.
G2 Y0.0578 I0. J0.0299
G1 X1.0512
G3 Y0.1177 I0. J0.0299
G1 X0.
G2 Y0.1776 I0. J0.0299
G1 X1.0512
G3 Y0.2374 I0. J0.0299
G1 X0.
G2 Y0.2973 I0. J0.0299
G1 X1.0512
G3 Y0.3571 I0. J0.0299
G1 X0.
G2 Y0.417 I0. J0.0299
G1 X1.0512
G3 Y0.4769 I0. J0.0299
G1 X0.
G2 Y0.5367 I0. J0.0299
G1 X1.0512
G3 Y0.5966 I0. J0.0299
G1 X0.
G2 Y0.6564 I0. J0.0299
G1 X1.0512
G3 Y0.7163 I0. J0.0299
G1 X0.
G2 Y0.7762 I0. J0.0299
G1 X1.0512
G3 Y0.836 I0. J0.0299
