(1001)
(FACING AND RAMP PATHS)
(T1  D=0.125 CR=0. - ZMIN=-0.228 - FLAT END MILL)
G0 G90 G94 G17
G20
G53 Z0.

(FACE1)
M5
M9
T1
S16500 M3
G55
M9
G0 X1.0379 Y0.1452
Z0.65
Z0.05
G1 Z0. F5.
X1.0092
X0.4848 F59.
X0.3864
G2 Y0.2053 I0. J0.03
G1 X1.1076
X1.176
G3 Y0.2654 I0. J0.03
G1 X0.318
X0.2666
G2 Y0.3255 I0. J0.03
G1 X1.2274
X1.2668
G3 Y0.3856 I0. J0.03
G1 X0.2272
X0.1969
G2 Y0.4457 I0. J0.03
G1 X1.2971
X1.3195
G3 Y0.5058 I0. J0.03
G1 X0.1745
X0.1593
G2 Y0.5659 I0. J0.03
G1 X1.3347
X1.3438
G3 Y0.626 I0. J0.03
G1 X0.1502
X0.147
G2 Y0.6861 I0. J0.03
G1 X1.347
G3 Y0.7462 I0. J0.03
G1 X0.147
G2 Y0.8063 I0. J0.03
G1 X1.347
G3 Y0.8663 I0. J0.03
G1 X1.344
X0.15
G2 Y0.9264 I0. J0.03
G1 X0.159
X1.335
G3 Y0.9865 I0. J0.03
G1 X1.32
X0.174
G2 Y1.0466 I0. J0.03
G1 X0.1961
X1.2979
G3 Y1.1067 I0. J0.03
G1 X1.2677
X0.2263
G2 Y1.1668 I0. J0.03
G1 X0.2652
X1.2288
G3 Y1.2269 I0. J0.03
G1 X1.1776
X0.3164
G2 Y1.287 I0. J0.03
G1 X0.3843
X1.1097
G0 Z0.05
X1.0379 Y0.1452
G1 Z-0.002 F5.
X1.0092
X0.4848 F59.
X0.3864
G2 Y0.2053 I0. J0.03
G1 X1.1076
X1.176
G3 Y0.2654 I0. J0.03
G1 X0.318
X0.2666
G2 Y0.3255 I0. J0.03
G1 X1.2274
X1.2668
G3 Y0.3856 I0. J0.03
G1 X0.2272
X0.1969
G2 Y0.4457 I0. J0.03
G1 X1.2971
X1.3195
G3 Y0.5058 I0. J0.03
G1 X0.1745
X0.1593
G2 Y0.5659 I0. J0.03
G1 X1.3347
X1.3438
G3 Y0.626 I0. J0.03
G1 X0.1502
X0.147
G2 Y0.6861 I0. J0.03
G1 X1.347
G3 Y0.7462 I0. J0.03
G1 X0.147
G2 Y0.8063 I0. J0.03
G1 X1.347
G3 Y0.8663 I0. J0.03
G1 X1.344
X0.15
G2 Y0.9264 I0. J0.03
G1 X0.159
X1.335
G3 Y0.9865 I0. J0.03
G1 X1.32
X0.174
G2 Y1.0466 I0. J0.03
G1 X0.1961
X1.2979
G3 Y1.1067 I0. J0.03
G1 X1.2677
X0.2263
G2 Y1.1668 I0. J0.03
G1 X0.2652
X1.2288
G3 Y1.2269 I0. J0.03
G1 X1.1776
X0.3164
G2 Y1.287 I0. J0.03
G1 X0.3843
X1.1097
G0 Z0.05
X1.0379 Y0.1452
G1 Z-0.004 F5.
X1.0092
X0.4848 F59.
X0.3864
G2 Y0.2053 I0. J0.03
G1 X1.1076
X1.176
G3 Y0.2654 I0. J0.03
G1 X0.318
X0.2666
G2 Y0.3255 I0. J0.03
G1 X1.2274
X1.2668
G3 Y0.3856 I0. J0.03
G1 X0.2272
X0.1969
G2 Y0.4457 I0. J0.03
G1 X1.2971
X1.3195
G3 Y0.5058 I0. J0.03
G1 X0.1745
X0.1593
G2 Y0.5659 I0. J0.03
G1 X1.3347
X1.3438
G3 Y0.626 I0. J0.03
G1 X0.1502
X0.147
G2 Y0.6861 I0. J0.03
G1 X1.347
G3 Y0.7462 I0. J0.03
G1 X0.147
G2 Y0.8063 I0. J0.03
G1 X1.347
G3 Y0.8663 I0. J0.03
G1 X1.344
X0.15
G2 Y0.9264 I0. J0.03
G1 X0.159
X1.335
G3 Y0.9865 I0. J0.03
G1 X1.32
X0.174
G2 Y1.0466 I0. J0.03
G1 X0.1961
X1.2979
G3 Y1.1067 I0. J0.03
G1 X1.2677
X0.2263
G2 Y1.1668 I0. J0.03
G1 X0.2652
X1.2288
G3 Y1.2269 I0. J0.03
G1 X1.1776
X0.3164
G2 Y1.287 I0. J0.03
G1 X0.3843
X1.1097
G0 Z0.05
X1.0379 Y0.1452
G1 Z-0.006 F5.
X1.0092
X0.4848 F59.
X0.3864
G2 Y0.2053 I0. J0.03
G1 X1.1076
X1.176
G3 Y0.2654 I0. J0.03
G1 X0.318
X0.2666
G2 Y0.3255 I0. J0.03
G1 X1.2274
X1.2668
G3 Y0.3856 I0. J0.03
G1 X0.2272
X0.1969
G2 Y0.4457 I0. J0.03
G1 X1.2971
X1.3195
G3 Y0.5058 I0. J0.03
G1 X0.1745
X0.1593
G2 Y0.5659 I0. J0.03
G1 X1.3347
X1.3438
G3 Y0.626 I0. J0.03
G1 X0.1502
X0.147
G2 Y0.6861 I0. J0.03
G1 X1.347
G3 Y0.7462 I0. J0.03
G1 X0.147
G2 Y0.8063 I0. J0.03
G1 X1.347
G3 Y0.8663 I0. J0.03
G1 X1.344
X0.15
G2 Y0.9264 I0. J0.03
G1 X0.159
X1.335
G3 Y0.9865 I0. J0.03
G1 X1.32
X0.174
G2 Y1.0466 I0. J0.03
G1 X0.1961
X1.2979
G3 Y1.1067 I0. J0.03
G1 X1.2677
X0.2263
G2 Y1.1668 I0. J0.03
G1 X0.2652
X1.2288
G3 Y1.2269 I0. J0.03
G1 X1.1776
X0.3164
G2 Y1.287 I0. J0.03
G1 X0.3843
X1.1097
G0 Z0.05
X1.0379 Y0.1452
G1 Z-0.008 F5.
X1.0092
X0.4848 F59.
X0.3864
G2 Y0.2053 I0. J0.03
G1 X1.1076
X1.176
G3 Y0.2654 I0. J0.03
G1 X0.318
X0.2666
G2 Y0.3255 I0. J0.03
G1 X1.2274
X1.2668
G3 Y0.3856 I0. J0.03
G1 X0.2272
X0.1969
G2 Y0.4457 I0. J0.03
G1 X1.2971
X1.3195
G3 Y0.5058 I0. J0.03
G1 X0.1745
X0.1593
G2 Y0.5659 I0. J0.03
G1 X1.3347
X1.3438
G3 Y0.626 I0. J0.03
G1 X0.1502
X0.147
G2 Y0.6861 I0. J0.03
G1 X1.347
G3 Y0.7462 I0. J0.03
G1 X0.147
G2 Y0.8063 I0. J0.03
G1 X1.347
G3 Y0.8663 I0. J0.03
G1 X1.344
X0.15
G2 Y0.9264 I0. J0.03
G1 X0.159
X1.335
G3 Y0.9865 I0. J0.03
G1 X1.32
X0.174
G2 Y1.0466 I0. J0.03
G1 X0.1961
X1.2979
G3 Y1.1067 I0. J0.03
G1 X1.2677
X0.2263
G2 Y1.1668 I0. J0.03
G1 X0.2652
X1.2288
G3 Y1.2269 I0. J0.03
G1 X1.1776
X0.3164
G2 Y1.287 I0. J0.03
G1 X0.3843
X1.1097
G0 Z0.05
X1.0379 Y0.1452
G1 Z-0.01 F5.
X1.0092
X0.4848 F59.
X0.3864
G2 Y0.2053 I0. J0.03
G1 X1.1076
X1.176
G3 Y0.2654 I0. J0.03
G1 X0.318
X0.2666
G2 Y0.3255 I0. J0.03
G1 X1.2274
X1.2668
G3 Y0.3856 I0. J0.03
G1 X0.2272
X0.1969
G2 Y0.4457 I0. J0.03
G1 X1.2971
X1.3195
G3 Y0.5058 I0. J0.03
G1 X0.1745
X0.1593
G2 Y0.5659 I0. J0.03
G1 X1.3347
X1.3438
G3 Y0.626 I0. J0.03
G1 X0.1502
X0.147
G2 Y0.6861 I0. J0.03
G1 X1.347
G3 Y0.7462 I0. J0.03
G1 X0.147
G2 Y0.8063 I0. J0.03
G1 X1.347
G3 Y0.8663 I0. J0.03
G1 X1.344
X0.15
G2 Y0.9264 I0. J0.03
G1 X0.159
X1.335
G3 Y0.9865 I0. J0.03
G1 X1.32
X0.174
G2 Y1.0466 I0. J0.03
G1 X0.1961
X1.2979
G3 Y1.1067 I0. J0.03
G1 X1.2677
X0.2263
G2 Y1.1668 I0. J0.03
G1 X0.2652
X1.2288
G3 Y1.2269 I0. J0.03
G1 X1.1776
X0.3164
G2 Y1.287 I0. J0.03
G1 X0.3843
X1.1097
G0 Z0.05
X1.0379 Y0.1452
G1 Z-0.012 F5.
X1.0092
X0.4848 F59.
X0.3864
G2 Y0.2053 I0. J0.03
G1 X1.1076
X1.176
G3 Y0.2654 I0. J0.03
G1 X0.318
X0.2666
G2 Y0.3255 I0. J0.03
G1 X1.2274
X1.2668
G3 Y0.3856 I0. J0.03
G1 X0.2272
X0.1969
G2 Y0.4457 I0. J0.03
G1 X1.2971
X1.3195
G3 Y0.5058 I0. J0.03
G1 X0.1745
X0.1593
G2 Y0.5659 I0. J0.03
G1 X1.3347
X1.3438
G3 Y0.626 I0. J0.03
G1 X0.1502
X0.147
G2 Y0.6861 I0. J0.03
G1 X1.347
G3 Y0.7462 I0. J0.03
G1 X0.147
G2 Y0.8063 I0. J0.03
G1 X1.347
G3 Y0.8663 I0. J0.03
G1 X1.344
X0.15
G2 Y0.9264 I0. J0.03
G1 X0.159
X1.335
G3 Y0.9865 I0. J0.03
G1 X1.32
X0.174
G2 Y1.0466 I0. J0.03
G1 X0.1961
X1.2979
G3 Y1.1067 I0. J0.03
G1 X1.2677
X0.2263
G2 Y1.1668 I0. J0.03
G1 X0.2652
X1.2288
G3 Y1.2269 I0. J0.03
G1 X1.1776
X0.3164
G2 Y1.287 I0. J0.03
G1 X0.3843
X1.1097
G0 Z0.05
X1.0379 Y0.1452
G1 Z-0.014 F5.
X1.0092
X0.4848 F59.
X0.3864
G2 Y0.2053 I0. J0.03
G1 X1.1076
X1.176
G3 Y0.2654 I0. J0.03
G1 X0.318
X0.2666
G2 Y0.3255 I0. J0.03
G1 X1.2274
X1.2668
G3 Y0.3856 I0. J0.03
G1 X0.2272
X0.1969
G2 Y0.4457 I0. J0.03
G1 X1.2971
X1.3195
G3 Y0.5058 I0. J0.03
G1 X0.1745
X0.1593
G2 Y0.5659 I0. J0.03
G1 X1.3347
X1.3438
G3 Y0.626 I0. J0.03
G1 X0.1502
X0.147
G2 Y0.6861 I0. J0.03
G1 X1.347
G3 Y0.7462 I0. J0.03
G1 X0.147
G2 Y0.8063 I0. J0.03
G1 X1.347
G3 Y0.8663 I0. J0.03
G1 X1.344
X0.15
G2 Y0.9264 I0. J0.03
G1 X0.159
X1.335
G3 Y0.9865 I0. J0.03
G1 X1.32
X0.174
G2 Y1.0466 I0. J0.03
G1 X0.1961
X1.2979
G3 Y1.1067 I0. J0.03
G1 X1.2677
X0.2263
G2 Y1.1668 I0. J0.03
G1 X0.2652
X1.2288
G3 Y1.2269 I0. J0.03
G1 X1.1776
X0.3164
G2 Y1.287 I0. J0.03
G1 X0.3843
X1.1097
G0 Z0.05
X1.0379 Y0.1452
G1 Z-0.016 F5.
X1.0092
X0.4848 F59.
X0.3864
G2 Y0.2053 I0. J0.03
G1 X1.1076
X1.176
G3 Y0.2654 I0. J0.03
G1 X0.318
X0.2666
G2 Y0.3255 I0. J0.03
G1 X1.2274
X1.2668
G3 Y0.3856 I0. J0.03
G1 X0.2272
X0.1969
G2 Y0.4457 I0. J0.03
G1 X1.2971
X1.3195
G3 Y0.5058 I0. J0.03
G1 X0.1745
X0.1593
G2 Y0.5659 I0. J0.03
G1 X1.3347
X1.3438
G3 Y0.626 I0. J0.03
G1 X0.1502
X0.147
G2 Y0.6861 I0. J0.03
G1 X1.347
G3 Y0.7462 I0. J0.03
G1 X0.147
G2 Y0.8063 I0. J0.03
G1 X1.347
G3 Y0.8663 I0. J0.03
G1 X1.344
X0.15
G2 Y0.9264 I0. J0.03
G1 X0.159
X1.335
G3 Y0.9865 I0. J0.03
G1 X1.32
X0.174
G2 Y1.0466 I0. J0.03
G1 X0.1961
X1.2979
G3 Y1.1067 I0. J0.03
G1 X1.2677
X0.2263
G2 Y1.1668 I0. J0.03
G1 X0.2652
X1.2288
G3 Y1.2269 I0. J0.03
G1 X1.1776
X0.3164
G2 Y1.287 I0. J0.03
G1 X0.3843
X1.1097
G0 Z0.05
X1.0379 Y0.1452
G1 Z-0.018 F5.
X1.0092
X0.4848 F59.
X0.3864
G2 Y0.2053 I0. J0.03
G1 X1.1076
X1.176
G3 Y0.2654 I0. J0.03
G1 X0.318
X0.2666
G2 Y0.3255 I0. J0.03
G1 X1.2274
X1.2668
G3 Y0.3856 I0. J0.03
G1 X0.2272
X0.1969
G2 Y0.4457 I0. J0.03
G1 X1.2971
X1.3195
G3 Y0.5058 I0. J0.03
G1 X0.1745
X0.1593
G2 Y0.5659 I0. J0.03
G1 X1.3347
X1.3438
G3 Y0.626 I0. J0.03
G1 X0.1502
X0.147
G2 Y0.6861 I0. J0.03
G1 X1.347
G3 Y0.7462 I0. J0.03
G1 X0.147
G2 Y0.8063 I0. J0.03
G1 X1.347
G3 Y0.8663 I0. J0.03
G1 X1.344
X0.15
G2 Y0.9264 I0. J0.03
G1 X0.159
X1.335
G3 Y0.9865 I0. J0.03
G1 X1.32
X0.174
G2 Y1.0466 I0. J0.03
G1 X0.1961
X1.2979
G3 Y1.1067 I0. J0.03
G1 X1.2677
X0.2263
G2 Y1.1668 I0. J0.03
G1 X0.2652
X1.2288
G3 Y1.2269 I0. J0.03
G1 X1.1776
X0.3164
G2 Y1.287 I0. J0.03
G1 X0.3843
X1.1097
G0 Z0.05
X1.0379 Y0.1452
G1 Z-0.02 F5.
X1.0092
X0.4848 F59.
X0.3864
G2 Y0.2053 I0. J0.03
G1 X1.1076
X1.176
G3 Y0.2654 I0. J0.03
G1 X0.318
X0.2666
G2 Y0.3255 I0. J0.03
G1 X1.2274
X1.2668
G3 Y0.3856 I0. J0.03
G1 X0.2272
X0.1969
G2 Y0.4457 I0. J0.03
G1 X1.2971
X1.3195
G3 Y0.5058 I0. J0.03
G1 X0.1745
X0.1593
G2 Y0.5659 I0. J0.03
G1 X1.3347
X1.3438
G3 Y0.626 I0. J0.03
G1 X0.1502
X0.147
G2 Y0.6861 I0. J0.03
G1 X1.347
G3 Y0.7462 I0. J0.03
G1 X0.147
G2 Y0.8063 I0. J0.03
G1 X1.347
G3 Y0.8663 I0. J0.03
G1 X1.344
X0.15
G2 Y0.9264 I0. J0.03
G1 X0.159
X1.335
G3 Y0.9865 I0. J0.03
G1 X1.32
X0.174
G2 Y1.0466 I0. J0.03
G1 X0.1961
X1.2979
G3 Y1.1067 I0. J0.03
G1 X1.2677
X0.2263
G2 Y1.1668 I0. J0.03
G1 X0.2652
X1.2288
G3 Y1.2269 I0. J0.03
G1 X1.1776
X0.3164
G2 Y1.287 I0. J0.03
G1 X0.3843
X1.1097
G0 Z0.05
X1.0379 Y0.1452
G1 Z-0.022 F5.
X1.0092
X0.4848 F59.
X0.3864
G2 Y0.2053 I0. J0.03
G1 X1.1076
X1.176
G3 Y0.2654 I0. J0.03
G1 X0.318
X0.2666
G2 Y0.3255 I0. J0.03
G1 X1.2274
X1.2668
G3 Y0.3856 I0. J0.03
G1 X0.2272
X0.1969
G2 Y0.4457 I0. J0.03
G1 X1.2971
X1.3195
G3 Y0.5058 I0. J0.03
G1 X0.1745
X0.1593
G2 Y0.5659 I0. J0.03
G1 X1.3347
X1.3438
G3 Y0.626 I0. J0.03
G1 X0.1502
X0.147
G2 Y0.6861 I0. J0.03
G1 X1.347
G3 Y0.7462 I0. J0.03
G1 X0.147
G2 Y0.8063 I0. J0.03
G1 X1.347
G3 Y0.8663 I0. J0.03
G1 X1.344
X0.15
G2 Y0.9264 I0. J0.03
G1 X0.159
X1.335
G3 Y0.9865 I0. J0.03
G1 X1.32
X0.174
G2 Y1.0466 I0. J0.03
G1 X0.1961
X1.2979
G3 Y1.1067 I0. J0.03
G1 X1.2677
X0.2263
G2 Y1.1668 I0. J0.03
G1 X0.2652
X1.2288
G3 Y1.2269 I0. J0.03
G1 X1.1776
X0.3164
G2 Y1.287 I0. J0.03
G1 X0.3843
X1.1097
G0 Z0.05
X1.0379 Y0.1452
G1 Z-0.024 F5.
X1.0092
X0.4848 F59.
X0.3864
G2 Y0.2053 I0. J0.03
G1 X1.1076
X1.176
G3 Y0.2654 I0. J0.03
G1 X0.318
X0.2666
G2 Y0.3255 I0. J0.03
G1 X1.2274
X1.2668
G3 Y0.3856 I0. J0.03
G1 X0.2272
X0.1969
G2 Y0.4457 I0. J0.03
G1 X1.2971
X1.3195
G3 Y0.5058 I0. J0.03
G1 X0.1745
X0.1593
G2 Y0.5659 I0. J0.03
G1 X1.3347
X1.3438
G3 Y0.626 I0. J0.03
G1 X0.1502
X0.147
G2 Y0.6861 I0. J0.03
G1 X1.347
G3 Y0.7462 I0. J0.03
G1 X0.147
G2 Y0.8063 I0. J0.03
G1 X1.347
G3 Y0.8663 I0. J0.03
G1 X1.344
X0.15
G2 Y0.9264 I0. J0.03
G1 X0.159
X1.335
G3 Y0.9865 I0. J0.03
G1 X1.32
X0.174
G2 Y1.0466 I0. J0.03
G1 X0.1961
X1.2979
G3 Y1.1067 I0. J0.03
G1 X1.2677
X0.2263
G2 Y1.1668 I0. J0.03
G1 X0.2652
X1.2288
G3 Y1.2269 I0. J0.03
G1 X1.1776
X0.3164
G2 Y1.287 I0. J0.03
G1 X0.3843
X1.1097
G0 Z0.05
X1.0379 Y0.1452
G1 Z-0.026 F5.
X1.0092
X0.4848 F59.
X0.3864
G2 Y0.2053 I0. J0.03
G1 X1.1076
X1.176
G3 Y0.2654 I0. J0.03
G1 X0.318
X0.2666
G2 Y0.3255 I0. J0.03
G1 X1.2274
X1.2668
G3 Y0.3856 I0. J0.03
G1 X0.2272
X0.1969
G2 Y0.4457 I0. J0.03
G1 X1.2971
X1.3195
G3 Y0.5058 I0. J0.03
G1 X0.1745
X0.1593
G2 Y0.5659 I0. J0.03
G1 X1.3347
X1.3438
G3 Y0.626 I0. J0.03
G1 X0.1502
X0.147
G2 Y0.6861 I0. J0.03
G1 X1.347
G3 Y0.7462 I0. J0.03
G1 X0.147
G2 Y0.8063 I0. J0.03
G1 X1.347
G3 Y0.8663 I0. J0.03
G1 X1.344
X0.15
G2 Y0.9264 I0. J0.03
G1 X0.159
X1.335
G3 Y0.9865 I0. J0.03
G1 X1.32
X0.174
G2 Y1.0466 I0. J0.03
G1 X0.1961
X1.2979
G3 Y1.1067 I0. J0.03
G1 X1.2677
X0.2263
G2 Y1.1668 I0. J0.03
G1 X0.2652
X1.2288
G3 Y1.2269 I0. J0.03
G1 X1.1776
X0.3164
G2 Y1.287 I0. J0.03
G1 X0.3843
X1.1097
G0 Z0.05
X1.0379 Y0.1452
G1 Z-0.028 F5.
X1.0092
X0.4848 F59.
X0.3864
G2 Y0.2053 I0. J0.03
G1 X1.1076
X1.176
G3 Y0.2654 I0. J0.03
G1 X0.318
X0.2666
G2 Y0.3255 I0. J0.03
G1 X1.2274
X1.2668
G3 Y0.3856 I0. J0.03
G1 X0.2272
X0.1969
G2 Y0.4457 I0. J0.03
G1 X1.2971
X1.3195
G3 Y0.5058 I0. J0.03
G1 X0.1745
X0.1593
G2 Y0.5659 I0. J0.03
G1 X1.3347
X1.3438
G3 Y0.626 I0. J0.03
G1 X0.1502
X0.147
G2 Y0.6861 I0. J0.03
G1 X1.347
G3 Y0.7462 I0. J0.03
G1 X0.147
G2 Y0.8063 I0. J0.03
G1 X1.347
G3 Y0.8663 I0. J0.03
G1 X1.344
X0.15
G2 Y0.9264 I0. J0.03
G1 X0.159
X1.335
G3 Y0.9865 I0. J0.03
G1 X1.32
X0.174
G2 Y1.0466 I0. J0.03
G1 X0.1961
X1.2979
G3 Y1.1067 I0. J0.03
G1 X1.2677
X0.2263
G2 Y1.1668 I0. J0.03
G1 X0.2652
X1.2288
G3 Y1.2269 I0. J0.03
G1 X1.1776
X0.3164
G2 Y1.287 I0. J0.03
G1 X0.3843
X1.1097
G0 Z0.65

(RAMP1)
G55
M9
G0 X0.6785 Y0.8967
Z0.6
Z-0.0134
G1 X0.6786 Y0.8968 Z-0.0148 F5.
X0.6788 Z-0.0161
X0.6791 Y0.897 Z-0.0174
G3 X0.6796 Y0.8971 Z-0.0187 I-0.0211 J0.0555
X0.6802 Y0.8974 Z-0.0199 I-0.0215 J0.0553
X0.6809 Y0.8977 Z-0.0211 I-0.0221 J0.0551
X0.6818 Y0.898 Z-0.0221 I-0.0229 J0.0548
X0.6827 Y0.8984 Z-0.023 I-0.0237 J0.0544
X0.6837 Y0.8989 Z-0.0238 I-0.0246 J0.054
X0.6848 Y0.8994 Z-0.0245 I-0.0256 J0.0536
X0.6859 Y0.9 Z-0.0251 I-0.0267 J0.0531
X0.687 Y0.9006 Z-0.0255 I-0.0278 J0.0525
X0.6882 Y0.9013 Z-0.0258 I-0.0289 J0.0519
X0.6893 Y0.902 Z-0.0259 I-0.0301 J0.0512
X0.7175 Y0.952 Z-0.028 I-0.0313 J0.0505
Y0.9525 I-0.0594 J0.0004
G1 Y1.0056
G3 X0.705 Y1.0181 I-0.0125 J0.
G1 X0.7048 F59.
X0.6935 Y1.0161
X0.6881 Y1.015
X0.6766 Y1.0122
X0.6709 Y1.0106
X0.6597 Y1.0071 Z-0.0281
X0.654 Y1.0052
X0.6427 Y1.0007
X0.6371 Y0.9985
X0.6243 Y0.9924
X0.6202 Y0.9904
X0.6089 Y0.984
X0.6038 Y0.9811
X0.592 Y0.9734
X0.5869 Y0.9698
X0.575 Y0.9609 Z-0.0282
X0.5722 Y0.9586
X0.5638 Y0.9512
X0.5594 Y0.9473
X0.5468 Y0.9348
X0.5429 Y0.9303
X0.5356 Y0.9219
X0.5332 Y0.9191
X0.5243 Y0.9073 Z-0.0283
X0.5207 Y0.9021
X0.513 Y0.8904
X0.51 Y0.8852
X0.5037 Y0.8739
X0.5017 Y0.8699
X0.4956 Y0.857
X0.4933 Y0.8514
X0.4888 Y0.8401
X0.487 Y0.8344
X0.4834 Y0.8232 Z-0.0284
X0.4819 Y0.8175
X0.4791 Y0.8062
X0.4779 Y0.8006
X0.4759 Y0.7893
X0.475 Y0.7837
X0.4733 Y0.7667
X0.473 Y0.7611
X0.4726 Y0.7498
Y0.7442 Z-0.0285
X0.473 Y0.7329
X0.4733 Y0.7273
X0.475 Y0.7103
X0.4759 Y0.7047
X0.4779 Y0.6934
X0.4791 Y0.6878
X0.4819 Y0.6765
X0.4834 Y0.6708
X0.487 Y0.6596 Z-0.0286
X0.4888 Y0.6539
X0.4933 Y0.6426
X0.4956 Y0.637
X0.5017 Y0.6241
X0.5037 Y0.6201
X0.51 Y0.6088
X0.513 Y0.6036
X0.5207 Y0.5919
X0.5243 Y0.5867
X0.5332 Y0.5749 Z-0.0287
X0.5356 Y0.5721
X0.5429 Y0.5637
X0.5468 Y0.5592
X0.5594 Y0.5467
X0.5638 Y0.5428
X0.5722 Y0.5354
X0.575 Y0.5331
X0.5869 Y0.5242 Z-0.0288
X0.592 Y0.5206
X0.6038 Y0.5129
X0.6089 Y0.51
X0.6202 Y0.5036
X0.6243 Y0.5016
X0.6371 Y0.4955
X0.6427 Y0.4933
X0.654 Y0.4888
X0.6597 Y0.4869
X0.6709 Y0.4834 Z-0.0289
X0.6766 Y0.4818
X0.6881 Y0.479
X0.6935 Y0.4779
X0.7048 Y0.4759
X0.7104 Y0.475
X0.7274 Y0.4733
X0.733 Y0.473
X0.7443 Y0.4726
X0.7499 Z-0.029
X0.7612 Y0.473
X0.7668 Y0.4733
X0.7838 Y0.475
X0.7894 Y0.476
X0.8007 Y0.4779
X0.8059 Y0.479
X0.8176 Y0.4819
X0.8233 Y0.4834
X0.8345 Y0.487 Z-0.0291
X0.8402 Y0.4889
X0.8515 Y0.4933
X0.8571 Y0.4956
X0.8697 Y0.5016
X0.874 Y0.5037
X0.8853 Y0.5101
X0.8902 Y0.5129
X0.9022 Y0.5208
X0.9071 Y0.5242
X0.9192 Y0.5333 Z-0.0292
X0.9218 Y0.5354
X0.9304 Y0.543
X0.9346 Y0.5467
X0.9474 Y0.5594
X0.9511 Y0.5637
X0.9586 Y0.5723
X0.9608 Y0.5749
X0.9699 Y0.587 Z-0.0293
X0.9733 Y0.5919
X0.9812 Y0.6039
X0.984 Y0.6088
X0.9903 Y0.6201
X0.9925 Y0.6245
X0.9984 Y0.637
X1.0007 Y0.6426
X1.0052 Y0.6539
X1.007 Y0.6596
X1.0106 Y0.6708 Z-0.0294
X1.0121 Y0.6765
X1.015 Y0.6884
X1.0161 Y0.6934
X1.0181 Y0.7047
X1.019 Y0.7103
X1.0207 Y0.7273
X1.021 Y0.7329
X1.0214 Y0.7442
Y0.7498 Z-0.0295
X1.021 Y0.7611
X1.0207 Y0.7667
X1.019 Y0.7837
X1.0181 Y0.7893
X1.0161 Y0.8006
X1.015 Y0.8056
X1.0121 Y0.8175
X1.0106 Y0.8232
X1.007 Y0.8344 Z-0.0296
X1.0052 Y0.8401
X1.0007 Y0.8514
X0.9984 Y0.857
X0.9925 Y0.8695
X0.9903 Y0.8739
X0.984 Y0.8852
X0.9812 Y0.8901
X0.9733 Y0.9021
X0.9699 Y0.907
X0.9608 Y0.9191 Z-0.0297
X0.9586 Y0.9217
X0.9511 Y0.9303
X0.9474 Y0.9346
X0.9346 Y0.9473
X0.9304 Y0.951
X0.9218 Y0.9586
X0.9192 Y0.9607
X0.9071 Y0.9698 Z-0.0298
X0.9022 Y0.9732
X0.8902 Y0.9811
X0.8853 Y0.9839
X0.874 Y0.9903
X0.8697 Y0.9924
X0.8571 Y0.9984
X0.8515 Y1.0007
X0.8402 Y1.0051
X0.8345 Y1.007
X0.8233 Y1.0106 Z-0.0299
X0.8176 Y1.0121
X0.8059 Y1.015
X0.8007 Y1.0161
X0.7894 Y1.018
X0.7838 Y1.019
X0.7668 Y1.0207
X0.7612 Y1.021
X0.7499 Y1.0214
X0.7443 Z-0.03
X0.733 Y1.021
X0.7274 Y1.0207
X0.7104 Y1.019
X0.705 Y1.0181
G0 Z0.2
X0.6967 Y0.8963
Z-0.0154
G1 X0.6968 Z-0.0168 F5.
X0.697 Y0.8964 Z-0.0181
X0.6973 Y0.8965 Z-0.0194
G3 X0.6978 Y0.8968 Z-0.0207 I-0.0228 J0.0497
X0.6984 Y0.897 Z-0.0219 I-0.0232 J0.0495
X0.6991 Y0.8974 Z-0.0231 I-0.0238 J0.0492
X0.6999 Y0.8978 Z-0.0241 I-0.0245 J0.0489
X0.7008 Y0.8983 Z-0.025 I-0.0253 J0.0485
X0.7017 Y0.8988 Z-0.0258 I-0.0262 J0.048
X0.7027 Y0.8994 Z-0.0265 I-0.0272 J0.0475
X0.7038 Y0.9001 Z-0.0271 I-0.0282 J0.0469
X0.7049 Y0.9008 Z-0.0275 I-0.0293 J0.0462
X0.706 Y0.9015 Z-0.0278 I-0.0303 J0.0455
X0.7071 Y0.9023 Z-0.0279 I-0.0315 J0.0447
X0.7285 Y0.9551 Z-0.03 I-0.0326 J0.0439
X0.7284 Y0.9556 I-0.054 J-0.0089
G1 X0.7194 Y1.0079
G3 X0.705 Y1.0181 I-0.0123 J-0.0021
G1 X0.6951 Y1.0164 F59.
X0.6854 Y1.0143
X0.6757 Y1.012
X0.6662 Y1.0091
X0.6567 Y1.0061 Z-0.0301
X0.6474 Y1.0026
X0.6381 Y0.9989
X0.6291 Y0.9947
X0.6201 Y0.9903
X0.6114 Y0.9855
X0.6028 Y0.9805
X0.5945 Y0.975
X0.5863 Y0.9694 Z-0.0302
X0.5783 Y0.9633
X0.5706 Y0.9571
X0.563 Y0.9505
X0.5558 Y0.9437
X0.5487 Y0.9367
X0.542 Y0.9293
X0.5355 Y0.9218
X0.5293 Y0.9139
X0.5233 Y0.906 Z-0.0303
X0.5178 Y0.8977
X0.5124 Y0.8894
X0.5075 Y0.8807
X0.5027 Y0.8719
X0.4984 Y0.8629
X0.4943 Y0.8539
X0.4906 Y0.8446
X0.4872 Y0.8352
X0.4842 Y0.8257 Z-0.0304
X0.4815 Y0.8161
X0.4792 Y0.8065
X0.4772 Y0.7967
X0.4755 Y0.7869
X0.4743 Y0.777
X0.4733 Y0.7671
X0.4729 Y0.7571
X0.4725 Y0.7471 Z-0.0305
X0.4729 Y0.7372
X0.4733 Y0.7272
X0.4743 Y0.7173
X0.4755 Y0.7074
X0.4772 Y0.6976
X0.4791 Y0.6878
X0.4814 Y0.6781
X0.4841 Y0.6685
X0.4871 Y0.659 Z-0.0306
X0.4905 Y0.6497
X0.4942 Y0.6404
X0.4983 Y0.6313
X0.5025 Y0.6223
X0.5073 Y0.6136
X0.5122 Y0.6049
X0.5176 Y0.5965
X0.5231 Y0.5882
X0.5292 Y0.5803 Z-0.0307
X0.5353 Y0.5724
X0.5418 Y0.5649
X0.5485 Y0.5575
X0.5556 Y0.5505
X0.5628 Y0.5437
X0.5703 Y0.5371
X0.5781 Y0.5308
X0.586 Y0.5248 Z-0.0308
X0.5942 Y0.5192
X0.6025 Y0.5137
X0.6112 Y0.5087
X0.6198 Y0.5038
X0.6288 Y0.4995
X0.6378 Y0.4952
X0.6471 Y0.4915
X0.6564 Y0.488
X0.6659 Y0.485 Z-0.0309
X0.6754 Y0.4821
X0.6851 Y0.4797
X0.6949 Y0.4776
X0.7047 Y0.4759
X0.7145 Y0.4746
X0.7245 Y0.4736
X0.7344 Y0.473
X0.7444 Y0.4726
X0.7543 Y0.4728 Z-0.031
X0.7643 Y0.4731
X0.7742 Y0.474
X0.7841 Y0.4751
X0.7939 Y0.4767
X0.8038 Y0.4785
X0.8134 Y0.4809
X0.8231 Y0.4834
X0.8326 Y0.4864 Z-0.0311
X0.842 Y0.4896
X0.8513 Y0.4933
X0.8604 Y0.4972
X0.8694 Y0.5015
X0.8782 Y0.5061
X0.8869 Y0.511
X0.8954 Y0.5163
X0.9037 Y0.5217
X0.9117 Y0.5277 Z-0.0312
X0.9197 Y0.5337
X0.9272 Y0.5402
X0.9347 Y0.5468
X0.9417 Y0.5538
X0.9487 Y0.5609
X0.9552 Y0.5685
X0.9616 Y0.5761
X0.9677 Y0.584
X0.9735 Y0.5921 Z-0.0313
X0.9789 Y0.6005
X0.9841 Y0.609
X0.989 Y0.6177
X0.9935 Y0.6266
X0.9977 Y0.6356
X1.0015 Y0.6448
X1.0052 Y0.654
X1.0083 Y0.6635 Z-0.0314
X1.0113 Y0.673
X1.0137 Y0.6827
X1.0159 Y0.6924
X1.0176 Y0.7022
X1.0192 Y0.7121
X1.0202 Y0.722
X1.0209 Y0.7319
X1.0213 Y0.7419
Y0.7518 Z-0.0315
X1.021 Y0.7618
X1.0202 Y0.7717
X1.0192 Y0.7816
X1.0177 Y0.7915
X1.016 Y0.8013
X1.0137 Y0.811
X1.0114 Y0.8207
X1.0084 Y0.8302
X1.0053 Y0.8397 Z-0.0316
X1.0017 Y0.849
X0.9979 Y0.8582
X0.9936 Y0.8672
X0.9891 Y0.8761
X0.9842 Y0.8848
X0.9791 Y0.8933
X0.9736 Y0.9016
X0.9678 Y0.9097 Z-0.0317
X0.9618 Y0.9177
X0.9554 Y0.9253
X0.9489 Y0.9328
X0.9419 Y0.94
X0.9349 Y0.947
X0.9274 Y0.9536
X0.9199 Y0.9601
X0.912 Y0.9662
X0.904 Y0.9721 Z-0.0318
X0.8956 Y0.9776
X0.8872 Y0.9829
X0.8785 Y0.9878
X0.8697 Y0.9924
X0.8607 Y0.9967
X0.8515 Y1.0006
X0.8423 Y1.0043
X0.8329 Y1.0075
X0.8234 Y1.0106 Z-0.0319
X0.8137 Y1.0131
X0.804 Y1.0154
X0.7942 Y1.0172
X0.7844 Y1.0189
X0.7745 Y1.0199
X0.7646 Y1.0209
X0.7546 Y1.0212
X0.7447 Y1.0214 Z-0.032
X0.7347 Y1.021
X0.7248 Y1.0205
X0.7099 Y1.0189
X0.7074 Y1.0185
X0.705 Y1.0181
X0.6951 Y1.0164
X0.6854 Y1.0143
X0.6757 Y1.012
X0.6662 Y1.0091
X0.6567 Y1.0061 Z-0.0321
X0.6474 Y1.0026
X0.6381 Y0.9989
X0.6291 Y0.9947
X0.6201 Y0.9903
X0.6114 Y0.9855
X0.6028 Y0.9805
X0.5945 Y0.975
X0.5863 Y0.9694 Z-0.0322
X0.5783 Y0.9633
X0.5706 Y0.9571
X0.563 Y0.9505
X0.5558 Y0.9437
X0.5487 Y0.9367
X0.542 Y0.9293
X0.5355 Y0.9218
X0.5293 Y0.9139
X0.5233 Y0.906 Z-0.0323
X0.5178 Y0.8977
X0.5124 Y0.8894
X0.5075 Y0.8807
X0.5027 Y0.8719
X0.4984 Y0.8629
X0.4943 Y0.8539
X0.4906 Y0.8446
X0.4872 Y0.8352
X0.4842 Y0.8257 Z-0.0324
X0.4815 Y0.8161
X0.4792 Y0.8065
X0.4772 Y0.7967
X0.4755 Y0.7869
X0.4743 Y0.777
X0.4733 Y0.7671
X0.4729 Y0.7571
X0.4725 Y0.7471 Z-0.0325
X0.4729 Y0.7372
X0.4733 Y0.7272
X0.4743 Y0.7173
X0.4755 Y0.7074
X0.4772 Y0.6976
X0.4791 Y0.6878
X0.4814 Y0.6781
X0.4841 Y0.6685
X0.4871 Y0.659 Z-0.0326
X0.4905 Y0.6497
X0.4942 Y0.6404
X0.4983 Y0.6313
X0.5025 Y0.6223
X0.5073 Y0.6136
X0.5122 Y0.6049
X0.5176 Y0.5965
X0.5231 Y0.5882
X0.5292 Y0.5803 Z-0.0327
X0.5353 Y0.5724
X0.5418 Y0.5649
X0.5485 Y0.5575
X0.5556 Y0.5505
X0.5628 Y0.5437
X0.5703 Y0.5371
X0.5781 Y0.5308
X0.586 Y0.5248 Z-0.0328
X0.5942 Y0.5192
X0.6025 Y0.5137
X0.6112 Y0.5087
X0.6198 Y0.5038
X0.6288 Y0.4995
X0.6378 Y0.4952
X0.6471 Y0.4915
X0.6564 Y0.488
X0.6659 Y0.485 Z-0.0329
X0.6754 Y0.4821
X0.6851 Y0.4797
X0.6949 Y0.4776
X0.7047 Y0.4759
X0.7145 Y0.4746
X0.7245 Y0.4736
X0.7344 Y0.473
X0.7444 Y0.4726
X0.7543 Y0.4728 Z-0.033
X0.7643 Y0.4731
X0.7742 Y0.474
X0.7841 Y0.4751
X0.7939 Y0.4767
X0.8038 Y0.4785
X0.8134 Y0.4809
X0.8231 Y0.4834
X0.8326 Y0.4864 Z-0.0331
X0.842 Y0.4896
X0.8513 Y0.4933
X0.8604 Y0.4972
X0.8694 Y0.5015
X0.8782 Y0.5061
X0.8869 Y0.511
X0.8954 Y0.5163
X0.9037 Y0.5217
X0.9117 Y0.5277 Z-0.0332
X0.9197 Y0.5337
X0.9272 Y0.5402
X0.9347 Y0.5468
X0.9417 Y0.5538
X0.9487 Y0.5609
X0.9552 Y0.5685
X0.9616 Y0.5761
X0.9677 Y0.584
X0.9735 Y0.5921 Z-0.0333
X0.9789 Y0.6005
X0.9841 Y0.609
X0.989 Y0.6177
X0.9935 Y0.6266
X0.9977 Y0.6356
X1.0015 Y0.6448
X1.0052 Y0.654
X1.0083 Y0.6635 Z-0.0334
X1.0113 Y0.673
X1.0137 Y0.6827
X1.0159 Y0.6924
X1.0176 Y0.7022
X1.0192 Y0.7121
X1.0202 Y0.722
X1.0209 Y0.7319
X1.0213 Y0.7419
Y0.7518 Z-0.0335
X1.021 Y0.7618
X1.0202 Y0.7717
X1.0192 Y0.7816
X1.0177 Y0.7915
X1.016 Y0.8013
X1.0137 Y0.811
X1.0114 Y0.8207
X1.0084 Y0.8302
X1.0053 Y0.8397 Z-0.0336
X1.0017 Y0.849
X0.9979 Y0.8582
X0.9936 Y0.8672
X0.9891 Y0.8761
X0.9842 Y0.8848
X0.9791 Y0.8933
X0.9736 Y0.9016
X0.9678 Y0.9097 Z-0.0337
X0.9618 Y0.9177
X0.9554 Y0.9253
X0.9489 Y0.9328
X0.9419 Y0.94
X0.9349 Y0.947
X0.9274 Y0.9536
X0.9199 Y0.9601
X0.912 Y0.9662
X0.904 Y0.9721 Z-0.0338
X0.8956 Y0.9776
X0.8872 Y0.9829
X0.8785 Y0.9878
X0.8697 Y0.9924
X0.8607 Y0.9967
X0.8515 Y1.0006
X0.8423 Y1.0043
X0.8329 Y1.0075
X0.8234 Y1.0106 Z-0.0339
X0.8137 Y1.0131
X0.804 Y1.0154
X0.7942 Y1.0172
X0.7844 Y1.0189
X0.7745 Y1.0199
X0.7646 Y1.0209
X0.7546 Y1.0212
X0.7447 Y1.0214 Z-0.034
X0.7347 Y1.021
X0.7248 Y1.0205
X0.7099 Y1.0189
X0.7074 Y1.0185
X0.705 Y1.0181
X0.6951 Y1.0164
X0.6854 Y1.0143
X0.6757 Y1.012
X0.6662 Y1.0091
X0.6567 Y1.0061 Z-0.0341
X0.6474 Y1.0026
X0.6381 Y0.9989
X0.6291 Y0.9947
X0.6201 Y0.9903
X0.6114 Y0.9855
X0.6028 Y0.9805
X0.5945 Y0.975
X0.5863 Y0.9694 Z-0.0342
X0.5783 Y0.9633
X0.5706 Y0.9571
X0.563 Y0.9505
X0.5558 Y0.9437
X0.5487 Y0.9367
X0.542 Y0.9293
X0.5355 Y0.9218
X0.5293 Y0.9139
X0.5233 Y0.906 Z-0.0343
X0.5178 Y0.8977
X0.5124 Y0.8894
X0.5075 Y0.8807
X0.5027 Y0.8719
X0.4984 Y0.8629
X0.4943 Y0.8539
X0.4906 Y0.8446
X0.4872 Y0.8352
X0.4842 Y0.8257 Z-0.0344
X0.4815 Y0.8161
X0.4792 Y0.8065
X0.4772 Y0.7967
X0.4755 Y0.7869
X0.4743 Y0.777
X0.4733 Y0.7671
X0.4729 Y0.7571
X0.4725 Y0.7471 Z-0.0345
X0.4729 Y0.7372
X0.4733 Y0.7272
X0.4743 Y0.7173
X0.4755 Y0.7074
X0.4772 Y0.6976
X0.4791 Y0.6878
X0.4814 Y0.6781
X0.4841 Y0.6685
X0.4871 Y0.659 Z-0.0346
X0.4905 Y0.6497
X0.4942 Y0.6404
X0.4983 Y0.6313
X0.5025 Y0.6223
X0.5073 Y0.6136
X0.5122 Y0.6049
X0.5176 Y0.5965
X0.5231 Y0.5882
X0.5292 Y0.5803 Z-0.0347
X0.5353 Y0.5724
X0.5418 Y0.5649
X0.5485 Y0.5575
X0.5556 Y0.5505
X0.5628 Y0.5437
X0.5703 Y0.5371
X0.5781 Y0.5308
X0.586 Y0.5248 Z-0.0348
X0.5942 Y0.5192
X0.6025 Y0.5137
X0.6112 Y0.5087
X0.6198 Y0.5038
X0.6288 Y0.4995
X0.6378 Y0.4952
X0.6471 Y0.4915
X0.6564 Y0.488
X0.6659 Y0.485 Z-0.0349
X0.6754 Y0.4821
X0.6851 Y0.4797
X0.6949 Y0.4776
X0.7047 Y0.4759
X0.7145 Y0.4746
X0.7245 Y0.4736
X0.7344 Y0.473
X0.7444 Y0.4726
X0.7543 Y0.4728 Z-0.035
X0.7643 Y0.4731
X0.7742 Y0.474
X0.7841 Y0.4751
X0.7939 Y0.4767
X0.8038 Y0.4785
X0.8134 Y0.4809
X0.8231 Y0.4834
X0.8326 Y0.4864 Z-0.0351
X0.842 Y0.4896
X0.8513 Y0.4933
X0.8604 Y0.4972
X0.8694 Y0.5015
X0.8782 Y0.5061
X0.8869 Y0.511
X0.8954 Y0.5163
X0.9037 Y0.5217
X0.9117 Y0.5277 Z-0.0352
X0.9197 Y0.5337
X0.9272 Y0.5402
X0.9347 Y0.5468
X0.9417 Y0.5538
X0.9487 Y0.5609
X0.9552 Y0.5685
X0.9616 Y0.5761
X0.9677 Y0.584
X0.9735 Y0.5921 Z-0.0353
X0.9789 Y0.6005
X0.9841 Y0.609
X0.989 Y0.6177
X0.9935 Y0.6266
X0.9977 Y0.6356
X1.0015 Y0.6448
X1.0052 Y0.654
X1.0083 Y0.6635 Z-0.0354
X1.0113 Y0.673
X1.0137 Y0.6827
X1.0159 Y0.6924
X1.0176 Y0.7022
X1.0192 Y0.7121
X1.0202 Y0.722
X1.0209 Y0.7319
X1.0213 Y0.7419
Y0.7518 Z-0.0355
X1.021 Y0.7618
X1.0202 Y0.7717
X1.0192 Y0.7816
X1.0177 Y0.7915
X1.016 Y0.8013
X1.0137 Y0.811
X1.0114 Y0.8207
X1.0084 Y0.8302
X1.0053 Y0.8397 Z-0.0356
X1.0017 Y0.849
X0.9979 Y0.8582
X0.9936 Y0.8672
X0.9891 Y0.8761
X0.9842 Y0.8848
X0.9791 Y0.8933
X0.9736 Y0.9016
X0.9678 Y0.9097 Z-0.0357
X0.9618 Y0.9177
X0.9554 Y0.9253
X0.9489 Y0.9328
X0.9419 Y0.94
X0.9349 Y0.947
X0.9274 Y0.9536
X0.9199 Y0.9601
X0.912 Y0.9662
X0.904 Y0.9721 Z-0.0358
X0.8956 Y0.9776
X0.8872 Y0.9829
X0.8785 Y0.9878
X0.8697 Y0.9924
X0.8607 Y0.9967
X0.8515 Y1.0006
X0.8423 Y1.0043
X0.8329 Y1.0075
X0.8234 Y1.0106 Z-0.0359
X0.8137 Y1.0131
X0.804 Y1.0154
X0.7942 Y1.0172
X0.7844 Y1.0189
X0.7745 Y1.0199
X0.7646 Y1.0209
X0.7546 Y1.0212
X0.7447 Y1.0214 Z-0.036
X0.7347 Y1.021
X0.7248 Y1.0205
X0.7099 Y1.0189
X0.7074 Y1.0185
X0.705 Y1.0181
X0.6951 Y1.0164
X0.6854 Y1.0143
X0.6757 Y1.012
X0.6662 Y1.0091
X0.6567 Y1.0061 Z-0.0361
X0.6474 Y1.0026
X0.6381 Y0.9989
X0.6291 Y0.9947
X0.6201 Y0.9903
X0.6114 Y0.9855
X0.6028 Y0.9805
X0.5945 Y0.975
X0.5863 Y0.9694 Z-0.0362
X0.5783 Y0.9633
X0.5706 Y0.9571
X0.563 Y0.9505
X0.5558 Y0.9437
X0.5487 Y0.9367
X0.542 Y0.9293
X0.5355 Y0.9218
X0.5293 Y0.9139
X0.5233 Y0.906 Z-0.0363
X0.5178 Y0.8977
X0.5124 Y0.8894
X0.5075 Y0.8807
X0.5027 Y0.8719
X0.4984 Y0.8629
X0.4943 Y0.8539
X0.4906 Y0.8446
X0.4872 Y0.8352
X0.4842 Y0.8257 Z-0.0364
X0.4815 Y0.8161
X0.4792 Y0.8065
X0.4772 Y0.7967
X0.4755 Y0.7869
X0.4743 Y0.777
X0.4733 Y0.7671
X0.4729 Y0.7571
X0.4725 Y0.7471 Z-0.0365
X0.4729 Y0.7372
X0.4733 Y0.7272
X0.4743 Y0.7173
X0.4755 Y0.7074
X0.4772 Y0.6976
X0.4791 Y0.6878
X0.4814 Y0.6781
X0.4841 Y0.6685
X0.4871 Y0.659 Z-0.0366
X0.4905 Y0.6497
X0.4942 Y0.6404
X0.4983 Y0.6313
X0.5025 Y0.6223
X0.5073 Y0.6136
X0.5122 Y0.6049
X0.5176 Y0.5965
X0.5231 Y0.5882
X0.5292 Y0.5803 Z-0.0367
X0.5353 Y0.5724
X0.5418 Y0.5649
X0.5485 Y0.5575
X0.5556 Y0.5505
X0.5628 Y0.5437
X0.5703 Y0.5371
X0.5781 Y0.5308
X0.586 Y0.5248 Z-0.0368
X0.5942 Y0.5192
X0.6025 Y0.5137
X0.6112 Y0.5087
X0.6198 Y0.5038
X0.6288 Y0.4995
X0.6378 Y0.4952
X0.6471 Y0.4915
X0.6564 Y0.488
X0.6659 Y0.485 Z-0.0369
X0.6754 Y0.4821
X0.6851 Y0.4797
X0.6949 Y0.4776
X0.7047 Y0.4759
X0.7145 Y0.4746
X0.7245 Y0.4736
X0.7344 Y0.473
X0.7444 Y0.4726
X0.7543 Y0.4728 Z-0.037
X0.7643 Y0.4731
X0.7742 Y0.474
X0.7841 Y0.4751
X0.7939 Y0.4767
X0.8038 Y0.4785
X0.8134 Y0.4809
X0.8231 Y0.4834
X0.8326 Y0.4864 Z-0.0371
X0.842 Y0.4896
X0.8513 Y0.4933
X0.8604 Y0.4972
X0.8694 Y0.5015
X0.8782 Y0.5061
X0.8869 Y0.511
X0.8954 Y0.5163
X0.9037 Y0.5217
X0.9117 Y0.5277 Z-0.0372
X0.9197 Y0.5337
X0.9272 Y0.5402
X0.9347 Y0.5468
X0.9417 Y0.5538
X0.9487 Y0.5609
X0.9552 Y0.5685
X0.9616 Y0.5761
X0.9677 Y0.584
X0.9735 Y0.5921 Z-0.0373
X0.9789 Y0.6005
X0.9841 Y0.609
X0.989 Y0.6177
X0.9935 Y0.6266
X0.9977 Y0.6356
X1.0015 Y0.6448
X1.0052 Y0.654
X1.0083 Y0.6635 Z-0.0374
X1.0113 Y0.673
X1.0137 Y0.6827
X1.0159 Y0.6924
X1.0176 Y0.7022
X1.0192 Y0.7121
X1.0202 Y0.722
X1.0209 Y0.7319
X1.0213 Y0.7419
Y0.7518 Z-0.0375
X1.021 Y0.7618
X1.0202 Y0.7717
X1.0192 Y0.7816
X1.0177 Y0.7915
X1.016 Y0.8013
X1.0137 Y0.811
X1.0114 Y0.8207
X1.0084 Y0.8302
X1.0053 Y0.8397 Z-0.0376
X1.0017 Y0.849
X0.9979 Y0.8582
X0.9936 Y0.8672
X0.9891 Y0.8761
X0.9842 Y0.8848
X0.9791 Y0.8933
X0.9736 Y0.9016
X0.9678 Y0.9097 Z-0.0377
X0.9618 Y0.9177
X0.9554 Y0.9253
X0.9489 Y0.9328
X0.9419 Y0.94
X0.9349 Y0.947
X0.9274 Y0.9536
X0.9199 Y0.9601
X0.912 Y0.9662
X0.904 Y0.9721 Z-0.0378
X0.8956 Y0.9776
X0.8872 Y0.9829
X0.8785 Y0.9878
X0.8697 Y0.9924
X0.8607 Y0.9967
X0.8515 Y1.0006
X0.8423 Y1.0043
X0.8329 Y1.0075
X0.8234 Y1.0106 Z-0.0379
X0.8137 Y1.0131
X0.804 Y1.0154
X0.7942 Y1.0172
X0.7844 Y1.0189
X0.7745 Y1.0199
X0.7646 Y1.0209
X0.7546 Y1.0212
X0.7447 Y1.0214 Z-0.038
X0.7347 Y1.021
X0.7248 Y1.0205
X0.7099 Y1.0189
X0.7074 Y1.0185
X0.705 Y1.0181
X0.6951 Y1.0164
X0.6854 Y1.0143
X0.6757 Y1.012
X0.6662 Y1.0091
X0.6567 Y1.0061 Z-0.0381
X0.6474 Y1.0026
X0.6381 Y0.9989
X0.6291 Y0.9947
X0.6201 Y0.9903
X0.6114 Y0.9855
X0.6028 Y0.9805
X0.5945 Y0.975
X0.5863 Y0.9694 Z-0.0382
X0.5783 Y0.9633
X0.5706 Y0.9571
X0.563 Y0.9505
X0.5558 Y0.9437
X0.5487 Y0.9367
X0.542 Y0.9293
X0.5355 Y0.9218
X0.5293 Y0.9139
X0.5233 Y0.906 Z-0.0383
X0.5178 Y0.8977
X0.5124 Y0.8894
X0.5075 Y0.8807
X0.5027 Y0.8719
X0.4984 Y0.8629
X0.4943 Y0.8539
X0.4906 Y0.8446
X0.4872 Y0.8352
X0.4842 Y0.8257 Z-0.0384
X0.4815 Y0.8161
X0.4792 Y0.8065
X0.4772 Y0.7967
X0.4755 Y0.7869
X0.4743 Y0.777
X0.4733 Y0.7671
X0.4729 Y0.7571
X0.4725 Y0.7471 Z-0.0385
X0.4729 Y0.7372
X0.4733 Y0.7272
X0.4743 Y0.7173
X0.4755 Y0.7074
X0.4772 Y0.6976
X0.4791 Y0.6878
X0.4814 Y0.6781
X0.4841 Y0.6685
X0.4871 Y0.659 Z-0.0386
X0.4905 Y0.6497
X0.4942 Y0.6404
X0.4983 Y0.6313
X0.5025 Y0.6223
X0.5073 Y0.6136
X0.5122 Y0.6049
X0.5176 Y0.5965
X0.5231 Y0.5882
X0.5292 Y0.5803 Z-0.0387
X0.5353 Y0.5724
X0.5418 Y0.5649
X0.5485 Y0.5575
X0.5556 Y0.5505
X0.5628 Y0.5437
X0.5703 Y0.5371
X0.5781 Y0.5308
X0.586 Y0.5248 Z-0.0388
X0.5942 Y0.5192
X0.6025 Y0.5137
X0.6112 Y0.5087
X0.6198 Y0.5038
X0.6288 Y0.4995
X0.6378 Y0.4952
X0.6471 Y0.4915
X0.6564 Y0.488
X0.6659 Y0.485 Z-0.0389
X0.6754 Y0.4821
X0.6851 Y0.4797
X0.6949 Y0.4776
X0.7047 Y0.4759
X0.7145 Y0.4746
X0.7245 Y0.4736
X0.7344 Y0.473
X0.7444 Y0.4726
X0.7543 Y0.4728 Z-0.039
X0.7643 Y0.4731
X0.7742 Y0.474
X0.7841 Y0.4751
X0.7939 Y0.4767
X0.8038 Y0.4785
X0.8134 Y0.4809
X0.8231 Y0.4834
X0.8326 Y0.4864 Z-0.0391
X0.842 Y0.4896
X0.8513 Y0.4933
X0.8604 Y0.4972
X0.8694 Y0.5015
X0.8782 Y0.5061
X0.8869 Y0.511
X0.8954 Y0.5163
X0.9037 Y0.5217
X0.9117 Y0.5277 Z-0.0392
X0.9197 Y0.5337
X0.9272 Y0.5402
X0.9347 Y0.5468
X0.9417 Y0.5538
X0.9487 Y0.5609
X0.9552 Y0.5685
X0.9616 Y0.5761
X0.9677 Y0.584
X0.9735 Y0.5921 Z-0.0393
X0.9789 Y0.6005
X0.9841 Y0.609
X0.989 Y0.6177
X0.9935 Y0.6266
X0.9977 Y0.6356
X1.0015 Y0.6448
X1.0052 Y0.654
X1.0083 Y0.6635 Z-0.0394
X1.0113 Y0.673
X1.0137 Y0.6827
X1.0159 Y0.6924
X1.0176 Y0.7022
X1.0192 Y0.7121
X1.0202 Y0.722
X1.0209 Y0.7319
X1.0213 Y0.7419
Y0.7518 Z-0.0395
X1.021 Y0.7618
X1.0202 Y0.7717
X1.0192 Y0.7816
X1.0177 Y0.7915
X1.016 Y0.8013
X1.0137 Y0.811
X1.0114 Y0.8207
X1.0084 Y0.8302
X1.0053 Y0.8397 Z-0.0396
X1.0017 Y0.849
X0.9979 Y0.8582
X0.9936 Y0.8672
X0.9891 Y0.8761
X0.9842 Y0.8848
X0.9791 Y0.8933
X0.9736 Y0.9016
X0.9678 Y0.9097 Z-0.0397
X0.9618 Y0.9177
X0.9554 Y0.9253
X0.9489 Y0.9328
X0.9419 Y0.94
X0.9349 Y0.947
X0.9274 Y0.9536
X0.9199 Y0.9601
X0.912 Y0.9662
X0.904 Y0.9721 Z-0.0398
X0.8956 Y0.9776
X0.8872 Y0.9829
X0.8785 Y0.9878
X0.8697 Y0.9924
X0.8607 Y0.9967
X0.8515 Y1.0006
X0.8423 Y1.0043
X0.8329 Y1.0075
X0.8234 Y1.0106 Z-0.0399
X0.8137 Y1.0131
X0.804 Y1.0154
X0.7942 Y1.0172
X0.7844 Y1.0189
X0.7745 Y1.0199
X0.7646 Y1.0209
X0.7546 Y1.0212
X0.7447 Y1.0214 Z-0.04
X0.7347 Y1.021
X0.7248 Y1.0205
X0.7099 Y1.0189
X0.7074 Y1.0185
X0.705 Y1.0181
X0.6951 Y1.0164
X0.6854 Y1.0143
X0.6757 Y1.012
X0.6662 Y1.0091
X0.6567 Y1.0061 Z-0.0401
X0.6474 Y1.0026
X0.6381 Y0.9989
X0.6291 Y0.9947
X0.6201 Y0.9903
X0.6114 Y0.9855
X0.6028 Y0.9805
X0.5945 Y0.975
X0.5863 Y0.9694 Z-0.0402
X0.5783 Y0.9633
X0.5706 Y0.9571
X0.563 Y0.9505
X0.5558 Y0.9437
X0.5487 Y0.9367
X0.542 Y0.9293
X0.5355 Y0.9218
X0.5293 Y0.9139
X0.5233 Y0.906 Z-0.0403
X0.5178 Y0.8977
X0.5124 Y0.8894
X0.5075 Y0.8807
X0.5027 Y0.8719
X0.4984 Y0.8629
X0.4943 Y0.8539
X0.4906 Y0.8446
X0.4872 Y0.8352
X0.4842 Y0.8257 Z-0.0404
X0.4815 Y0.8161
X0.4792 Y0.8065
X0.4772 Y0.7967
X0.4755 Y0.7869
X0.4743 Y0.777
X0.4733 Y0.7671
X0.4729 Y0.7571
X0.4725 Y0.7471 Z-0.0405
X0.4729 Y0.7372
X0.4733 Y0.7272
X0.4743 Y0.7173
X0.4755 Y0.7074
X0.4772 Y0.6976
X0.4791 Y0.6878
X0.4814 Y0.6781
X0.4841 Y0.6685
X0.4871 Y0.659 Z-0.0406
X0.4905 Y0.6497
X0.4942 Y0.6404
X0.4983 Y0.6313
X0.5025 Y0.6223
X0.5073 Y0.6136
X0.5122 Y0.6049
X0.5176 Y0.5965
X0.5231 Y0.5882
X0.5292 Y0.5803 Z-0.0407
X0.5353 Y0.5724
X0.5418 Y0.5649
X0.5485 Y0.5575
X0.5556 Y0.5505
X0.5628 Y0.5437
X0.5703 Y0.5371
X0.5781 Y0.5308
X0.586 Y0.5248 Z-0.0408
X0.5942 Y0.5192
X0.6025 Y0.5137
X0.6112 Y0.5087
X0.6198 Y0.5038
X0.6288 Y0.4995
X0.6378 Y0.4952
X0.6471 Y0.4915
X0.6564 Y0.488
X0.6659 Y0.485 Z-0.0409
X0.6754 Y0.4821
X0.6851 Y0.4797
X0.6949 Y0.4776
X0.7047 Y0.4759
X0.7145 Y0.4746
X0.7245 Y0.4736
X0.7344 Y0.473
X0.7444 Y0.4726
X0.7543 Y0.4728 Z-0.041
X0.7643 Y0.4731
X0.7742 Y0.474
X0.7841 Y0.4751
X0.7939 Y0.4767
X0.8038 Y0.4785
X0.8134 Y0.4809
X0.8231 Y0.4834
X0.8326 Y0.4864 Z-0.0411
X0.842 Y0.4896
X0.8513 Y0.4933
X0.8604 Y0.4972
X0.8694 Y0.5015
X0.8782 Y0.5061
X0.8869 Y0.511
X0.8954 Y0.5163
X0.9037 Y0.5217
X0.9117 Y0.5277 Z-0.0412
X0.9197 Y0.5337
X0.9272 Y0.5402
X0.9347 Y0.5468
X0.9417 Y0.5538
X0.9487 Y0.5609
X0.9552 Y0.5685
X0.9616 Y0.5761
X0.9677 Y0.584
X0.9735 Y0.5921 Z-0.0413
X0.9789 Y0.6005
X0.9841 Y0.609
X0.989 Y0.6177
X0.9935 Y0.6266
X0.9977 Y0.6356
X1.0015 Y0.6448
X1.0052 Y0.654
X1.0083 Y0.6635 Z-0.0414
X1.0113 Y0.673
X1.0137 Y0.6827
X1.0159 Y0.6924
X1.0176 Y0.7022
X1.0192 Y0.7121
X1.0202 Y0.722
X1.0209 Y0.7319
X1.0213 Y0.7419
Y0.7518 Z-0.0415
X1.021 Y0.7618
X1.0202 Y0.7717
X1.0192 Y0.7816
X1.0177 Y0.7915
X1.016 Y0.8013
X1.0137 Y0.811
X1.0114 Y0.8207
X1.0084 Y0.8302
X1.0053 Y0.8397 Z-0.0416
X1.0017 Y0.849
X0.9979 Y0.8582
X0.9936 Y0.8672
X0.9891 Y0.8761
X0.9842 Y0.8848
X0.9791 Y0.8933
X0.9736 Y0.9016
X0.9678 Y0.9097 Z-0.0417
X0.9618 Y0.9177
X0.9554 Y0.9253
X0.9489 Y0.9328
X0.9419 Y0.94
X0.9349 Y0.947
X0.9274 Y0.9536
X0.9199 Y0.9601
X0.912 Y0.9662
X0.904 Y0.9721 Z-0.0418
X0.8956 Y0.9776
X0.8872 Y0.9829
X0.8785 Y0.9878
X0.8697 Y0.9924
X0.8607 Y0.9967
X0.8515 Y1.0006
X0.8423 Y1.0043
X0.8329 Y1.0075
X0.8234 Y1.0106 Z-0.0419
X0.8137 Y1.0131
X0.804 Y1.0154
X0.7942 Y1.0172
X0.7844 Y1.0189
X0.7745 Y1.0199
X0.7646 Y1.0209
X0.7546 Y1.0212
X0.7447 Y1.0214 Z-0.042
X0.7347 Y1.021
X0.7248 Y1.0205
X0.7099 Y1.0189
X0.7074 Y1.0185
X0.705 Y1.0181
X0.6951 Y1.0164
X0.6854 Y1.0143
X0.6757 Y1.012
X0.6662 Y1.0091
X0.6567 Y1.0061 Z-0.0421
X0.6474 Y1.0026
X0.6381 Y0.9989
X0.6291 Y0.9947
X0.6201 Y0.9903
X0.6114 Y0.9855
X0.6028 Y0.9805
X0.5945 Y0.975
X0.5863 Y0.9694 Z-0.0422
X0.5783 Y0.9633
X0.5706 Y0.9571
X0.563 Y0.9505
X0.5558 Y0.9437
X0.5487 Y0.9367
X0.542 Y0.9293
X0.5355 Y0.9218
X0.5293 Y0.9139
X0.5233 Y0.906 Z-0.0423
X0.5178 Y0.8977
X0.5124 Y0.8894
X0.5075 Y0.8807
X0.5027 Y0.8719
X0.4984 Y0.8629
X0.4943 Y0.8539
X0.4906 Y0.8446
X0.4872 Y0.8352
X0.4842 Y0.8257 Z-0.0424
X0.4815 Y0.8161
X0.4792 Y0.8065
X0.4772 Y0.7967
X0.4755 Y0.7869
X0.4743 Y0.777
X0.4733 Y0.7671
X0.4729 Y0.7571
X0.4725 Y0.7471 Z-0.0425
X0.4729 Y0.7372
X0.4733 Y0.7272
X0.4743 Y0.7173
X0.4755 Y0.7074
X0.4772 Y0.6976
X0.4791 Y0.6878
X0.4814 Y0.6781
X0.4841 Y0.6685
X0.4871 Y0.659 Z-0.0426
X0.4905 Y0.6497
X0.4942 Y0.6404
X0.4983 Y0.6313
X0.5025 Y0.6223
X0.5073 Y0.6136
X0.5122 Y0.6049
X0.5176 Y0.5965
X0.5231 Y0.5882
X0.5292 Y0.5803 Z-0.0427
X0.5353 Y0.5724
X0.5418 Y0.5649
X0.5485 Y0.5575
X0.5556 Y0.5505
X0.5628 Y0.5437
X0.5703 Y0.5371
X0.5781 Y0.5308
X0.586 Y0.5248 Z-0.0428
X0.5942 Y0.5192
X0.6025 Y0.5137
X0.6112 Y0.5087
X0.6198 Y0.5038
X0.6288 Y0.4995
X0.6378 Y0.4952
X0.6471 Y0.4915
X0.6564 Y0.488
X0.6659 Y0.485 Z-0.0429
X0.6754 Y0.4821
X0.6851 Y0.4797
X0.6949 Y0.4776
X0.7047 Y0.4759
X0.7145 Y0.4746
X0.7245 Y0.4736
X0.7344 Y0.473
X0.7444 Y0.4726
X0.7543 Y0.4728 Z-0.043
X0.7643 Y0.4731
X0.7742 Y0.474
X0.7841 Y0.4751
X0.7939 Y0.4767
X0.8038 Y0.4785
X0.8134 Y0.4809
X0.8231 Y0.4834
X0.8326 Y0.4864 Z-0.0431
X0.842 Y0.4896
X0.8513 Y0.4933
X0.8604 Y0.4972
X0.8694 Y0.5015
X0.8782 Y0.5061
X0.8869 Y0.511
X0.8954 Y0.5163
X0.9037 Y0.5217
X0.9117 Y0.5277 Z-0.0432
X0.9197 Y0.5337
X0.9272 Y0.5402
X0.9347 Y0.5468
X0.9417 Y0.5538
X0.9487 Y0.5609
X0.9552 Y0.5685
X0.9616 Y0.5761
X0.9677 Y0.584
X0.9735 Y0.5921 Z-0.0433
X0.9789 Y0.6005
X0.9841 Y0.609
X0.989 Y0.6177
X0.9935 Y0.6266
X0.9977 Y0.6356
X1.0015 Y0.6448
X1.0052 Y0.654
X1.0083 Y0.6635 Z-0.0434
X1.0113 Y0.673
X1.0137 Y0.6827
X1.0159 Y0.6924
X1.0176 Y0.7022
X1.0192 Y0.7121
X1.0202 Y0.722
X1.0209 Y0.7319
X1.0213 Y0.7419
Y0.7518 Z-0.0435
X1.021 Y0.7618
X1.0202 Y0.7717
X1.0192 Y0.7816
X1.0177 Y0.7915
X1.016 Y0.8013
X1.0137 Y0.811
X1.0114 Y0.8207
X1.0084 Y0.8302
X1.0053 Y0.8397 Z-0.0436
X1.0017 Y0.849
X0.9979 Y0.8582
X0.9936 Y0.8672
X0.9891 Y0.8761
X0.9842 Y0.8848
X0.9791 Y0.8933
X0.9736 Y0.9016
X0.9678 Y0.9097 Z-0.0437
X0.9618 Y0.9177
X0.9554 Y0.9253
X0.9489 Y0.9328
X0.9419 Y0.94
X0.9349 Y0.947
X0.9274 Y0.9536
X0.9199 Y0.9601
X0.912 Y0.9662
X0.904 Y0.9721 Z-0.0438
X0.8956 Y0.9776
X0.8872 Y0.9829
X0.8785 Y0.9878
X0.8697 Y0.9924
X0.8607 Y0.9967
X0.8515 Y1.0006
X0.8423 Y1.0043
X0.8329 Y1.0075
X0.8234 Y1.0106 Z-0.0439
X0.8137 Y1.0131
X0.804 Y1.0154
X0.7942 Y1.0172
X0.7844 Y1.0189
X0.7745 Y1.0199
X0.7646 Y1.0209
X0.7546 Y1.0212
X0.7447 Y1.0214 Z-0.044
X0.7347 Y1.021
X0.7248 Y1.0205
X0.7099 Y1.0189
X0.7074 Y1.0185
X0.705 Y1.0181
X0.6951 Y1.0164
X0.6854 Y1.0143
X0.6757 Y1.012
X0.6662 Y1.0091
X0.6567 Y1.0061 Z-0.0441
X0.6474 Y1.0026
X0.6381 Y0.9989
X0.6291 Y0.9947
X0.6201 Y0.9903
X0.6114 Y0.9855
X0.6028 Y0.9805
X0.5945 Y0.975
X0.5863 Y0.9694 Z-0.0442
X0.5783 Y0.9633
X0.5706 Y0.9571
X0.563 Y0.9505
X0.5558 Y0.9437
X0.5487 Y0.9367
X0.542 Y0.9293
X0.5355 Y0.9218
X0.5293 Y0.9139
X0.5233 Y0.906 Z-0.0443
X0.5178 Y0.8977
X0.5124 Y0.8894
X0.5075 Y0.8807
X0.5027 Y0.8719
X0.4984 Y0.8629
X0.4943 Y0.8539
X0.4906 Y0.8446
X0.4872 Y0.8352
X0.4842 Y0.8257 Z-0.0444
X0.4815 Y0.8161
X0.4792 Y0.8065
X0.4772 Y0.7967
X0.4755 Y0.7869
X0.4743 Y0.777
X0.4733 Y0.7671
X0.4729 Y0.7571
X0.4725 Y0.7471 Z-0.0445
X0.4729 Y0.7372
X0.4733 Y0.7272
X0.4743 Y0.7173
X0.4755 Y0.7074
X0.4772 Y0.6976
X0.4791 Y0.6878
X0.4814 Y0.6781
X0.4841 Y0.6685
X0.4871 Y0.659 Z-0.0446
X0.4905 Y0.6497
X0.4942 Y0.6404
X0.4983 Y0.6313
X0.5025 Y0.6223
X0.5073 Y0.6136
X0.5122 Y0.6049
X0.5176 Y0.5965
X0.5231 Y0.5882
X0.5292 Y0.5803 Z-0.0447
X0.5353 Y0.5724
X0.5418 Y0.5649
X0.5485 Y0.5575
X0.5556 Y0.5505
X0.5628 Y0.5437
X0.5703 Y0.5371
X0.5781 Y0.5308
X0.586 Y0.5248 Z-0.0448
X0.5942 Y0.5192
X0.6025 Y0.5137
X0.6112 Y0.5087
X0.6198 Y0.5038
X0.6288 Y0.4995
X0.6378 Y0.4952
X0.6471 Y0.4915
X0.6564 Y0.488
X0.6659 Y0.485 Z-0.0449
X0.6754 Y0.4821
X0.6851 Y0.4797
X0.6949 Y0.4776
X0.7047 Y0.4759
X0.7145 Y0.4746
X0.7245 Y0.4736
X0.7344 Y0.473
X0.7444 Y0.4726
X0.7543 Y0.4728 Z-0.045
X0.7643 Y0.4731
X0.7742 Y0.474
X0.7841 Y0.4751
X0.7939 Y0.4767
X0.8038 Y0.4785
X0.8134 Y0.4809
X0.8231 Y0.4834
X0.8326 Y0.4864 Z-0.0451
X0.842 Y0.4896
X0.8513 Y0.4933
X0.8604 Y0.4972
X0.8694 Y0.5015
X0.8782 Y0.5061
X0.8869 Y0.511
X0.8954 Y0.5163
X0.9037 Y0.5217
X0.9117 Y0.5277 Z-0.0452
X0.9197 Y0.5337
X0.9272 Y0.5402
X0.9347 Y0.5468
X0.9417 Y0.5538
X0.9487 Y0.5609
X0.9552 Y0.5685
X0.9616 Y0.5761
X0.9677 Y0.584
X0.9735 Y0.5921 Z-0.0453
X0.9789 Y0.6005
X0.9841 Y0.609
X0.989 Y0.6177
X0.9935 Y0.6266
X0.9977 Y0.6356
X1.0015 Y0.6448
X1.0052 Y0.654
X1.0083 Y0.6635 Z-0.0454
X1.0113 Y0.673
X1.0137 Y0.6827
X1.0159 Y0.6924
X1.0176 Y0.7022
X1.0192 Y0.7121
X1.0202 Y0.722
X1.0209 Y0.7319
X1.0213 Y0.7419
Y0.7518 Z-0.0455
X1.021 Y0.7618
X1.0202 Y0.7717
X1.0192 Y0.7816
X1.0177 Y0.7915
X1.016 Y0.8013
X1.0137 Y0.811
X1.0114 Y0.8207
X1.0084 Y0.8302
X1.0053 Y0.8397 Z-0.0456
X1.0017 Y0.849
X0.9979 Y0.8582
X0.9936 Y0.8672
X0.9891 Y0.8761
X0.9842 Y0.8848
X0.9791 Y0.8933
X0.9736 Y0.9016
X0.9678 Y0.9097 Z-0.0457
X0.9618 Y0.9177
X0.9554 Y0.9253
X0.9489 Y0.9328
X0.9419 Y0.94
X0.9349 Y0.947
X0.9274 Y0.9536
X0.9199 Y0.9601
X0.912 Y0.9662
X0.904 Y0.9721 Z-0.0458
X0.8956 Y0.9776
X0.8872 Y0.9829
X0.8785 Y0.9878
X0.8697 Y0.9924
X0.8607 Y0.9967
X0.8515 Y1.0006
X0.8423 Y1.0043
X0.8329 Y1.0075
X0.8234 Y1.0106 Z-0.0459
X0.8137 Y1.0131
X0.804 Y1.0154
X0.7942 Y1.0172
X0.7844 Y1.0189
X0.7745 Y1.0199
X0.7646 Y1.0209
X0.7546 Y1.0212
X0.7447 Y1.0214 Z-0.046
X0.7347 Y1.021
X0.7248 Y1.0205
X0.7099 Y1.0189
X0.7074 Y1.0185
X0.705 Y1.0181
X0.6951 Y1.0164
X0.6854 Y1.0143
X0.6757 Y1.012
X0.6662 Y1.0091
X0.6567 Y1.0061 Z-0.0461
X0.6474 Y1.0026
X0.6381 Y0.9989
X0.6291 Y0.9947
X0.6201 Y0.9903
X0.6114 Y0.9855
X0.6028 Y0.9805
X0.5945 Y0.975
X0.5863 Y0.9694 Z-0.0462
X0.5783 Y0.9633
X0.5706 Y0.9571
X0.563 Y0.9505
X0.5558 Y0.9437
X0.5487 Y0.9367
X0.542 Y0.9293
X0.5355 Y0.9218
X0.5293 Y0.9139
X0.5233 Y0.906 Z-0.0463
X0.5178 Y0.8977
X0.5124 Y0.8894
X0.5075 Y0.8807
X0.5027 Y0.8719
X0.4984 Y0.8629
X0.4943 Y0.8539
X0.4906 Y0.8446
X0.4872 Y0.8352
X0.4842 Y0.8257 Z-0.0464
X0.4815 Y0.8161
X0.4792 Y0.8065
X0.4772 Y0.7967
X0.4755 Y0.7869
X0.4743 Y0.777
X0.4733 Y0.7671
X0.4729 Y0.7571
X0.4725 Y0.7471 Z-0.0465
X0.4729 Y0.7372
X0.4733 Y0.7272
X0.4743 Y0.7173
X0.4755 Y0.7074
X0.4772 Y0.6976
X0.4791 Y0.6878
X0.4814 Y0.6781
X0.4841 Y0.6685
X0.4871 Y0.659 Z-0.0466
X0.4905 Y0.6497
X0.4942 Y0.6404
X0.4983 Y0.6313
X0.5025 Y0.6223
X0.5073 Y0.6136
X0.5122 Y0.6049
X0.5176 Y0.5965
X0.5231 Y0.5882
X0.5292 Y0.5803 Z-0.0467
X0.5353 Y0.5724
X0.5418 Y0.5649
X0.5485 Y0.5575
X0.5556 Y0.5505
X0.5628 Y0.5437
X0.5703 Y0.5371
X0.5781 Y0.5308
X0.586 Y0.5248 Z-0.0468
X0.5942 Y0.5192
X0.6025 Y0.5137
X0.6112 Y0.5087
X0.6198 Y0.5038
X0.6288 Y0.4995
X0.6378 Y0.4952
X0.6471 Y0.4915
X0.6564 Y0.488
X0.6659 Y0.485 Z-0.0469
X0.6754 Y0.4821
X0.6851 Y0.4797
X0.6949 Y0.4776
X0.7047 Y0.4759
X0.7145 Y0.4746
X0.7245 Y0.4736
X0.7344 Y0.473
X0.7444 Y0.4726
X0.7543 Y0.4728 Z-0.047
X0.7643 Y0.4731
X0.7742 Y0.474
X0.7841 Y0.4751
X0.7939 Y0.4767
X0.8038 Y0.4785
X0.8134 Y0.4809
X0.8231 Y0.4834
X0.8326 Y0.4864 Z-0.0471
X0.842 Y0.4896
X0.8513 Y0.4933
X0.8604 Y0.4972
X0.8694 Y0.5015
X0.8782 Y0.5061
X0.8869 Y0.511
X0.8954 Y0.5163
X0.9037 Y0.5217
X0.9117 Y0.5277 Z-0.0472
X0.9197 Y0.5337
X0.9272 Y0.5402
X0.9347 Y0.5468
X0.9417 Y0.5538
X0.9487 Y0.5609
X0.9552 Y0.5685
X0.9616 Y0.5761
X0.9677 Y0.584
X0.9735 Y0.5921 Z-0.0473
X0.9789 Y0.6005
X0.9841 Y0.609
X0.989 Y0.6177
X0.9935 Y0.6266
X0.9977 Y0.6356
X1.0015 Y0.6448
X1.0052 Y0.654
X1.0083 Y0.6635 Z-0.0474
X1.0113 Y0.673
X1.0137 Y0.6827
X1.0159 Y0.6924
X1.0176 Y0.7022
X1.0192 Y0.7121
X1.0202 Y0.722
X1.0209 Y0.7319
X1.0213 Y0.7419
Y0.7518 Z-0.0475
X1.021 Y0.7618
X1.0202 Y0.7717
X1.0192 Y0.7816
X1.0177 Y0.7915
X1.016 Y0.8013
X1.0137 Y0.811
X1.0114 Y0.8207
X1.0084 Y0.8302
X1.0053 Y0.8397 Z-0.0476
X1.0017 Y0.849
X0.9979 Y0.8582
X0.9936 Y0.8672
X0.9891 Y0.8761
X0.9842 Y0.8848
X0.9791 Y0.8933
X0.9736 Y0.9016
X0.9678 Y0.9097 Z-0.0477
X0.9618 Y0.9177
X0.9554 Y0.9253
X0.9489 Y0.9328
X0.9419 Y0.94
X0.9349 Y0.947
X0.9274 Y0.9536
X0.9199 Y0.9601
X0.912 Y0.9662
X0.904 Y0.9721 Z-0.0478
X0.8956 Y0.9776
X0.8872 Y0.9829
X0.8785 Y0.9878
X0.8697 Y0.9924
X0.8607 Y0.9967
X0.8515 Y1.0006
X0.8423 Y1.0043
X0.8329 Y1.0075
X0.8234 Y1.0106 Z-0.0479
X0.8137 Y1.0131
X0.804 Y1.0154
X0.7942 Y1.0172
X0.7844 Y1.0189
X0.7745 Y1.0199
X0.7646 Y1.0209
X0.7546 Y1.0212
X0.7447 Y1.0214 Z-0.048
X0.7347 Y1.021
X0.7248 Y1.0205
X0.7099 Y1.0189
X0.7074 Y1.0185
X0.705 Y1.0181
X0.6951 Y1.0164
X0.6854 Y1.0143
X0.6757 Y1.012
X0.6662 Y1.0091
X0.6567 Y1.0061 Z-0.0481
X0.6474 Y1.0026
X0.6381 Y0.9989
X0.6291 Y0.9947
X0.6201 Y0.9903
X0.6114 Y0.9855
X0.6028 Y0.9805
X0.5945 Y0.975
X0.5863 Y0.9694 Z-0.0482
X0.5783 Y0.9633
X0.5706 Y0.9571
X0.563 Y0.9505
X0.5558 Y0.9437
X0.5487 Y0.9367
X0.542 Y0.9293
X0.5355 Y0.9218
X0.5293 Y0.9139
X0.5233 Y0.906 Z-0.0483
X0.5178 Y0.8977
X0.5124 Y0.8894
X0.5075 Y0.8807
X0.5027 Y0.8719
X0.4984 Y0.8629
X0.4943 Y0.8539
X0.4906 Y0.8446
X0.4872 Y0.8352
X0.4842 Y0.8257 Z-0.0484
X0.4815 Y0.8161
X0.4792 Y0.8065
X0.4772 Y0.7967
X0.4755 Y0.7869
X0.4743 Y0.777
X0.4733 Y0.7671
X0.4729 Y0.7571
X0.4725 Y0.7471 Z-0.0485
X0.4729 Y0.7372
X0.4733 Y0.7272
X0.4743 Y0.7173
X0.4755 Y0.7074
X0.4772 Y0.6976
X0.4791 Y0.6878
X0.4814 Y0.6781
X0.4841 Y0.6685
X0.4871 Y0.659 Z-0.0486
X0.4905 Y0.6497
X0.4942 Y0.6404
X0.4983 Y0.6313
X0.5025 Y0.6223
X0.5073 Y0.6136
X0.5122 Y0.6049
X0.5176 Y0.5965
X0.5231 Y0.5882
X0.5292 Y0.5803 Z-0.0487
X0.5353 Y0.5724
X0.5418 Y0.5649
X0.5485 Y0.5575
X0.5556 Y0.5505
X0.5628 Y0.5437
X0.5703 Y0.5371
X0.5781 Y0.5308
X0.586 Y0.5248 Z-0.0488
X0.5942 Y0.5192
X0.6025 Y0.5137
X0.6112 Y0.5087
X0.6198 Y0.5038
X0.6288 Y0.4995
X0.6378 Y0.4952
X0.6471 Y0.4915
X0.6564 Y0.488
X0.6659 Y0.485 Z-0.0489
X0.6754 Y0.4821
X0.6851 Y0.4797
X0.6949 Y0.4776
X0.7047 Y0.4759
X0.7145 Y0.4746
X0.7245 Y0.4736
X0.7344 Y0.473
X0.7444 Y0.4726
X0.7543 Y0.4728 Z-0.049
X0.7643 Y0.4731
X0.7742 Y0.474
X0.7841 Y0.4751
X0.7939 Y0.4767
X0.8038 Y0.4785
X0.8134 Y0.4809
X0.8231 Y0.4834
X0.8326 Y0.4864 Z-0.0491
X0.842 Y0.4896
X0.8513 Y0.4933
X0.8604 Y0.4972
X0.8694 Y0.5015
X0.8782 Y0.5061
X0.8869 Y0.511
X0.8954 Y0.5163
X0.9037 Y0.5217
X0.9117 Y0.5277 Z-0.0492
X0.9197 Y0.5337
X0.9272 Y0.5402
X0.9347 Y0.5468
X0.9417 Y0.5538
X0.9487 Y0.5609
X0.9552 Y0.5685
X0.9616 Y0.5761
X0.9677 Y0.584
X0.9735 Y0.5921 Z-0.0493
X0.9789 Y0.6005
X0.9841 Y0.609
X0.989 Y0.6177
X0.9935 Y0.6266
X0.9977 Y0.6356
X1.0015 Y0.6448
X1.0052 Y0.654
X1.0083 Y0.6635 Z-0.0494
X1.0113 Y0.673
X1.0137 Y0.6827
X1.0159 Y0.6924
X1.0176 Y0.7022
X1.0192 Y0.7121
X1.0202 Y0.722
X1.0209 Y0.7319
X1.0213 Y0.7419
Y0.7518 Z-0.0495
X1.021 Y0.7618
X1.0202 Y0.7717
X1.0192 Y0.7816
X1.0177 Y0.7915
X1.016 Y0.8013
X1.0137 Y0.811
X1.0114 Y0.8207
X1.0084 Y0.8302
X1.0053 Y0.8397 Z-0.0496
X1.0017 Y0.849
X0.9979 Y0.8582
X0.9936 Y0.8672
X0.9891 Y0.8761
X0.9842 Y0.8848
X0.9791 Y0.8933
X0.9736 Y0.9016
X0.9678 Y0.9097 Z-0.0497
X0.9618 Y0.9177
X0.9554 Y0.9253
X0.9489 Y0.9328
X0.9419 Y0.94
X0.9349 Y0.947
X0.9274 Y0.9536
X0.9199 Y0.9601
X0.912 Y0.9662
X0.904 Y0.9721 Z-0.0498
X0.8956 Y0.9776
X0.8872 Y0.9829
X0.8785 Y0.9878
X0.8697 Y0.9924
X0.8607 Y0.9967
X0.8515 Y1.0006
X0.8423 Y1.0043
X0.8329 Y1.0075
X0.8234 Y1.0106 Z-0.0499
X0.8137 Y1.0131
X0.804 Y1.0154
X0.7942 Y1.0172
X0.7844 Y1.0189
X0.7745 Y1.0199
X0.7646 Y1.0209
X0.7546 Y1.0212
X0.7447 Y1.0214 Z-0.05
X0.7347 Y1.021
X0.7248 Y1.0205
X0.7099 Y1.0189
X0.7074 Y1.0185
X0.705 Y1.0181
X0.6951 Y1.0164
X0.6854 Y1.0143
X0.6757 Y1.012
X0.6662 Y1.0091
X0.6567 Y1.0061 Z-0.0501
X0.6474 Y1.0026
X0.6381 Y0.9989
X0.6291 Y0.9947
X0.6201 Y0.9903
X0.6114 Y0.9855
X0.6028 Y0.9805
X0.5945 Y0.975
X0.5863 Y0.9694 Z-0.0502
X0.5783 Y0.9633
X0.5706 Y0.9571
X0.563 Y0.9505
X0.5558 Y0.9437
X0.5487 Y0.9367
X0.542 Y0.9293
X0.5355 Y0.9218
X0.5293 Y0.9139
X0.5233 Y0.906 Z-0.0503
X0.5178 Y0.8977
X0.5124 Y0.8894
X0.5075 Y0.8807
X0.5027 Y0.8719
X0.4984 Y0.8629
X0.4943 Y0.8539
X0.4906 Y0.8446
X0.4872 Y0.8352
X0.4842 Y0.8257 Z-0.0504
X0.4815 Y0.8161
X0.4792 Y0.8065
X0.4772 Y0.7967
X0.4755 Y0.7869
X0.4743 Y0.777
X0.4733 Y0.7671
X0.4729 Y0.7571
X0.4725 Y0.7471 Z-0.0505
X0.4729 Y0.7372
X0.4733 Y0.7272
X0.4743 Y0.7173
X0.4755 Y0.7074
X0.4772 Y0.6976
X0.4791 Y0.6878
X0.4814 Y0.6781
X0.4841 Y0.6685
X0.4871 Y0.659 Z-0.0506
X0.4905 Y0.6497
X0.4942 Y0.6404
X0.4983 Y0.6313
X0.5025 Y0.6223
X0.5073 Y0.6136
X0.5122 Y0.6049
X0.5176 Y0.5965
X0.5231 Y0.5882
X0.5292 Y0.5803 Z-0.0507
X0.5353 Y0.5724
X0.5418 Y0.5649
X0.5485 Y0.5575
X0.5556 Y0.5505
X0.5628 Y0.5437
X0.5703 Y0.5371
X0.5781 Y0.5308
X0.586 Y0.5248 Z-0.0508
X0.5942 Y0.5192
X0.6025 Y0.5137
X0.6112 Y0.5087
X0.6198 Y0.5038
X0.6288 Y0.4995
X0.6378 Y0.4952
X0.6471 Y0.4915
X0.6564 Y0.488
X0.6659 Y0.485 Z-0.0509
X0.6754 Y0.4821
X0.6851 Y0.4797
X0.6949 Y0.4776
X0.7047 Y0.4759
X0.7145 Y0.4746
X0.7245 Y0.4736
X0.7344 Y0.473
X0.7444 Y0.4726
X0.7543 Y0.4728 Z-0.051
X0.7643 Y0.4731
X0.7742 Y0.474
X0.7841 Y0.4751
X0.7939 Y0.4767
X0.8038 Y0.4785
X0.8134 Y0.4809
X0.8231 Y0.4834
X0.8326 Y0.4864 Z-0.0511
X0.842 Y0.4896
X0.8513 Y0.4933
X0.8604 Y0.4972
X0.8694 Y0.5015
X0.8782 Y0.5061
X0.8869 Y0.511
X0.8954 Y0.5163
X0.9037 Y0.5217
X0.9117 Y0.5277 Z-0.0512
X0.9197 Y0.5337
X0.9272 Y0.5402
X0.9347 Y0.5468
X0.9417 Y0.5538
X0.9487 Y0.5609
X0.9552 Y0.5685
X0.9616 Y0.5761
X0.9677 Y0.584
X0.9735 Y0.5921 Z-0.0513
X0.9789 Y0.6005
X0.9841 Y0.609
X0.989 Y0.6177
X0.9935 Y0.6266
X0.9977 Y0.6356
X1.0015 Y0.6448
X1.0052 Y0.654
X1.0083 Y0.6635 Z-0.0514
X1.0113 Y0.673
X1.0137 Y0.6827
X1.0159 Y0.6924
X1.0176 Y0.7022
X1.0192 Y0.7121
X1.0202 Y0.722
X1.0209 Y0.7319
X1.0213 Y0.7419
Y0.7518 Z-0.0515
X1.021 Y0.7618
X1.0202 Y0.7717
X1.0192 Y0.7816
X1.0177 Y0.7915
X1.016 Y0.8013
X1.0137 Y0.811
X1.0114 Y0.8207
X1.0084 Y0.8302
X1.0053 Y0.8397 Z-0.0516
X1.0017 Y0.849
X0.9979 Y0.8582
X0.9936 Y0.8672
X0.9891 Y0.8761
X0.9842 Y0.8848
X0.9791 Y0.8933
X0.9736 Y0.9016
X0.9678 Y0.9097 Z-0.0517
X0.9618 Y0.9177
X0.9554 Y0.9253
X0.9489 Y0.9328
X0.9419 Y0.94
X0.9349 Y0.947
X0.9274 Y0.9536
X0.9199 Y0.9601
X0.912 Y0.9662
X0.904 Y0.9721 Z-0.0518
X0.8956 Y0.9776
X0.8872 Y0.9829
X0.8785 Y0.9878
X0.8697 Y0.9924
X0.8607 Y0.9967
X0.8515 Y1.0006
X0.8423 Y1.0043
X0.8329 Y1.0075
X0.8234 Y1.0106 Z-0.0519
X0.8137 Y1.0131
X0.804 Y1.0154
X0.7942 Y1.0172
X0.7844 Y1.0189
X0.7745 Y1.0199
X0.7646 Y1.0209
X0.7546 Y1.0212
X0.7447 Y1.0214 Z-0.052
X0.7347 Y1.021
X0.7248 Y1.0205
X0.7099 Y1.0189
X0.7074 Y1.0185
X0.705 Y1.0181
X0.6951 Y1.0164
X0.6854 Y1.0143
X0.6757 Y1.012
X0.6662 Y1.0091
X0.6567 Y1.0061 Z-0.0521
X0.6474 Y1.0026
X0.6381 Y0.9989
X0.6291 Y0.9947
X0.6201 Y0.9903
X0.6114 Y0.9855
X0.6028 Y0.9805
X0.5945 Y0.975
X0.5863 Y0.9694 Z-0.0522
X0.5783 Y0.9633
X0.5706 Y0.9571
X0.563 Y0.9505
X0.5558 Y0.9437
X0.5487 Y0.9367
X0.542 Y0.9293
X0.5355 Y0.9218
X0.5293 Y0.9139
X0.5233 Y0.906 Z-0.0523
X0.5178 Y0.8977
X0.5124 Y0.8894
X0.5075 Y0.8807
X0.5027 Y0.8719
X0.4984 Y0.8629
X0.4943 Y0.8539
X0.4906 Y0.8446
X0.4872 Y0.8352
X0.4842 Y0.8257 Z-0.0524
X0.4815 Y0.8161
X0.4792 Y0.8065
X0.4772 Y0.7967
X0.4755 Y0.7869
X0.4743 Y0.777
X0.4733 Y0.7671
X0.4729 Y0.7571
X0.4725 Y0.7471 Z-0.0525
X0.4729 Y0.7372
X0.4733 Y0.7272
X0.4743 Y0.7173
X0.4755 Y0.7074
X0.4772 Y0.6976
X0.4791 Y0.6878
X0.4814 Y0.6781
X0.4841 Y0.6685
X0.4871 Y0.659 Z-0.0526
X0.4905 Y0.6497
X0.4942 Y0.6404
X0.4983 Y0.6313
X0.5025 Y0.6223
X0.5073 Y0.6136
X0.5122 Y0.6049
X0.5176 Y0.5965
X0.5231 Y0.5882
X0.5292 Y0.5803 Z-0.0527
X0.5353 Y0.5724
X0.5418 Y0.5649
X0.5485 Y0.5575
X0.5556 Y0.5505
X0.5628 Y0.5437
X0.5703 Y0.5371
X0.5781 Y0.5308
X0.586 Y0.5248 Z-0.0528
X0.5942 Y0.5192
X0.6025 Y0.5137
X0.6112 Y0.5087
X0.6198 Y0.5038
X0.6288 Y0.4995
X0.6378 Y0.4952
X0.6471 Y0.4915
X0.6564 Y0.488
X0.6659 Y0.485 Z-0.0529
X0.6754 Y0.4821
X0.6851 Y0.4797
X0.6949 Y0.4776
X0.7047 Y0.4759
X0.7145 Y0.4746
X0.7245 Y0.4736
X0.7344 Y0.473
X0.7444 Y0.4726
X0.7543 Y0.4728 Z-0.053
X0.7643 Y0.4731
X0.7742 Y0.474
X0.7841 Y0.4751
X0.7939 Y0.4767
X0.8038 Y0.4785
X0.8134 Y0.4809
X0.8231 Y0.4834
X0.8326 Y0.4864 Z-0.0531
X0.842 Y0.4896
X0.8513 Y0.4933
X0.8604 Y0.4972
X0.8694 Y0.5015
X0.8782 Y0.5061
X0.8869 Y0.511
X0.8954 Y0.5163
X0.9037 Y0.5217
X0.9117 Y0.5277 Z-0.0532
X0.9197 Y0.5337
X0.9272 Y0.5402
X0.9347 Y0.5468
X0.9417 Y0.5538
X0.9487 Y0.5609
X0.9552 Y0.5685
X0.9616 Y0.5761
X0.9677 Y0.584
X0.9735 Y0.5921 Z-0.0533
X0.9789 Y0.6005
X0.9841 Y0.609
X0.989 Y0.6177
X0.9935 Y0.6266
X0.9977 Y0.6356
X1.0015 Y0.6448
X1.0052 Y0.654
X1.0083 Y0.6635 Z-0.0534
X1.0113 Y0.673
X1.0137 Y0.6827
X1.0159 Y0.6924
X1.0176 Y0.7022
X1.0192 Y0.7121
X1.0202 Y0.722
X1.0209 Y0.7319
X1.0213 Y0.7419
Y0.7518 Z-0.0535
X1.021 Y0.7618
X1.0202 Y0.7717
X1.0192 Y0.7816
X1.0177 Y0.7915
X1.016 Y0.8013
X1.0137 Y0.811
X1.0114 Y0.8207
X1.0084 Y0.8302
X1.0053 Y0.8397 Z-0.0536
X1.0017 Y0.849
X0.9979 Y0.8582
X0.9936 Y0.8672
X0.9891 Y0.8761
X0.9842 Y0.8848
X0.9791 Y0.8933
X0.9736 Y0.9016
X0.9678 Y0.9097 Z-0.0537
X0.9618 Y0.9177
X0.9554 Y0.9253
X0.9489 Y0.9328
X0.9419 Y0.94
X0.9349 Y0.947
X0.9274 Y0.9536
X0.9199 Y0.9601
X0.912 Y0.9662
X0.904 Y0.9721 Z-0.0538
X0.8956 Y0.9776
X0.8872 Y0.9829
X0.8785 Y0.9878
X0.8697 Y0.9924
X0.8607 Y0.9967
X0.8515 Y1.0006
X0.8423 Y1.0043
X0.8329 Y1.0075
X0.8234 Y1.0106 Z-0.0539
X0.8137 Y1.0131
X0.804 Y1.0154
X0.7942 Y1.0172
X0.7844 Y1.0189
X0.7745 Y1.0199
X0.7646 Y1.0209
X0.7546 Y1.0212
X0.7447 Y1.0214 Z-0.054
X0.7347 Y1.021
X0.7248 Y1.0205
X0.7099 Y1.0189
X0.7074 Y1.0185
X0.705 Y1.0181
X0.6951 Y1.0164
X0.6854 Y1.0143
X0.6757 Y1.012
X0.6662 Y1.0091
X0.6567 Y1.0061 Z-0.0541
X0.6474 Y1.0026
X0.6381 Y0.9989
X0.6291 Y0.9947
X0.6201 Y0.9903
X0.6114 Y0.9855
X0.6028 Y0.9805
X0.5945 Y0.975
X0.5863 Y0.9694 Z-0.0542
X0.5783 Y0.9633
X0.5706 Y0.9571
X0.563 Y0.9505
X0.5558 Y0.9437
X0.5487 Y0.9367
X0.542 Y0.9293
X0.5355 Y0.9218
X0.5293 Y0.9139
X0.5233 Y0.906 Z-0.0543
X0.5178 Y0.8977
X0.5124 Y0.8894
X0.5075 Y0.8807
X0.5027 Y0.8719
X0.4984 Y0.8629
X0.4943 Y0.8539
X0.4906 Y0.8446
X0.4872 Y0.8352
X0.4842 Y0.8257 Z-0.0544
X0.4815 Y0.8161
X0.4792 Y0.8065
X0.4772 Y0.7967
X0.4755 Y0.7869
X0.4743 Y0.777
X0.4733 Y0.7671
X0.4729 Y0.7571
X0.4725 Y0.7471 Z-0.0545
X0.4729 Y0.7372
X0.4733 Y0.7272
X0.4743 Y0.7173
X0.4755 Y0.7074
X0.4772 Y0.6976
X0.4791 Y0.6878
X0.4814 Y0.6781
X0.4841 Y0.6685
X0.4871 Y0.659 Z-0.0546
X0.4905 Y0.6497
X0.4942 Y0.6404
X0.4983 Y0.6313
X0.5025 Y0.6223
X0.5073 Y0.6136
X0.5122 Y0.6049
X0.5176 Y0.5965
X0.5231 Y0.5882
X0.5292 Y0.5803 Z-0.0547
X0.5353 Y0.5724
X0.5418 Y0.5649
X0.5485 Y0.5575
X0.5556 Y0.5505
X0.5628 Y0.5437
X0.5703 Y0.5371
X0.5781 Y0.5308
X0.586 Y0.5248 Z-0.0548
X0.5942 Y0.5192
X0.6025 Y0.5137
X0.6112 Y0.5087
X0.6198 Y0.5038
X0.6288 Y0.4995
X0.6378 Y0.4952
X0.6471 Y0.4915
X0.6564 Y0.488
X0.6659 Y0.485 Z-0.0549
X0.6754 Y0.4821
X0.6851 Y0.4797
X0.6949 Y0.4776
X0.7047 Y0.4759
X0.7145 Y0.4746
X0.7245 Y0.4736
X0.7344 Y0.473
X0.7444 Y0.4726
X0.7543 Y0.4728 Z-0.055
X0.7643 Y0.4731
X0.7742 Y0.474
X0.7841 Y0.4751
X0.7939 Y0.4767
X0.8038 Y0.4785
X0.8134 Y0.4809
X0.8231 Y0.4834
X0.8326 Y0.4864 Z-0.0551
X0.842 Y0.4896
X0.8513 Y0.4933
X0.8604 Y0.4972
X0.8694 Y0.5015
X0.8782 Y0.5061
X0.8869 Y0.511
X0.8954 Y0.5163
X0.9037 Y0.5217
X0.9117 Y0.5277 Z-0.0552
X0.9197 Y0.5337
X0.9272 Y0.5402
X0.9347 Y0.5468
X0.9417 Y0.5538
X0.9487 Y0.5609
X0.9552 Y0.5685
X0.9616 Y0.5761
X0.9677 Y0.584
X0.9735 Y0.5921 Z-0.0553
X0.9789 Y0.6005
X0.9841 Y0.609
X0.989 Y0.6177
X0.9935 Y0.6266
X0.9977 Y0.6356
X1.0015 Y0.6448
X1.0052 Y0.654
X1.0083 Y0.6635 Z-0.0554
X1.0113 Y0.673
X1.0137 Y0.6827
X1.0159 Y0.6924
X1.0176 Y0.7022
X1.0192 Y0.7121
X1.0202 Y0.722
X1.0209 Y0.7319
X1.0213 Y0.7419
Y0.7518 Z-0.0555
X1.021 Y0.7618
X1.0202 Y0.7717
X1.0192 Y0.7816
X1.0177 Y0.7915
X1.016 Y0.8013
X1.0137 Y0.811
X1.0114 Y0.8207
X1.0084 Y0.8302
X1.0053 Y0.8397 Z-0.0556
X1.0017 Y0.849
X0.9979 Y0.8582
X0.9936 Y0.8672
X0.9891 Y0.8761
X0.9842 Y0.8848
X0.9791 Y0.8933
X0.9736 Y0.9016
X0.9678 Y0.9097 Z-0.0557
X0.9618 Y0.9177
X0.9554 Y0.9253
X0.9489 Y0.9328
X0.9419 Y0.94
X0.9349 Y0.947
X0.9274 Y0.9536
X0.9199 Y0.9601
X0.912 Y0.9662
X0.904 Y0.9721 Z-0.0558
X0.8956 Y0.9776
X0.8872 Y0.9829
X0.8785 Y0.9878
X0.8697 Y0.9924
X0.8607 Y0.9967
X0.8515 Y1.0006
X0.8423 Y1.0043
X0.8329 Y1.0075
X0.8234 Y1.0106 Z-0.0559
X0.8137 Y1.0131
X0.804 Y1.0154
X0.7942 Y1.0172
X0.7844 Y1.0189
X0.7745 Y1.0199
X0.7646 Y1.0209
X0.7546 Y1.0212
X0.7447 Y1.0214 Z-0.056
X0.7347 Y1.021
X0.7248 Y1.0205
X0.7099 Y1.0189
X0.7074 Y1.0185
X0.705 Y1.0181
X0.6951 Y1.0164
X0.6854 Y1.0143
X0.6757 Y1.012
X0.6662 Y1.0091
X0.6567 Y1.0061 Z-0.0561
X0.6474 Y1.0026
X0.6381 Y0.9989
X0.6291 Y0.9947
X0.6201 Y0.9903
X0.6114 Y0.9855
X0.6028 Y0.9805
X0.5945 Y0.975
X0.5863 Y0.9694 Z-0.0562
X0.5783 Y0.9633
X0.5706 Y0.9571
X0.563 Y0.9505
X0.5558 Y0.9437
X0.5487 Y0.9367
X0.542 Y0.9293
X0.5355 Y0.9218
X0.5293 Y0.9139
X0.5233 Y0.906 Z-0.0563
X0.5178 Y0.8977
X0.5124 Y0.8894
X0.5075 Y0.8807
X0.5027 Y0.8719
X0.4984 Y0.8629
X0.4943 Y0.8539
X0.4906 Y0.8446
X0.4872 Y0.8352
X0.4842 Y0.8257 Z-0.0564
X0.4815 Y0.8161
X0.4792 Y0.8065
X0.4772 Y0.7967
X0.4755 Y0.7869
X0.4743 Y0.777
X0.4733 Y0.7671
X0.4729 Y0.7571
X0.4725 Y0.7471 Z-0.0565
X0.4729 Y0.7372
X0.4733 Y0.7272
X0.4743 Y0.7173
X0.4755 Y0.7074
X0.4772 Y0.6976
X0.4791 Y0.6878
X0.4814 Y0.6781
X0.4841 Y0.6685
X0.4871 Y0.659 Z-0.0566
X0.4905 Y0.6497
X0.4942 Y0.6404
X0.4983 Y0.6313
X0.5025 Y0.6223
X0.5073 Y0.6136
X0.5122 Y0.6049
X0.5176 Y0.5965
X0.5231 Y0.5882
X0.5292 Y0.5803 Z-0.0567
X0.5353 Y0.5724
X0.5418 Y0.5649
X0.5485 Y0.5575
X0.5556 Y0.5505
X0.5628 Y0.5437
X0.5703 Y0.5371
X0.5781 Y0.5308
X0.586 Y0.5248 Z-0.0568
X0.5942 Y0.5192
X0.6025 Y0.5137
X0.6112 Y0.5087
X0.6198 Y0.5038
X0.6288 Y0.4995
X0.6378 Y0.4952
X0.6471 Y0.4915
X0.6564 Y0.488
X0.6659 Y0.485 Z-0.0569
X0.6754 Y0.4821
X0.6851 Y0.4797
X0.6949 Y0.4776
X0.7047 Y0.4759
X0.7145 Y0.4746
X0.7245 Y0.4736
X0.7344 Y0.473
X0.7444 Y0.4726
X0.7543 Y0.4728 Z-0.057
X0.7643 Y0.4731
X0.7742 Y0.474
X0.7841 Y0.4751
X0.7939 Y0.4767
X0.8038 Y0.4785
X0.8134 Y0.4809
X0.8231 Y0.4834
X0.8326 Y0.4864 Z-0.0571
X0.842 Y0.4896
X0.8513 Y0.4933
X0.8604 Y0.4972
X0.8694 Y0.5015
X0.8782 Y0.5061
X0.8869 Y0.511
X0.8954 Y0.5163
X0.9037 Y0.5217
X0.9117 Y0.5277 Z-0.0572
X0.9197 Y0.5337
X0.9272 Y0.5402
X0.9347 Y0.5468
X0.9417 Y0.5538
X0.9487 Y0.5609
X0.9552 Y0.5685
X0.9616 Y0.5761
X0.9677 Y0.584
X0.9735 Y0.5921 Z-0.0573
X0.9789 Y0.6005
X0.9841 Y0.609
X0.989 Y0.6177
X0.9935 Y0.6266
X0.9977 Y0.6356
X1.0015 Y0.6448
X1.0052 Y0.654
X1.0083 Y0.6635 Z-0.0574
X1.0113 Y0.673
X1.0137 Y0.6827
X1.0159 Y0.6924
X1.0176 Y0.7022
X1.0192 Y0.7121
X1.0202 Y0.722
X1.0209 Y0.7319
X1.0213 Y0.7419
Y0.7518 Z-0.0575
X1.021 Y0.7618
X1.0202 Y0.7717
X1.0192 Y0.7816
X1.0177 Y0.7915
X1.016 Y0.8013
X1.0137 Y0.811
X1.0114 Y0.8207
X1.0084 Y0.8302
X1.0053 Y0.8397 Z-0.0576
X1.0017 Y0.849
X0.9979 Y0.8582
X0.9936 Y0.8672
X0.9891 Y0.8761
X0.9842 Y0.8848
X0.9791 Y0.8933
X0.9736 Y0.9016
X0.9678 Y0.9097 Z-0.0577
X0.9618 Y0.9177
X0.9554 Y0.9253
X0.9489 Y0.9328
X0.9419 Y0.94
X0.9349 Y0.947
X0.9274 Y0.9536
X0.9199 Y0.9601
X0.912 Y0.9662
X0.904 Y0.9721 Z-0.0578
X0.8956 Y0.9776
X0.8872 Y0.9829
X0.8785 Y0.9878
X0.8697 Y0.9924
X0.8607 Y0.9967
X0.8515 Y1.0006
X0.8423 Y1.0043
X0.8329 Y1.0075
X0.8234 Y1.0106 Z-0.0579
X0.8137 Y1.0131
X0.804 Y1.0154
X0.7942 Y1.0172
X0.7844 Y1.0189
X0.7745 Y1.0199
X0.7646 Y1.0209
X0.7546 Y1.0212
X0.7447 Y1.0214 Z-0.058
X0.7347 Y1.021
X0.7248 Y1.0205
X0.7099 Y1.0189
X0.7074 Y1.0185
X0.705 Y1.0181
X0.6951 Y1.0164
X0.6854 Y1.0143
X0.6757 Y1.012
X0.6662 Y1.0091
X0.6567 Y1.0061 Z-0.0581
X0.6474 Y1.0026
X0.6381 Y0.9989
X0.6291 Y0.9947
X0.6201 Y0.9903
X0.6114 Y0.9855
X0.6028 Y0.9805
X0.5945 Y0.975
X0.5863 Y0.9694 Z-0.0582
X0.5783 Y0.9633
X0.5706 Y0.9571
X0.563 Y0.9505
X0.5558 Y0.9437
X0.5487 Y0.9367
X0.542 Y0.9293
X0.5355 Y0.9218
X0.5293 Y0.9139
X0.5233 Y0.906 Z-0.0583
X0.5178 Y0.8977
X0.5124 Y0.8894
X0.5075 Y0.8807
X0.5027 Y0.8719
X0.4984 Y0.8629
X0.4943 Y0.8539
X0.4906 Y0.8446
X0.4872 Y0.8352
X0.4842 Y0.8257 Z-0.0584
X0.4815 Y0.8161
X0.4792 Y0.8065
X0.4772 Y0.7967
X0.4755 Y0.7869
X0.4743 Y0.777
X0.4733 Y0.7671
X0.4729 Y0.7571
X0.4725 Y0.7471 Z-0.0585
X0.4729 Y0.7372
X0.4733 Y0.7272
X0.4743 Y0.7173
X0.4755 Y0.7074
X0.4772 Y0.6976
X0.4791 Y0.6878
X0.4814 Y0.6781
X0.4841 Y0.6685
X0.4871 Y0.659 Z-0.0586
X0.4905 Y0.6497
X0.4942 Y0.6404
X0.4983 Y0.6313
X0.5025 Y0.6223
X0.5073 Y0.6136
X0.5122 Y0.6049
X0.5176 Y0.5965
X0.5231 Y0.5882
X0.5292 Y0.5803 Z-0.0587
X0.5353 Y0.5724
X0.5418 Y0.5649
X0.5485 Y0.5575
X0.5556 Y0.5505
X0.5628 Y0.5437
X0.5703 Y0.5371
X0.5781 Y0.5308
X0.586 Y0.5248 Z-0.0588
X0.5942 Y0.5192
X0.6025 Y0.5137
X0.6112 Y0.5087
X0.6198 Y0.5038
X0.6288 Y0.4995
X0.6378 Y0.4952
X0.6471 Y0.4915
X0.6564 Y0.488
X0.6659 Y0.485 Z-0.0589
X0.6754 Y0.4821
X0.6851 Y0.4797
X0.6949 Y0.4776
X0.7047 Y0.4759
X0.7145 Y0.4746
X0.7245 Y0.4736
X0.7344 Y0.473
X0.7444 Y0.4726
X0.7543 Y0.4728 Z-0.059
X0.7643 Y0.4731
X0.7742 Y0.474
X0.7841 Y0.4751
X0.7939 Y0.4767
X0.8038 Y0.4785
X0.8134 Y0.4809
X0.8231 Y0.4834
X0.8326 Y0.4864 Z-0.0591
X0.842 Y0.4896
X0.8513 Y0.4933
X0.8604 Y0.4972
X0.8694 Y0.5015
X0.8782 Y0.5061
X0.8869 Y0.511
X0.8954 Y0.5163
X0.9037 Y0.5217
X0.9117 Y0.5277 Z-0.0592
X0.9197 Y0.5337
X0.9272 Y0.5402
X0.9347 Y0.5468
X0.9417 Y0.5538
X0.9487 Y0.5609
X0.9552 Y0.5685
X0.9616 Y0.5761
X0.9677 Y0.584
X0.9735 Y0.5921 Z-0.0593
X0.9789 Y0.6005
X0.9841 Y0.609
X0.989 Y0.6177
X0.9935 Y0.6266
X0.9977 Y0.6356
X1.0015 Y0.6448
X1.0052 Y0.654
X1.0083 Y0.6635 Z-0.0594
X1.0113 Y0.673
X1.0137 Y0.6827
X1.0159 Y0.6924
X1.0176 Y0.7022
X1.0192 Y0.7121
X1.0202 Y0.722
X1.0209 Y0.7319
X1.0213 Y0.7419
Y0.7518 Z-0.0595
X1.021 Y0.7618
X1.0202 Y0.7717
X1.0192 Y0.7816
X1.0177 Y0.7915
X1.016 Y0.8013
X1.0137 Y0.811
X1.0114 Y0.8207
X1.0084 Y0.8302
X1.0053 Y0.8397 Z-0.0596
X1.0017 Y0.849
X0.9979 Y0.8582
X0.9936 Y0.8672
X0.9891 Y0.8761
X0.9842 Y0.8848
X0.9791 Y0.8933
X0.9736 Y0.9016
X0.9678 Y0.9097 Z-0.0597
X0.9618 Y0.9177
X0.9554 Y0.9253
X0.9489 Y0.9328
X0.9419 Y0.94
X0.9349 Y0.947
X0.9274 Y0.9536
X0.9199 Y0.9601
X0.912 Y0.9662
X0.904 Y0.9721 Z-0.0598
X0.8956 Y0.9776
X0.8872 Y0.9829
X0.8785 Y0.9878
X0.8697 Y0.9924
X0.8607 Y0.9967
X0.8515 Y1.0006
X0.8423 Y1.0043
X0.8329 Y1.0075
X0.8234 Y1.0106 Z-0.0599
X0.8137 Y1.0131
X0.804 Y1.0154
X0.7942 Y1.0172
X0.7844 Y1.0189
X0.7745 Y1.0199
X0.7646 Y1.0209
X0.7546 Y1.0212
X0.7447 Y1.0214 Z-0.06
X0.7347 Y1.021
X0.7248 Y1.0205
X0.7099 Y1.0189
X0.7074 Y1.0185
X0.705 Y1.0181
X0.6951 Y1.0164
X0.6854 Y1.0143
X0.6757 Y1.012
X0.6662 Y1.0091
X0.6567 Y1.0061 Z-0.0601
X0.6474 Y1.0026
X0.6381 Y0.9989
X0.6291 Y0.9947
X0.6201 Y0.9903
X0.6114 Y0.9855
X0.6028 Y0.9805
X0.5945 Y0.975
X0.5863 Y0.9694 Z-0.0602
X0.5783 Y0.9633
X0.5706 Y0.9571
X0.563 Y0.9505
X0.5558 Y0.9437
X0.5487 Y0.9367
X0.542 Y0.9293
X0.5355 Y0.9218
X0.5293 Y0.9139
X0.5233 Y0.906 Z-0.0603
X0.5178 Y0.8977
X0.5124 Y0.8894
X0.5075 Y0.8807
X0.5027 Y0.8719
X0.4984 Y0.8629
X0.4943 Y0.8539
X0.4906 Y0.8446
X0.4872 Y0.8352
X0.4842 Y0.8257 Z-0.0604
X0.4815 Y0.8161
X0.4792 Y0.8065
X0.4772 Y0.7967
X0.4755 Y0.7869
X0.4743 Y0.777
X0.4733 Y0.7671
X0.4729 Y0.7571
X0.4725 Y0.7471 Z-0.0605
X0.4729 Y0.7372
X0.4733 Y0.7272
X0.4743 Y0.7173
X0.4755 Y0.7074
X0.4772 Y0.6976
X0.4791 Y0.6878
X0.4814 Y0.6781
X0.4841 Y0.6685
X0.4871 Y0.659 Z-0.0606
X0.4905 Y0.6497
X0.4942 Y0.6404
X0.4983 Y0.6313
X0.5025 Y0.6223
X0.5073 Y0.6136
X0.5122 Y0.6049
X0.5176 Y0.5965
X0.5231 Y0.5882
X0.5292 Y0.5803 Z-0.0607
X0.5353 Y0.5724
X0.5418 Y0.5649
X0.5485 Y0.5575
X0.5556 Y0.5505
X0.5628 Y0.5437
X0.5703 Y0.5371
X0.5781 Y0.5308
X0.586 Y0.5248 Z-0.0608
X0.5942 Y0.5192
X0.6025 Y0.5137
X0.6112 Y0.5087
X0.6198 Y0.5038
X0.6288 Y0.4995
X0.6378 Y0.4952
X0.6471 Y0.4915
X0.6564 Y0.488
X0.6659 Y0.485 Z-0.0609
X0.6754 Y0.4821
X0.6851 Y0.4797
X0.6949 Y0.4776
X0.7047 Y0.4759
X0.7145 Y0.4746
X0.7245 Y0.4736
X0.7344 Y0.473
X0.7444 Y0.4726
X0.7543 Y0.4728 Z-0.061
X0.7643 Y0.4731
X0.7742 Y0.474
X0.7841 Y0.4751
X0.7939 Y0.4767
X0.8038 Y0.4785
X0.8134 Y0.4809
X0.8231 Y0.4834
X0.8326 Y0.4864 Z-0.0611
X0.842 Y0.4896
X0.8513 Y0.4933
X0.8604 Y0.4972
X0.8694 Y0.5015
X0.8782 Y0.5061
X0.8869 Y0.511
X0.8954 Y0.5163
X0.9037 Y0.5217
X0.9117 Y0.5277 Z-0.0612
X0.9197 Y0.5337
X0.9272 Y0.5402
X0.9347 Y0.5468
X0.9417 Y0.5538
X0.9487 Y0.5609
X0.9552 Y0.5685
X0.9616 Y0.5761
X0.9677 Y0.584
X0.9735 Y0.5921 Z-0.0613
X0.9789 Y0.6005
X0.9841 Y0.609
X0.989 Y0.6177
X0.9935 Y0.6266
X0.9977 Y0.6356
X1.0015 Y0.6448
X1.0052 Y0.654
X1.0083 Y0.6635 Z-0.0614
X1.0113 Y0.673
X1.0137 Y0.6827
X1.0159 Y0.6924
X1.0176 Y0.7022
X1.0192 Y0.7121
X1.0202 Y0.722
X1.0209 Y0.7319
X1.0213 Y0.7419
Y0.7518 Z-0.0615
X1.021 Y0.7618
X1.0202 Y0.7717
X1.0192 Y0.7816
X1.0177 Y0.7915
X1.016 Y0.8013
X1.0137 Y0.811
X1.0114 Y0.8207
X1.0084 Y0.8302
X1.0053 Y0.8397 Z-0.0616
X1.0017 Y0.849
X0.9979 Y0.8582
X0.9936 Y0.8672
X0.9891 Y0.8761
X0.9842 Y0.8848
X0.9791 Y0.8933
X0.9736 Y0.9016
X0.9678 Y0.9097 Z-0.0617
X0.9618 Y0.9177
X0.9554 Y0.9253
X0.9489 Y0.9328
X0.9419 Y0.94
X0.9349 Y0.947
X0.9274 Y0.9536
X0.9199 Y0.9601
X0.912 Y0.9662
X0.904 Y0.9721 Z-0.0618
X0.8956 Y0.9776
X0.8872 Y0.9829
X0.8785 Y0.9878
X0.8697 Y0.9924
X0.8607 Y0.9967
X0.8515 Y1.0006
X0.8423 Y1.0043
X0.8329 Y1.0075
X0.8234 Y1.0106 Z-0.0619
X0.8137 Y1.0131
X0.804 Y1.0154
X0.7942 Y1.0172
X0.7844 Y1.0189
X0.7745 Y1.0199
X0.7646 Y1.0209
X0.7546 Y1.0212
X0.7447 Y1.0214 Z-0.062
X0.7347 Y1.021
X0.7248 Y1.0205
X0.7099 Y1.0189
X0.7074 Y1.0185
X0.705 Y1.0181
X0.6951 Y1.0164
X0.6854 Y1.0143
X0.6757 Y1.012
X0.6662 Y1.0091
X0.6567 Y1.0061 Z-0.0621
X0.6474 Y1.0026
X0.6381 Y0.9989
X0.6291 Y0.9947
X0.6201 Y0.9903
X0.6114 Y0.9855
X0.6028 Y0.9805
X0.5945 Y0.975
X0.5863 Y0.9694 Z-0.0622
X0.5783 Y0.9633
X0.5706 Y0.9571
X0.563 Y0.9505
X0.5558 Y0.9437
X0.5487 Y0.9367
X0.542 Y0.9293
X0.5355 Y0.9218
X0.5293 Y0.9139
X0.5233 Y0.906 Z-0.0623
X0.5178 Y0.8977
X0.5124 Y0.8894
X0.5075 Y0.8807
X0.5027 Y0.8719
X0.4984 Y0.8629
X0.4943 Y0.8539
X0.4906 Y0.8446
X0.4872 Y0.8352
X0.4842 Y0.8257 Z-0.0624
X0.4815 Y0.8161
X0.4792 Y0.8065
X0.4772 Y0.7967
X0.4755 Y0.7869
X0.4743 Y0.777
X0.4733 Y0.7671
X0.4729 Y0.7571
X0.4725 Y0.7471 Z-0.0625
X0.4729 Y0.7372
X0.4733 Y0.7272
X0.4743 Y0.7173
X0.4755 Y0.7074
X0.4772 Y0.6976
X0.4791 Y0.6878
X0.4814 Y0.6781
X0.4841 Y0.6685
X0.4871 Y0.659 Z-0.0626
X0.4905 Y0.6497
X0.4942 Y0.6404
X0.4983 Y0.6313
X0.5025 Y0.6223
X0.5073 Y0.6136
X0.5122 Y0.6049
X0.5176 Y0.5965
X0.5231 Y0.5882
X0.5292 Y0.5803 Z-0.0627
X0.5353 Y0.5724
X0.5418 Y0.5649
X0.5485 Y0.5575
X0.5556 Y0.5505
X0.5628 Y0.5437
X0.5703 Y0.5371
X0.5781 Y0.5308
X0.586 Y0.5248 Z-0.0628
X0.5942 Y0.5192
X0.6025 Y0.5137
X0.6112 Y0.5087
X0.6198 Y0.5038
X0.6288 Y0.4995
X0.6378 Y0.4952
X0.6471 Y0.4915
X0.6564 Y0.488
X0.6659 Y0.485 Z-0.0629
X0.6754 Y0.4821
X0.6851 Y0.4797
X0.6949 Y0.4776
X0.7047 Y0.4759
X0.7145 Y0.4746
X0.7245 Y0.4736
X0.7344 Y0.473
X0.7444 Y0.4726
X0.7543 Y0.4728 Z-0.063
X0.7643 Y0.4731
X0.7742 Y0.474
X0.7841 Y0.4751
X0.7939 Y0.4767
X0.8038 Y0.4785
X0.8134 Y0.4809
X0.8231 Y0.4834
X0.8326 Y0.4864 Z-0.0631
X0.842 Y0.4896
X0.8513 Y0.4933
X0.8604 Y0.4972
X0.8694 Y0.5015
X0.8782 Y0.5061
X0.8869 Y0.511
X0.8954 Y0.5163
X0.9037 Y0.5217
X0.9117 Y0.5277 Z-0.0632
X0.9197 Y0.5337
X0.9272 Y0.5402
X0.9347 Y0.5468
X0.9417 Y0.5538
X0.9487 Y0.5609
X0.9552 Y0.5685
X0.9616 Y0.5761
X0.9677 Y0.584
X0.9735 Y0.5921 Z-0.0633
X0.9789 Y0.6005
X0.9841 Y0.609
X0.989 Y0.6177
X0.9935 Y0.6266
X0.9977 Y0.6356
X1.0015 Y0.6448
X1.0052 Y0.654
X1.0083 Y0.6635 Z-0.0634
X1.0113 Y0.673
X1.0137 Y0.6827
X1.0159 Y0.6924
X1.0176 Y0.7022
X1.0192 Y0.7121
X1.0202 Y0.722
X1.0209 Y0.7319
X1.0213 Y0.7419
Y0.7518 Z-0.0635
X1.021 Y0.7618
X1.0202 Y0.7717
X1.0192 Y0.7816
X1.0177 Y0.7915
X1.016 Y0.8013
X1.0137 Y0.811
X1.0114 Y0.8207
X1.0084 Y0.8302
X1.0053 Y0.8397 Z-0.0636
X1.0017 Y0.849
X0.9979 Y0.8582
X0.9936 Y0.8672
X0.9891 Y0.8761
X0.9842 Y0.8848
X0.9791 Y0.8933
X0.9736 Y0.9016
X0.9678 Y0.9097 Z-0.0637
X0.9618 Y0.9177
X0.9554 Y0.9253
X0.9489 Y0.9328
X0.9419 Y0.94
X0.9349 Y0.947
X0.9274 Y0.9536
X0.9199 Y0.9601
X0.912 Y0.9662
X0.904 Y0.9721 Z-0.0638
X0.8956 Y0.9776
X0.8872 Y0.9829
X0.8785 Y0.9878
X0.8697 Y0.9924
X0.8607 Y0.9967
X0.8515 Y1.0006
X0.8423 Y1.0043
X0.8329 Y1.0075
X0.8234 Y1.0106 Z-0.0639
X0.8137 Y1.0131
X0.804 Y1.0154
X0.7942 Y1.0172
X0.7844 Y1.0189
X0.7745 Y1.0199
X0.7646 Y1.0209
X0.7546 Y1.0212
X0.7447 Y1.0214 Z-0.064
X0.7347 Y1.021
X0.7248 Y1.0205
X0.7099 Y1.0189
X0.7074 Y1.0185
X0.705 Y1.0181
X0.6951 Y1.0164
X0.6854 Y1.0143
X0.6757 Y1.012
X0.6662 Y1.0091
X0.6567 Y1.0061 Z-0.0641
X0.6474 Y1.0026
X0.6381 Y0.9989
X0.6291 Y0.9947
X0.6201 Y0.9903
X0.6114 Y0.9855
X0.6028 Y0.9805
X0.5945 Y0.975
X0.5863 Y0.9694 Z-0.0642
X0.5783 Y0.9633
X0.5706 Y0.9571
X0.563 Y0.9505
X0.5558 Y0.9437
X0.5487 Y0.9367
X0.542 Y0.9293
X0.5355 Y0.9218
X0.5293 Y0.9139
X0.5233 Y0.906 Z-0.0643
X0.5178 Y0.8977
X0.5124 Y0.8894
X0.5075 Y0.8807
X0.5027 Y0.8719
X0.4984 Y0.8629
X0.4943 Y0.8539
X0.4906 Y0.8446
X0.4872 Y0.8352
X0.4842 Y0.8257 Z-0.0644
X0.4815 Y0.8161
X0.4792 Y0.8065
X0.4772 Y0.7967
X0.4755 Y0.7869
X0.4743 Y0.777
X0.4733 Y0.7671
X0.4729 Y0.7571
X0.4725 Y0.7471 Z-0.0645
X0.4729 Y0.7372
X0.4733 Y0.7272
X0.4743 Y0.7173
X0.4755 Y0.7074
X0.4772 Y0.6976
X0.4791 Y0.6878
X0.4814 Y0.6781
X0.4841 Y0.6685
X0.4871 Y0.659 Z-0.0646
X0.4905 Y0.6497
X0.4942 Y0.6404
X0.4983 Y0.6313
X0.5025 Y0.6223
X0.5073 Y0.6136
X0.5122 Y0.6049
X0.5176 Y0.5965
X0.5231 Y0.5882
X0.5292 Y0.5803 Z-0.0647
X0.5353 Y0.5724
X0.5418 Y0.5649
X0.5485 Y0.5575
X0.5556 Y0.5505
X0.5628 Y0.5437
X0.5703 Y0.5371
X0.5781 Y0.5308
X0.586 Y0.5248 Z-0.0648
X0.5942 Y0.5192
X0.6025 Y0.5137
X0.6112 Y0.5087
X0.6198 Y0.5038
X0.6288 Y0.4995
X0.6378 Y0.4952
X0.6471 Y0.4915
X0.6564 Y0.488
X0.6659 Y0.485 Z-0.0649
X0.6754 Y0.4821
X0.6851 Y0.4797
X0.6949 Y0.4776
X0.7047 Y0.4759
X0.7145 Y0.4746
X0.7245 Y0.4736
X0.7344 Y0.473
X0.7444 Y0.4726
X0.7543 Y0.4728 Z-0.065
X0.7643 Y0.4731
X0.7742 Y0.474
X0.7841 Y0.4751
X0.7939 Y0.4767
X0.8038 Y0.4785
X0.8134 Y0.4809
X0.8231 Y0.4834
X0.8326 Y0.4864 Z-0.0651
X0.842 Y0.4896
X0.8513 Y0.4933
X0.8604 Y0.4972
X0.8694 Y0.5015
X0.8782 Y0.5061
X0.8869 Y0.511
X0.8954 Y0.5163
X0.9037 Y0.5217
X0.9117 Y0.5277 Z-0.0652
X0.9197 Y0.5337
X0.9272 Y0.5402
X0.9347 Y0.5468
X0.9417 Y0.5538
X0.9487 Y0.5609
X0.9552 Y0.5685
X0.9616 Y0.5761
X0.9677 Y0.584
X0.9735 Y0.5921 Z-0.0653
X0.9789 Y0.6005
X0.9841 Y0.609
X0.989 Y0.6177
X0.9935 Y0.6266
X0.9977 Y0.6356
X1.0015 Y0.6448
X1.0052 Y0.654
X1.0083 Y0.6635 Z-0.0654
X1.0113 Y0.673
X1.0137 Y0.6827
X1.0159 Y0.6924
X1.0176 Y0.7022
X1.0192 Y0.7121
X1.0202 Y0.722
X1.0209 Y0.7319
X1.0213 Y0.7419
Y0.7518 Z-0.0655
X1.021 Y0.7618
X1.0202 Y0.7717
X1.0192 Y0.7816
X1.0177 Y0.7915
X1.016 Y0.8013
X1.0137 Y0.811
X1.0114 Y0.8207
X1.0084 Y0.8302
X1.0053 Y0.8397 Z-0.0656
X1.0017 Y0.849
X0.9979 Y0.8582
X0.9936 Y0.8672
X0.9891 Y0.8761
X0.9842 Y0.8848
X0.9791 Y0.8933
X0.9736 Y0.9016
X0.9678 Y0.9097 Z-0.0657
X0.9618 Y0.9177
X0.9554 Y0.9253
X0.9489 Y0.9328
X0.9419 Y0.94
X0.9349 Y0.947
X0.9274 Y0.9536
X0.9199 Y0.9601
X0.912 Y0.9662
X0.904 Y0.9721 Z-0.0658
X0.8956 Y0.9776
X0.8872 Y0.9829
X0.8785 Y0.9878
X0.8697 Y0.9924
X0.8607 Y0.9967
X0.8515 Y1.0006
X0.8423 Y1.0043
X0.8329 Y1.0075
X0.8234 Y1.0106 Z-0.0659
X0.8137 Y1.0131
X0.804 Y1.0154
X0.7942 Y1.0172
X0.7844 Y1.0189
X0.7745 Y1.0199
X0.7646 Y1.0209
X0.7546 Y1.0212
X0.7447 Y1.0214 Z-0.066
X0.7347 Y1.021
X0.7248 Y1.0205
X0.7099 Y1.0189
X0.7074 Y1.0185
X0.705 Y1.0181
X0.6951 Y1.0164
X0.6854 Y1.0143
X0.6757 Y1.012
X0.6662 Y1.0091
X0.6567 Y1.0061 Z-0.0661
X0.6474 Y1.0026
X0.6381 Y0.9989
X0.6291 Y0.9947
X0.6201 Y0.9903
X0.6114 Y0.9855
X0.6028 Y0.9805
X0.5945 Y0.975
X0.5863 Y0.9694 Z-0.0662
X0.5783 Y0.9633
X0.5706 Y0.9571
X0.563 Y0.9505
X0.5558 Y0.9437
X0.5487 Y0.9367
X0.542 Y0.9293
X0.5355 Y0.9218
X0.5293 Y0.9139
X0.5233 Y0.906 Z-0.0663
X0.5178 Y0.8977
X0.5124 Y0.8894
X0.5075 Y0.8807
X0.5027 Y0.8719
X0.4984 Y0.8629
X0.4943 Y0.8539
X0.4906 Y0.8446
X0.4872 Y0.8352
X0.4842 Y0.8257 Z-0.0664
X0.4815 Y0.8161
X0.4792 Y0.8065
X0.4772 Y0.7967
X0.4755 Y0.7869
X0.4743 Y0.777
X0.4733 Y0.7671
X0.4729 Y0.7571
X0.4725 Y0.7471 Z-0.0665
X0.4729 Y0.7372
X0.4733 Y0.7272
X0.4743 Y0.7173
X0.4755 Y0.7074
X0.4772 Y0.6976
X0.4791 Y0.6878
X0.4814 Y0.6781
X0.4841 Y0.6685
X0.4871 Y0.659 Z-0.0666
X0.4905 Y0.6497
X0.4942 Y0.6404
X0.4983 Y0.6313
X0.5025 Y0.6223
X0.5073 Y0.6136
X0.5122 Y0.6049
X0.5176 Y0.5965
X0.5231 Y0.5882
X0.5292 Y0.5803 Z-0.0667
X0.5353 Y0.5724
X0.5418 Y0.5649
X0.5485 Y0.5575
X0.5556 Y0.5505
X0.5628 Y0.5437
X0.5703 Y0.5371
X0.5781 Y0.5308
X0.586 Y0.5248 Z-0.0668
X0.5942 Y0.5192
X0.6025 Y0.5137
X0.6112 Y0.5087
X0.6198 Y0.5038
X0.6288 Y0.4995
X0.6378 Y0.4952
X0.6471 Y0.4915
X0.6564 Y0.488
X0.6659 Y0.485 Z-0.0669
X0.6754 Y0.4821
X0.6851 Y0.4797
X0.6949 Y0.4776
X0.7047 Y0.4759
X0.7145 Y0.4746
X0.7245 Y0.4736
X0.7344 Y0.473
X0.7444 Y0.4726
X0.7543 Y0.4728 Z-0.067
X0.7643 Y0.4731
X0.7742 Y0.474
X0.7841 Y0.4751
X0.7939 Y0.4767
X0.8038 Y0.4785
X0.8134 Y0.4809
X0.8231 Y0.4834
X0.8326 Y0.4864 Z-0.0671
X0.842 Y0.4896
X0.8513 Y0.4933
X0.8604 Y0.4972
X0.8694 Y0.5015
X0.8782 Y0.5061
X0.8869 Y0.511
X0.8954 Y0.5163
X0.9037 Y0.5217
X0.9117 Y0.5277 Z-0.0672
X0.9197 Y0.5337
X0.9272 Y0.5402
X0.9347 Y0.5468
X0.9417 Y0.5538
X0.9487 Y0.5609
X0.9552 Y0.5685
X0.9616 Y0.5761
X0.9677 Y0.584
X0.9735 Y0.5921 Z-0.0673
X0.9789 Y0.6005
X0.9841 Y0.609
X0.989 Y0.6177
X0.9935 Y0.6266
X0.9977 Y0.6356
X1.0015 Y0.6448
X1.0052 Y0.654
X1.0083 Y0.6635 Z-0.0674
X1.0113 Y0.673
X1.0137 Y0.6827
X1.0159 Y0.6924
X1.0176 Y0.7022
X1.0192 Y0.7121
X1.0202 Y0.722
X1.0209 Y0.7319
X1.0213 Y0.7419
Y0.7518 Z-0.0675
X1.021 Y0.7618
X1.0202 Y0.7717
X1.0192 Y0.7816
X1.0177 Y0.7915
X1.016 Y0.8013
X1.0137 Y0.811
X1.0114 Y0.8207
X1.0084 Y0.8302
X1.0053 Y0.8397 Z-0.0676
X1.0017 Y0.849
X0.9979 Y0.8582
X0.9936 Y0.8672
X0.9891 Y0.8761
X0.9842 Y0.8848
X0.9791 Y0.8933
X0.9736 Y0.9016
X0.9678 Y0.9097 Z-0.0677
X0.9618 Y0.9177
X0.9554 Y0.9253
X0.9489 Y0.9328
X0.9419 Y0.94
X0.9349 Y0.947
X0.9274 Y0.9536
X0.9199 Y0.9601
X0.912 Y0.9662
X0.904 Y0.9721 Z-0.0678
X0.8956 Y0.9776
X0.8872 Y0.9829
X0.8785 Y0.9878
X0.8697 Y0.9924
X0.8607 Y0.9967
X0.8515 Y1.0006
X0.8423 Y1.0043
X0.8329 Y1.0075
X0.8234 Y1.0106 Z-0.0679
X0.8137 Y1.0131
X0.804 Y1.0154
X0.7942 Y1.0172
X0.7844 Y1.0189
X0.7745 Y1.0199
X0.7646 Y1.0209
X0.7546 Y1.0212
X0.7447 Y1.0214 Z-0.068
X0.7347 Y1.021
X0.7248 Y1.0205
X0.7099 Y1.0189
X0.7074 Y1.0185
X0.705 Y1.0181
X0.6951 Y1.0164
X0.6854 Y1.0143
X0.6757 Y1.012
X0.6662 Y1.0091
X0.6567 Y1.0061 Z-0.0681
X0.6474 Y1.0026
X0.6381 Y0.9989
X0.6291 Y0.9947
X0.6201 Y0.9903
X0.6114 Y0.9855
X0.6028 Y0.9805
X0.5945 Y0.975
X0.5863 Y0.9694 Z-0.0682
X0.5783 Y0.9633
X0.5706 Y0.9571
X0.563 Y0.9505
X0.5558 Y0.9437
X0.5487 Y0.9367
X0.542 Y0.9293
X0.5355 Y0.9218
X0.5293 Y0.9139
X0.5233 Y0.906 Z-0.0683
X0.5178 Y0.8977
X0.5124 Y0.8894
X0.5075 Y0.8807
X0.5027 Y0.8719
X0.4984 Y0.8629
X0.4943 Y0.8539
X0.4906 Y0.8446
X0.4872 Y0.8352
X0.4842 Y0.8257 Z-0.0684
X0.4815 Y0.8161
X0.4792 Y0.8065
X0.4772 Y0.7967
X0.4755 Y0.7869
X0.4743 Y0.777
X0.4733 Y0.7671
X0.4729 Y0.7571
X0.4725 Y0.7471 Z-0.0685
X0.4729 Y0.7372
X0.4733 Y0.7272
X0.4743 Y0.7173
X0.4755 Y0.7074
X0.4772 Y0.6976
X0.4791 Y0.6878
X0.4814 Y0.6781
X0.4841 Y0.6685
X0.4871 Y0.659 Z-0.0686
X0.4905 Y0.6497
X0.4942 Y0.6404
X0.4983 Y0.6313
X0.5025 Y0.6223
X0.5073 Y0.6136
X0.5122 Y0.6049
X0.5176 Y0.5965
X0.5231 Y0.5882
X0.5292 Y0.5803 Z-0.0687
X0.5353 Y0.5724
X0.5418 Y0.5649
X0.5485 Y0.5575
X0.5556 Y0.5505
X0.5628 Y0.5437
X0.5703 Y0.5371
X0.5781 Y0.5308
X0.586 Y0.5248 Z-0.0688
X0.5942 Y0.5192
X0.6025 Y0.5137
X0.6112 Y0.5087
X0.6198 Y0.5038
X0.6288 Y0.4995
X0.6378 Y0.4952
X0.6471 Y0.4915
X0.6564 Y0.488
X0.6659 Y0.485 Z-0.0689
X0.6754 Y0.4821
X0.6851 Y0.4797
X0.6949 Y0.4776
X0.7047 Y0.4759
X0.7145 Y0.4746
X0.7245 Y0.4736
X0.7344 Y0.473
X0.7444 Y0.4726
X0.7543 Y0.4728 Z-0.069
X0.7643 Y0.4731
X0.7742 Y0.474
X0.7841 Y0.4751
X0.7939 Y0.4767
X0.8038 Y0.4785
X0.8134 Y0.4809
X0.8231 Y0.4834
X0.8326 Y0.4864 Z-0.0691
X0.842 Y0.4896
X0.8513 Y0.4933
X0.8604 Y0.4972
X0.8694 Y0.5015
X0.8782 Y0.5061
X0.8869 Y0.511
X0.8954 Y0.5163
X0.9037 Y0.5217
X0.9117 Y0.5277 Z-0.0692
X0.9197 Y0.5337
X0.9272 Y0.5402
X0.9347 Y0.5468
X0.9417 Y0.5538
X0.9487 Y0.5609
X0.9552 Y0.5685
X0.9616 Y0.5761
X0.9677 Y0.584
X0.9735 Y0.5921 Z-0.0693
X0.9789 Y0.6005
X0.9841 Y0.609
X0.989 Y0.6177
X0.9935 Y0.6266
X0.9977 Y0.6356
X1.0015 Y0.6448
X1.0052 Y0.654
X1.0083 Y0.6635 Z-0.0694
X1.0113 Y0.673
X1.0137 Y0.6827
X1.0159 Y0.6924
X1.0176 Y0.7022
X1.0192 Y0.7121
X1.0202 Y0.722
X1.0209 Y0.7319
X1.0213 Y0.7419
Y0.7518 Z-0.0695
X1.021 Y0.7618
X1.0202 Y0.7717
X1.0192 Y0.7816
X1.0177 Y0.7915
X1.016 Y0.8013
X1.0137 Y0.811
X1.0114 Y0.8207
X1.0084 Y0.8302
X1.0053 Y0.8397 Z-0.0696
X1.0017 Y0.849
X0.9979 Y0.8582
X0.9936 Y0.8672
X0.9891 Y0.8761
X0.9842 Y0.8848
X0.9791 Y0.8933
X0.9736 Y0.9016
X0.9678 Y0.9097 Z-0.0697
X0.9618 Y0.9177
X0.9554 Y0.9253
X0.9489 Y0.9328
X0.9419 Y0.94
X0.9349 Y0.947
X0.9274 Y0.9536
X0.9199 Y0.9601
X0.912 Y0.9662
X0.904 Y0.9721 Z-0.0698
X0.8956 Y0.9776
X0.8872 Y0.9829
X0.8785 Y0.9878
X0.8697 Y0.9924
X0.8607 Y0.9967
X0.8515 Y1.0006
X0.8423 Y1.0043
X0.8329 Y1.0075
X0.8234 Y1.0106 Z-0.0699
X0.8137 Y1.0131
X0.804 Y1.0154
X0.7942 Y1.0172
X0.7844 Y1.0189
X0.7745 Y1.0199
X0.7646 Y1.0209
X0.7546 Y1.0212
X0.7447 Y1.0214 Z-0.07
X0.7347 Y1.021
X0.7248 Y1.0205
X0.7099 Y1.0189
X0.7074 Y1.0185
X0.705 Y1.0181
X0.6951 Y1.0164
X0.6854 Y1.0143
X0.6757 Y1.012
X0.6662 Y1.0091
X0.6567 Y1.0061 Z-0.0701
X0.6474 Y1.0026
X0.6381 Y0.9989
X0.6291 Y0.9947
X0.6201 Y0.9903
X0.6114 Y0.9855
X0.6028 Y0.9805
X0.5945 Y0.975
X0.5863 Y0.9694 Z-0.0702
X0.5783 Y0.9633
X0.5706 Y0.9571
X0.563 Y0.9505
X0.5558 Y0.9437
X0.5487 Y0.9367
X0.542 Y0.9293
X0.5355 Y0.9218
X0.5293 Y0.9139
X0.5233 Y0.906 Z-0.0703
X0.5178 Y0.8977
X0.5124 Y0.8894
X0.5075 Y0.8807
X0.5027 Y0.8719
X0.4984 Y0.8629
X0.4943 Y0.8539
X0.4906 Y0.8446
X0.4872 Y0.8352
X0.4842 Y0.8257 Z-0.0704
X0.4815 Y0.8161
X0.4792 Y0.8065
X0.4772 Y0.7967
X0.4755 Y0.7869
X0.4743 Y0.777
X0.4733 Y0.7671
X0.4729 Y0.7571
X0.4725 Y0.7471 Z-0.0705
X0.4729 Y0.7372
X0.4733 Y0.7272
X0.4743 Y0.7173
X0.4755 Y0.7074
X0.4772 Y0.6976
X0.4791 Y0.6878
X0.4814 Y0.6781
X0.4841 Y0.6685
X0.4871 Y0.659 Z-0.0706
X0.4905 Y0.6497
X0.4942 Y0.6404
X0.4983 Y0.6313
X0.5025 Y0.6223
X0.5073 Y0.6136
X0.5122 Y0.6049
X0.5176 Y0.5965
X0.5231 Y0.5882
X0.5292 Y0.5803 Z-0.0707
X0.5353 Y0.5724
X0.5418 Y0.5649
X0.5485 Y0.5575
X0.5556 Y0.5505
X0.5628 Y0.5437
X0.5703 Y0.5371
X0.5781 Y0.5308
X0.586 Y0.5248 Z-0.0708
X0.5942 Y0.5192
X0.6025 Y0.5137
X0.6112 Y0.5087
X0.6198 Y0.5038
X0.6288 Y0.4995
X0.6378 Y0.4952
X0.6471 Y0.4915
X0.6564 Y0.488
X0.6659 Y0.485 Z-0.0709
X0.6754 Y0.4821
X0.6851 Y0.4797
X0.6949 Y0.4776
X0.7047 Y0.4759
X0.7145 Y0.4746
X0.7245 Y0.4736
X0.7344 Y0.473
X0.7444 Y0.4726
X0.7543 Y0.4728 Z-0.071
X0.7643 Y0.4731
X0.7742 Y0.474
X0.7841 Y0.4751
X0.7939 Y0.4767
X0.8038 Y0.4785
X0.8134 Y0.4809
X0.8231 Y0.4834
X0.8326 Y0.4864 Z-0.0711
X0.842 Y0.4896
X0.8513 Y0.4933
X0.8604 Y0.4972
X0.8694 Y0.5015
X0.8782 Y0.5061
X0.8869 Y0.511
X0.8954 Y0.5163
X0.9037 Y0.5217
X0.9117 Y0.5277 Z-0.0712
X0.9197 Y0.5337
X0.9272 Y0.5402
X0.9347 Y0.5468
X0.9417 Y0.5538
X0.9487 Y0.5609
X0.9552 Y0.5685
X0.9616 Y0.5761
X0.9677 Y0.584
X0.9735 Y0.5921 Z-0.0713
X0.9789 Y0.6005
X0.9841 Y0.609
X0.989 Y0.6177
X0.9935 Y0.6266
X0.9977 Y0.6356
X1.0015 Y0.6448
X1.0052 Y0.654
X1.0083 Y0.6635 Z-0.0714
X1.0113 Y0.673
X1.0137 Y0.6827
X1.0159 Y0.6924
X1.0176 Y0.7022
X1.0192 Y0.7121
X1.0202 Y0.722
X1.0209 Y0.7319
X1.0213 Y0.7419
Y0.7518 Z-0.0715
X1.021 Y0.7618
X1.0202 Y0.7717
X1.0192 Y0.7816
X1.0177 Y0.7915
X1.016 Y0.8013
X1.0137 Y0.811
X1.0114 Y0.8207
X1.0084 Y0.8302
X1.0053 Y0.8397 Z-0.0716
X1.0017 Y0.849
X0.9979 Y0.8582
X0.9936 Y0.8672
X0.9891 Y0.8761
X0.9842 Y0.8848
X0.9791 Y0.8933
X0.9736 Y0.9016
X0.9678 Y0.9097 Z-0.0717
X0.9618 Y0.9177
X0.9554 Y0.9253
X0.9489 Y0.9328
X0.9419 Y0.94
X0.9349 Y0.947
X0.9274 Y0.9536
X0.9199 Y0.9601
X0.912 Y0.9662
X0.904 Y0.9721 Z-0.0718
X0.8956 Y0.9776
X0.8872 Y0.9829
X0.8785 Y0.9878
X0.8697 Y0.9924
X0.8607 Y0.9967
X0.8515 Y1.0006
X0.8423 Y1.0043
X0.8329 Y1.0075
X0.8234 Y1.0106 Z-0.0719
X0.8137 Y1.0131
X0.804 Y1.0154
X0.7942 Y1.0172
X0.7844 Y1.0189
X0.7745 Y1.0199
X0.7646 Y1.0209
X0.7546 Y1.0212
X0.7447 Y1.0214 Z-0.072
X0.7347 Y1.021
X0.7248 Y1.0205
X0.7099 Y1.0189
X0.7074 Y1.0185
X0.705 Y1.0181
X0.6951 Y1.0164
X0.6854 Y1.0143
X0.6757 Y1.012
X0.6662 Y1.0091
X0.6567 Y1.0061 Z-0.0721
X0.6474 Y1.0026
X0.6381 Y0.9989
X0.6291 Y0.9947
X0.6201 Y0.9903
X0.6114 Y0.9855
X0.6028 Y0.9805
X0.5945 Y0.975
X0.5863 Y0.9694 Z-0.0722
X0.5783 Y0.9633
X0.5706 Y0.9571
X0.563 Y0.9505
X0.5558 Y0.9437
X0.5487 Y0.9367
X0.542 Y0.9293
X0.5355 Y0.9218
X0.5293 Y0.9139
X0.5233 Y0.906 Z-0.0723
X0.5178 Y0.8977
X0.5124 Y0.8894
X0.5075 Y0.8807
X0.5027 Y0.8719
X0.4984 Y0.8629
X0.4943 Y0.8539
X0.4906 Y0.8446
X0.4872 Y0.8352
X0.4842 Y0.8257 Z-0.0724
X0.4815 Y0.8161
X0.4792 Y0.8065
X0.4772 Y0.7967
X0.4755 Y0.7869
X0.4743 Y0.777
X0.4733 Y0.7671
X0.4729 Y0.7571
X0.4725 Y0.7471 Z-0.0725
X0.4729 Y0.7372
X0.4733 Y0.7272
X0.4743 Y0.7173
X0.4755 Y0.7074
X0.4772 Y0.6976
X0.4791 Y0.6878
X0.4814 Y0.6781
X0.4841 Y0.6685
X0.4871 Y0.659 Z-0.0726
X0.4905 Y0.6497
X0.4942 Y0.6404
X0.4983 Y0.6313
X0.5025 Y0.6223
X0.5073 Y0.6136
X0.5122 Y0.6049
X0.5176 Y0.5965
X0.5231 Y0.5882
X0.5292 Y0.5803 Z-0.0727
X0.5353 Y0.5724
X0.5418 Y0.5649
X0.5485 Y0.5575
X0.5556 Y0.5505
X0.5628 Y0.5437
X0.5703 Y0.5371
X0.5781 Y0.5308
X0.586 Y0.5248 Z-0.0728
X0.5942 Y0.5192
X0.6025 Y0.5137
X0.6112 Y0.5087
X0.6198 Y0.5038
X0.6288 Y0.4995
X0.6378 Y0.4952
X0.6471 Y0.4915
X0.6564 Y0.488
X0.6659 Y0.485 Z-0.0729
X0.6754 Y0.4821
X0.6851 Y0.4797
X0.6949 Y0.4776
X0.7047 Y0.4759
X0.7145 Y0.4746
X0.7245 Y0.4736
X0.7344 Y0.473
X0.7444 Y0.4726
X0.7543 Y0.4728 Z-0.073
X0.7643 Y0.4731
X0.7742 Y0.474
X0.7841 Y0.4751
X0.7939 Y0.4767
X0.8038 Y0.4785
X0.8134 Y0.4809
X0.8231 Y0.4834
X0.8326 Y0.4864 Z-0.0731
X0.842 Y0.4896
X0.8513 Y0.4933
X0.8604 Y0.4972
X0.8694 Y0.5015
X0.8782 Y0.5061
X0.8869 Y0.511
X0.8954 Y0.5163
X0.9037 Y0.5217
X0.9117 Y0.5277 Z-0.0732
X0.9197 Y0.5337
X0.9272 Y0.5402
X0.9347 Y0.5468
X0.9417 Y0.5538
X0.9487 Y0.5609
X0.9552 Y0.5685
X0.9616 Y0.5761
X0.9677 Y0.584
X0.9735 Y0.5921 Z-0.0733
X0.9789 Y0.6005
X0.9841 Y0.609
X0.989 Y0.6177
X0.9935 Y0.6266
X0.9977 Y0.6356
X1.0015 Y0.6448
X1.0052 Y0.654
X1.0083 Y0.6635 Z-0.0734
X1.0113 Y0.673
X1.0137 Y0.6827
X1.0159 Y0.6924
X1.0176 Y0.7022
X1.0192 Y0.7121
X1.0202 Y0.722
X1.0209 Y0.7319
X1.0213 Y0.7419
Y0.7518 Z-0.0735
X1.021 Y0.7618
X1.0202 Y0.7717
X1.0192 Y0.7816
X1.0177 Y0.7915
X1.016 Y0.8013
X1.0137 Y0.811
X1.0114 Y0.8207
X1.0084 Y0.8302
X1.0053 Y0.8397 Z-0.0736
X1.0017 Y0.849
X0.9979 Y0.8582
X0.9936 Y0.8672
X0.9891 Y0.8761
X0.9842 Y0.8848
X0.9791 Y0.8933
X0.9736 Y0.9016
X0.9678 Y0.9097 Z-0.0737
X0.9618 Y0.9177
X0.9554 Y0.9253
X0.9489 Y0.9328
X0.9419 Y0.94
X0.9349 Y0.947
X0.9274 Y0.9536
X0.9199 Y0.9601
X0.912 Y0.9662
X0.904 Y0.9721 Z-0.0738
X0.8956 Y0.9776
X0.8872 Y0.9829
X0.8785 Y0.9878
X0.8697 Y0.9924
X0.8607 Y0.9967
X0.8515 Y1.0006
X0.8423 Y1.0043
X0.8329 Y1.0075
X0.8234 Y1.0106 Z-0.0739
X0.8137 Y1.0131
X0.804 Y1.0154
X0.7942 Y1.0172
X0.7844 Y1.0189
X0.7745 Y1.0199
X0.7646 Y1.0209
X0.7546 Y1.0212
X0.7447 Y1.0214 Z-0.074
X0.7347 Y1.021
X0.7248 Y1.0205
X0.7099 Y1.0189
X0.7074 Y1.0185
X0.705 Y1.0181
X0.6951 Y1.0164
X0.6854 Y1.0143
X0.6757 Y1.012
X0.6662 Y1.0091
X0.6567 Y1.0061 Z-0.0741
X0.6474 Y1.0026
X0.6381 Y0.9989
X0.6291 Y0.9947
X0.6201 Y0.9903
X0.6114 Y0.9855
X0.6028 Y0.9805
X0.5945 Y0.975
X0.5863 Y0.9694 Z-0.0742
X0.5783 Y0.9633
X0.5706 Y0.9571
X0.563 Y0.9505
X0.5558 Y0.9437
X0.5487 Y0.9367
X0.542 Y0.9293
X0.5355 Y0.9218
X0.5293 Y0.9139
X0.5233 Y0.906 Z-0.0743
X0.5178 Y0.8977
X0.5124 Y0.8894
X0.5075 Y0.8807
X0.5027 Y0.8719
X0.4984 Y0.8629
X0.4943 Y0.8539
X0.4906 Y0.8446
X0.4872 Y0.8352
X0.4842 Y0.8257 Z-0.0744
X0.4815 Y0.8161
X0.4792 Y0.8065
X0.4772 Y0.7967
X0.4755 Y0.7869
X0.4743 Y0.777
X0.4733 Y0.7671
X0.4729 Y0.7571
X0.4725 Y0.7471 Z-0.0745
X0.4729 Y0.7372
X0.4733 Y0.7272
X0.4743 Y0.7173
X0.4755 Y0.7074
X0.4772 Y0.6976
X0.4791 Y0.6878
X0.4814 Y0.6781
X0.4841 Y0.6685
X0.4871 Y0.659 Z-0.0746
X0.4905 Y0.6497
X0.4942 Y0.6404
X0.4983 Y0.6313
X0.5025 Y0.6223
X0.5073 Y0.6136
X0.5122 Y0.6049
X0.5176 Y0.5965
X0.5231 Y0.5882
X0.5292 Y0.5803 Z-0.0747
X0.5353 Y0.5724
X0.5418 Y0.5649
X0.5485 Y0.5575
X0.5556 Y0.5505
X0.5628 Y0.5437
X0.5703 Y0.5371
X0.5781 Y0.5308
X0.586 Y0.5248 Z-0.0748
X0.5942 Y0.5192
X0.6025 Y0.5137
X0.6112 Y0.5087
X0.6198 Y0.5038
X0.6288 Y0.4995
X0.6378 Y0.4952
X0.6471 Y0.4915
X0.6564 Y0.488
X0.6659 Y0.485 Z-0.0749
X0.6754 Y0.4821
X0.6851 Y0.4797
X0.6949 Y0.4776
X0.7047 Y0.4759
X0.7145 Y0.4746
X0.7245 Y0.4736
X0.7344 Y0.473
X0.7444 Y0.4726
X0.7543 Y0.4728 Z-0.075
X0.7643 Y0.4731
X0.7742 Y0.474
X0.7841 Y0.4751
X0.7939 Y0.4767
X0.8038 Y0.4785
X0.8134 Y0.4809
X0.8231 Y0.4834
X0.8326 Y0.4864 Z-0.0751
X0.842 Y0.4896
X0.8513 Y0.4933
X0.8604 Y0.4972
X0.8694 Y0.5015
X0.8782 Y0.5061
X0.8869 Y0.511
X0.8954 Y0.5163
X0.9037 Y0.5217
X0.9117 Y0.5277 Z-0.0752
X0.9197 Y0.5337
X0.9272 Y0.5402
X0.9347 Y0.5468
X0.9417 Y0.5538
X0.9487 Y0.5609
X0.9552 Y0.5685
X0.9616 Y0.5761
X0.9677 Y0.584
X0.9735 Y0.5921 Z-0.0753
X0.9789 Y0.6005
X0.9841 Y0.609
X0.989 Y0.6177
X0.9935 Y0.6266
X0.9977 Y0.6356
X1.0015 Y0.6448
X1.0052 Y0.654
X1.0083 Y0.6635 Z-0.0754
X1.0113 Y0.673
X1.0137 Y0.6827
X1.0159 Y0.6924
X1.0176 Y0.7022
X1.0192 Y0.7121
X1.0202 Y0.722
X1.0209 Y0.7319
X1.0213 Y0.7419
Y0.7518 Z-0.0755
X1.021 Y0.7618
X1.0202 Y0.7717
X1.0192 Y0.7816
X1.0177 Y0.7915
X1.016 Y0.8013
X1.0137 Y0.811
X1.0114 Y0.8207
X1.0084 Y0.8302
X1.0053 Y0.8397 Z-0.0756
X1.0017 Y0.849
X0.9979 Y0.8582
X0.9936 Y0.8672
X0.9891 Y0.8761
X0.9842 Y0.8848
X0.9791 Y0.8933
X0.9736 Y0.9016
X0.9678 Y0.9097 Z-0.0757
X0.9618 Y0.9177
X0.9554 Y0.9253
X0.9489 Y0.9328
X0.9419 Y0.94
X0.9349 Y0.947
X0.9274 Y0.9536
X0.9199 Y0.9601
X0.912 Y0.9662
X0.904 Y0.9721 Z-0.0758
X0.8956 Y0.9776
X0.8872 Y0.9829
X0.8785 Y0.9878
X0.8697 Y0.9924
X0.8607 Y0.9967
X0.8515 Y1.0006
X0.8423 Y1.0043
X0.8329 Y1.0075
X0.8234 Y1.0106 Z-0.0759
X0.8137 Y1.0131
X0.804 Y1.0154
X0.7942 Y1.0172
X0.7844 Y1.0189
X0.7745 Y1.0199
X0.7646 Y1.0209
X0.7546 Y1.0212
X0.7447 Y1.0214 Z-0.076
X0.7347 Y1.021
X0.7248 Y1.0205
X0.7099 Y1.0189
X0.7074 Y1.0185
X0.705 Y1.0181
X0.6951 Y1.0164
X0.6854 Y1.0143
X0.6757 Y1.012
X0.6662 Y1.0091
X0.6567 Y1.0061 Z-0.0761
X0.6474 Y1.0026
X0.6381 Y0.9989
X0.6291 Y0.9947
X0.6201 Y0.9903
X0.6114 Y0.9855
X0.6028 Y0.9805
X0.5945 Y0.975
X0.5863 Y0.9694 Z-0.0762
X0.5783 Y0.9633
X0.5706 Y0.9571
X0.563 Y0.9505
X0.5558 Y0.9437
X0.5487 Y0.9367
X0.542 Y0.9293
X0.5355 Y0.9218
X0.5293 Y0.9139
X0.5233 Y0.906 Z-0.0763
X0.5178 Y0.8977
X0.5124 Y0.8894
X0.5075 Y0.8807
X0.5027 Y0.8719
X0.4984 Y0.8629
X0.4943 Y0.8539
X0.4906 Y0.8446
X0.4872 Y0.8352
X0.4842 Y0.8257 Z-0.0764
X0.4815 Y0.8161
X0.4792 Y0.8065
X0.4772 Y0.7967
X0.4755 Y0.7869
X0.4743 Y0.777
X0.4733 Y0.7671
X0.4729 Y0.7571
X0.4725 Y0.7471 Z-0.0765
X0.4729 Y0.7372
X0.4733 Y0.7272
X0.4743 Y0.7173
X0.4755 Y0.7074
X0.4772 Y0.6976
X0.4791 Y0.6878
X0.4814 Y0.6781
X0.4841 Y0.6685
X0.4871 Y0.659 Z-0.0766
X0.4905 Y0.6497
X0.4942 Y0.6404
X0.4983 Y0.6313
X0.5025 Y0.6223
X0.5073 Y0.6136
X0.5122 Y0.6049
X0.5176 Y0.5965
X0.5231 Y0.5882
X0.5292 Y0.5803 Z-0.0767
X0.5353 Y0.5724
X0.5418 Y0.5649
X0.5485 Y0.5575
X0.5556 Y0.5505
X0.5628 Y0.5437
X0.5703 Y0.5371
X0.5781 Y0.5308
X0.586 Y0.5248 Z-0.0768
X0.5942 Y0.5192
X0.6025 Y0.5137
X0.6112 Y0.5087
X0.6198 Y0.5038
X0.6288 Y0.4995
X0.6378 Y0.4952
X0.6471 Y0.4915
X0.6564 Y0.488
X0.6659 Y0.485 Z-0.0769
X0.6754 Y0.4821
X0.6851 Y0.4797
X0.6949 Y0.4776
X0.7047 Y0.4759
X0.7145 Y0.4746
X0.7245 Y0.4736
X0.7344 Y0.473
X0.7444 Y0.4726
X0.7543 Y0.4728 Z-0.077
X0.7643 Y0.4731
X0.7742 Y0.474
X0.7841 Y0.4751
X0.7939 Y0.4767
X0.8038 Y0.4785
X0.8134 Y0.4809
X0.8231 Y0.4834
X0.8326 Y0.4864 Z-0.0771
X0.842 Y0.4896
X0.8513 Y0.4933
X0.8604 Y0.4972
X0.8694 Y0.5015
X0.8782 Y0.5061
X0.8869 Y0.511
X0.8954 Y0.5163
X0.9037 Y0.5217
X0.9117 Y0.5277 Z-0.0772
X0.9197 Y0.5337
X0.9272 Y0.5402
X0.9347 Y0.5468
X0.9417 Y0.5538
X0.9487 Y0.5609
X0.9552 Y0.5685
X0.9616 Y0.5761
X0.9677 Y0.584
X0.9735 Y0.5921 Z-0.0773
X0.9789 Y0.6005
X0.9841 Y0.609
X0.989 Y0.6177
X0.9935 Y0.6266
X0.9977 Y0.6356
X1.0015 Y0.6448
X1.0052 Y0.654
X1.0083 Y0.6635 Z-0.0774
X1.0113 Y0.673
X1.0137 Y0.6827
X1.0159 Y0.6924
X1.0176 Y0.7022
X1.0192 Y0.7121
X1.0202 Y0.722
X1.0209 Y0.7319
X1.0213 Y0.7419
Y0.7518 Z-0.0775
X1.021 Y0.7618
X1.0202 Y0.7717
X1.0192 Y0.7816
X1.0177 Y0.7915
X1.016 Y0.8013
X1.0137 Y0.811
X1.0114 Y0.8207
X1.0084 Y0.8302
X1.0053 Y0.8397 Z-0.0776
X1.0017 Y0.849
X0.9979 Y0.8582
X0.9936 Y0.8672
X0.9891 Y0.8761
X0.9842 Y0.8848
X0.9791 Y0.8933
X0.9736 Y0.9016
X0.9678 Y0.9097 Z-0.0777
X0.9618 Y0.9177
X0.9554 Y0.9253
X0.9489 Y0.9328
X0.9419 Y0.94
X0.9349 Y0.947
X0.9274 Y0.9536
X0.9199 Y0.9601
X0.912 Y0.9662
X0.904 Y0.9721 Z-0.0778
X0.8956 Y0.9776
X0.8872 Y0.9829
X0.8785 Y0.9878
X0.8697 Y0.9924
X0.8607 Y0.9967
X0.8515 Y1.0006
X0.8423 Y1.0043
X0.8329 Y1.0075
X0.8234 Y1.0106 Z-0.0779
X0.8137 Y1.0131
X0.804 Y1.0154
X0.7942 Y1.0172
X0.7844 Y1.0189
X0.7745 Y1.0199
X0.7646 Y1.0209
X0.7546 Y1.0212
X0.7447 Y1.0214 Z-0.078
X0.7347 Y1.021
X0.7248 Y1.0205
X0.7099 Y1.0189
X0.7074 Y1.0185
X0.705 Y1.0181
X0.6951 Y1.0164
X0.6854 Y1.0143
X0.6757 Y1.012
X0.6662 Y1.0091
X0.6567 Y1.0061 Z-0.0781
X0.6474 Y1.0026
X0.6381 Y0.9989
X0.6291 Y0.9947
X0.6201 Y0.9903
X0.6114 Y0.9855
X0.6028 Y0.9805
X0.5945 Y0.975
X0.5863 Y0.9694 Z-0.0782
X0.5783 Y0.9633
X0.5706 Y0.9571
X0.563 Y0.9505
X0.5558 Y0.9437
X0.5487 Y0.9367
X0.542 Y0.9293
X0.5355 Y0.9218
X0.5293 Y0.9139
X0.5233 Y0.906 Z-0.0783
X0.5178 Y0.8977
X0.5124 Y0.8894
X0.5075 Y0.8807
X0.5027 Y0.8719
X0.4984 Y0.8629
X0.4943 Y0.8539
X0.4906 Y0.8446
X0.4872 Y0.8352
X0.4842 Y0.8257 Z-0.0784
X0.4815 Y0.8161
X0.4792 Y0.8065
X0.4772 Y0.7967
X0.4755 Y0.7869
X0.4743 Y0.777
X0.4733 Y0.7671
X0.4729 Y0.7571
X0.4725 Y0.7471 Z-0.0785
X0.4729 Y0.7372
X0.4733 Y0.7272
X0.4743 Y0.7173
X0.4755 Y0.7074
X0.4772 Y0.6976
X0.4791 Y0.6878
X0.4814 Y0.6781
X0.4841 Y0.6685
X0.4871 Y0.659 Z-0.0786
X0.4905 Y0.6497
X0.4942 Y0.6404
X0.4983 Y0.6313
X0.5025 Y0.6223
X0.5073 Y0.6136
X0.5122 Y0.6049
X0.5176 Y0.5965
X0.5231 Y0.5882
X0.5292 Y0.5803 Z-0.0787
X0.5353 Y0.5724
X0.5418 Y0.5649
X0.5485 Y0.5575
X0.5556 Y0.5505
X0.5628 Y0.5437
X0.5703 Y0.5371
X0.5781 Y0.5308
X0.586 Y0.5248 Z-0.0788
X0.5942 Y0.5192
X0.6025 Y0.5137
X0.6112 Y0.5087
X0.6198 Y0.5038
X0.6288 Y0.4995
X0.6378 Y0.4952
X0.6471 Y0.4915
X0.6564 Y0.488
X0.6659 Y0.485 Z-0.0789
X0.6754 Y0.4821
X0.6851 Y0.4797
X0.6949 Y0.4776
X0.7047 Y0.4759
X0.7145 Y0.4746
X0.7245 Y0.4736
X0.7344 Y0.473
X0.7444 Y0.4726
X0.7543 Y0.4728 Z-0.079
X0.7643 Y0.4731
X0.7742 Y0.474
X0.7841 Y0.4751
X0.7939 Y0.4767
X0.8038 Y0.4785
X0.8134 Y0.4809
X0.8231 Y0.4834
X0.8326 Y0.4864 Z-0.0791
X0.842 Y0.4896
X0.8513 Y0.4933
X0.8604 Y0.4972
X0.8694 Y0.5015
X0.8782 Y0.5061
X0.8869 Y0.511
X0.8954 Y0.5163
X0.9037 Y0.5217
X0.9117 Y0.5277 Z-0.0792
X0.9197 Y0.5337
X0.9272 Y0.5402
X0.9347 Y0.5468
X0.9417 Y0.5538
X0.9487 Y0.5609
X0.9552 Y0.5685
X0.9616 Y0.5761
X0.9677 Y0.584
X0.9735 Y0.5921 Z-0.0793
X0.9789 Y0.6005
X0.9841 Y0.609
X0.989 Y0.6177
X0.9935 Y0.6266
X0.9977 Y0.6356
X1.0015 Y0.6448
X1.0052 Y0.654
X1.0083 Y0.6635 Z-0.0794
X1.0113 Y0.673
X1.0137 Y0.6827
X1.0159 Y0.6924
X1.0176 Y0.7022
X1.0192 Y0.7121
X1.0202 Y0.722
X1.0209 Y0.7319
X1.0213 Y0.7419
Y0.7518 Z-0.0795
X1.021 Y0.7618
X1.0202 Y0.7717
X1.0192 Y0.7816
X1.0177 Y0.7915
X1.016 Y0.8013
X1.0137 Y0.811
X1.0114 Y0.8207
X1.0084 Y0.8302
X1.0053 Y0.8397 Z-0.0796
X1.0017 Y0.849
X0.9979 Y0.8582
X0.9936 Y0.8672
X0.9891 Y0.8761
X0.9842 Y0.8848
X0.9791 Y0.8933
X0.9736 Y0.9016
X0.9678 Y0.9097 Z-0.0797
X0.9618 Y0.9177
X0.9554 Y0.9253
X0.9489 Y0.9328
X0.9419 Y0.94
X0.9349 Y0.947
X0.9274 Y0.9536
X0.9199 Y0.9601
X0.912 Y0.9662
X0.904 Y0.9721 Z-0.0798
X0.8956 Y0.9776
X0.8872 Y0.9829
X0.8785 Y0.9878
X0.8697 Y0.9924
X0.8607 Y0.9967
X0.8515 Y1.0006
X0.8423 Y1.0043
X0.8329 Y1.0075
X0.8234 Y1.0106 Z-0.0799
X0.8137 Y1.0131
X0.804 Y1.0154
X0.7942 Y1.0172
X0.7844 Y1.0189
X0.7745 Y1.0199
X0.7646 Y1.0209
X0.7546 Y1.0212
X0.7447 Y1.0214 Z-0.08
X0.7347 Y1.021
X0.7248 Y1.0205
X0.7148 Y1.0194
X0.705 Y1.0181
X0.7048
X0.695 Y1.0164
X0.6852 Y1.0143
X0.6755 Y1.0119
X0.666 Y1.0091
X0.6565 Y1.0061 Z-0.0801
X0.6472 Y1.0025
X0.6379 Y0.9988
X0.6289 Y0.9946
X0.6199 Y0.9902
X0.6112 Y0.9854
X0.6026 Y0.9803
X0.5943 Y0.9749
X0.5861 Y0.9692 Z-0.0802
X0.5782 Y0.9632
X0.5704 Y0.957
X0.5629 Y0.9504
X0.5556 Y0.9436
X0.5486 Y0.9365
X0.5419 Y0.9292
X0.5353 Y0.9216
X0.5292 Y0.9138
X0.5232 Y0.9058 Z-0.0803
X0.5177 Y0.8975
X0.5123 Y0.8892
X0.5074 Y0.8805
X0.5026 Y0.8718
X0.4983 Y0.8628
X0.4942 Y0.8537
X0.4906 Y0.8444
X0.4872 Y0.835
X0.4841 Y0.8255 Z-0.0804
X0.4815 Y0.8159
X0.4791 Y0.8063
X0.4772 Y0.7965
X0.4755 Y0.7867
X0.4743 Y0.7768
X0.4733 Y0.7669
X0.4729 Y0.7569
X0.4725 Y0.7469 Z-0.0805
X0.4729 Y0.737
X0.4733 Y0.727
X0.4743 Y0.7171
X0.4755 Y0.7072
X0.4772 Y0.6974
X0.4791 Y0.6876
X0.4815 Y0.678
X0.4842 Y0.6684
X0.4872 Y0.6589 Z-0.0806
X0.4906 Y0.6495
X0.4942 Y0.6402
X0.4984 Y0.6311
X0.5026 Y0.6221
X0.5074 Y0.6134
X0.5123 Y0.6047
X0.5177 Y0.5964
X0.5233 Y0.5881
X0.5293 Y0.5801 Z-0.0807
X0.5354 Y0.5723
X0.542 Y0.5648
X0.5487 Y0.5574
X0.5557 Y0.5504
X0.563 Y0.5435
X0.5705 Y0.537
X0.5782 Y0.5307
X0.5862 Y0.5247 Z-0.0808
X0.5944 Y0.5191
X0.6027 Y0.5136
X0.6113 Y0.5086
X0.62 Y0.5037
X0.629 Y0.4994
X0.638 Y0.4951
X0.6473 Y0.4915
X0.6566 Y0.4879
X0.6661 Y0.4849 Z-0.0809
X0.6756 Y0.4821
X0.6853 Y0.4797
X0.6951 Y0.4776
X0.7049 Y0.4759
X0.7147 Y0.4746
X0.7247 Y0.4735
X0.7346 Y0.473
X0.7446 Y0.4726
X0.7545 Y0.4728 Z-0.081
X0.7645 Y0.4731
X0.7744 Y0.4741
X0.7843 Y0.4751
X0.7941 Y0.4768
X0.8039 Y0.4785
X0.8136 Y0.4809
X0.8233 Y0.4834
X0.8328 Y0.4864 Z-0.0811
X0.8422 Y0.4897
X0.8515 Y0.4933
X0.8606 Y0.4973
X0.8696 Y0.5016
X0.8784 Y0.5062
X0.8871 Y0.5111
X0.8955 Y0.5164
X0.9039 Y0.5218
X0.9119 Y0.5278 Z-0.0812
X0.9198 Y0.5338
X0.9274 Y0.5403
X0.9348 Y0.5469
X0.9419 Y0.554
X0.9488 Y0.5611
X0.9554 Y0.5686
X0.9618 Y0.5762
X0.9678 Y0.5842
X0.9736 Y0.5923 Z-0.0813
X0.979 Y0.6006
X0.9842 Y0.6092
X0.9891 Y0.6178
X0.9936 Y0.6267
X0.9978 Y0.6357
X1.0016 Y0.645
X1.0053 Y0.6542
X1.0084 Y0.6637 Z-0.0814
X1.0113 Y0.6732
X1.0137 Y0.6829
X1.016 Y0.6926
X1.0177 Y0.7024
X1.0192 Y0.7123
X1.0202 Y0.7222
X1.021 Y0.7321
X1.0213 Y0.7421
Y0.752 Z-0.0815
X1.021 Y0.762
X1.0202 Y0.7719
X1.0192 Y0.7818
X1.0176 Y0.7917
X1.016 Y0.8015
X1.0137 Y0.8112
X1.0113 Y0.8209
X1.0083 Y0.8304
X1.0052 Y0.8399 Z-0.0816
X1.0016 Y0.8491
X0.9978 Y0.8584
X0.9935 Y0.8674
X0.989 Y0.8762
X0.9841 Y0.8849
X0.979 Y0.8935
X0.9735 Y0.9018
X0.9677 Y0.9099 Z-0.0817
X0.9617 Y0.9178
X0.9553 Y0.9255
X0.9488 Y0.933
X0.9418 Y0.9401
X0.9348 Y0.9472
X0.9273 Y0.9537
X0.9197 Y0.9603
X0.9118 Y0.9663
X0.9038 Y0.9722 Z-0.0818
X0.8955 Y0.9777
X0.887 Y0.983
X0.8783 Y0.9878
X0.8695 Y0.9925
X0.8605 Y0.9968
X0.8514 Y1.0007
X0.8421 Y1.0044
X0.8327 Y1.0076
X0.8232 Y1.0106 Z-0.0819
X0.8135 Y1.0131
X0.8038 Y1.0155
X0.794 Y1.0172
X0.7842 Y1.0189
X0.7743 Y1.0199
X0.7644 Y1.0209
X0.7544 Y1.0212
X0.7445 Y1.0214 Z-0.082
X0.7345 Y1.021
X0.7246 Y1.0204
X0.7146 Y1.0194
X0.7048 Y1.0181
X0.7046 Y1.018
X0.6948 Y1.0163
X0.685 Y1.0142
X0.6753 Y1.0119
X0.6658 Y1.009
X0.6563 Y1.006 Z-0.0821
X0.647 Y1.0024
X0.6377 Y0.9988
X0.6287 Y0.9945
X0.6198 Y0.9901
X0.6111 Y0.9853
X0.6025 Y0.9802
X0.5941 Y0.9748
X0.5859 Y0.9691 Z-0.0822
X0.578 Y0.9631
X0.5703 Y0.9568
X0.5627 Y0.9503
X0.5555 Y0.9434
X0.5485 Y0.9364
X0.5418 Y0.929
X0.5352 Y0.9215
X0.5291 Y0.9136
X0.5231 Y0.9057 Z-0.0823
X0.5176 Y0.8974
X0.5122 Y0.889
X0.5073 Y0.8803
X0.5025 Y0.8716
X0.4982 Y0.8626
X0.4941 Y0.8535
X0.4905 Y0.8442
X0.4871 Y0.8349
X0.4841 Y0.8254 Z-0.0824
X0.4814 Y0.8158
X0.4791 Y0.8061
X0.4771 Y0.7963
X0.4755 Y0.7865
X0.4743 Y0.7766
X0.4733 Y0.7667
X0.4729 Y0.7567
X0.4725 Y0.7467 Z-0.0825
X0.4729 Y0.7368
X0.4733 Y0.7268
X0.4743 Y0.7169
X0.4755 Y0.707
X0.4772 Y0.6972
X0.4792 Y0.6874
X0.4815 Y0.6778
X0.4842 Y0.6682
X0.4872 Y0.6587 Z-0.0826
X0.4907 Y0.6493
X0.4943 Y0.64
X0.4984 Y0.631
X0.5027 Y0.622
X0.5075 Y0.6132
X0.5124 Y0.6046
X0.5179 Y0.5962
X0.5234 Y0.5879
X0.5294 Y0.58 Z-0.0827
X0.5355 Y0.5721
X0.5421 Y0.5646
X0.5488 Y0.5573
X0.5559 Y0.5502
X0.5631 Y0.5434
X0.5706 Y0.5368
X0.5784 Y0.5306
X0.5863 Y0.5246 Z-0.0828
X0.5945 Y0.5189
X0.6029 Y0.5135
X0.6115 Y0.5085
X0.6202 Y0.5036
X0.6292 Y0.4993
X0.6382 Y0.495
X0.6475 Y0.4914
X0.6568 Y0.4878
X0.6663 Y0.4848 Z-0.0829
X0.6758 Y0.482
X0.6855 Y0.4797
X0.6953 Y0.4776
X0.7051 Y0.4759
X0.7149 Y0.4745
X0.7249 Y0.4735
X0.7348 Y0.473
X0.7448 Y0.4726
X0.7547 Y0.4728 Z-0.083
X0.7647 Y0.4731
X0.7746 Y0.4741
X0.7845 Y0.4751
X0.7943 Y0.4768
X0.8041 Y0.4786
X0.8138 Y0.481
X0.8235 Y0.4835
X0.833 Y0.4865 Z-0.0831
X0.8424 Y0.4897
X0.8516 Y0.4934
X0.8608 Y0.4974
X0.8698 Y0.5016
X0.8786 Y0.5063
X0.8873 Y0.5112
X0.8957 Y0.5165
X0.904 Y0.522
X0.912 Y0.5279 Z-0.0832
X0.92 Y0.5339
X0.9275 Y0.5405
X0.935 Y0.5471
X0.942 Y0.5541
X0.949 Y0.5612
X0.9555 Y0.5688
X0.9619 Y0.5764
X0.9679 Y0.5843
X0.9737 Y0.5925 Z-0.0833
